;Generated with Cura_SteamEngine 13.12
M109 T0 S220.000000
T0
;Sliced at: Tue 14-01-2014 17:56:32
;Basic settings: Layer height: 0.2 Walls: 0.6 Fill: 15
;Print time: #P_TIME#
;Filament used: #F_AMNT#m #F_WGHT#g
;Filament cost: #F_COST#
;M190 S70 ;Uncomment to add your own bed temperature line
;M109 S220 ;Uncomment to add your own temperature line
G21        ;metric values
G90        ;absolute positioning
M107       ;start with the fan off
G28 X0 Y0  ;move X/Y to min endstops
G28 Z0     ;move Z to min endstops
G1 Z15.0 F10800 ;move the platform down 15mm
G92 E0                  ;zero the extruded length
G1 F200 E3              ;extrude 3mm of feed stock
G92 E0                  ;zero the extruded length again
G1 F10800
;Put printing message on LCD screen
M117 Printing...

;Layer count: 31
;LAYER:0
M107
G0 F1680 X49.77 Y47.84 Z0.30
;TYPE:SKIRT
G1 F2400 E0.00000
G1 F1140 X155.23 Y47.84 E2.95473
G1 X157.16 Y49.77 E3.03134
G1 X157.16 Y155.23 E5.98602
G1 X155.23 Y157.16 E6.06265
G1 X49.77 Y157.16 E9.01738
G1 X47.84 Y155.23 E9.09400
G1 X47.84 Y49.77 E12.04867
G1 X49.77 Y47.84 E12.12526
G0 F1680 X78.42 Y93.84
G1 F1140 X78.42 Y111.16 E12.61072
G1 X82.13 Y111.16 E12.71475
G1 X82.13 Y93.84 E13.20021
G1 X78.42 Y93.84 E13.30424
G1 F2400 E8.80424
G0 F1680 X74.99 Y90.24
;TYPE:WALL-OUTER
G1 F2400 E13.30424
G1 F1140 X74.82 Y90.41 E13.31118
G1 X74.82 Y114.59 E13.98853
G1 X74.99 Y114.76 E13.99549
G1 X85.56 Y114.76 E14.29142
G1 X85.73 Y114.59 E14.29839
G1 X85.73 Y90.41 E14.97575
G1 X85.56 Y90.24 E14.98271
G1 X74.99 Y90.24 E15.27864
G0 F1680 X74.71 Y89.95
G0 X78.42 Y75.82
G0 X78.53 Y75.44
G1 F1140 X80.23 Y75.90 E15.32815
G1 X80.31 Y75.90 E15.33034
G1 X82.02 Y75.44 E15.37988
G1 X82.09 Y75.40 E15.38210
G1 X83.34 Y74.15 E15.43157
G1 X83.38 Y74.08 E15.43378
G1 X83.83 Y72.38 E15.48327
G1 X83.83 Y72.30 E15.48545
G1 X83.38 Y70.59 E15.53496
G1 X83.34 Y70.52 E15.53719
G1 X82.09 Y69.28 E15.58664
G1 X82.02 Y69.24 E15.58888
G1 X80.31 Y68.78 E15.63842
G1 X80.23 Y68.78 E15.64060
G1 X78.53 Y69.24 E15.69010
G1 X78.46 Y69.28 E15.69231
G1 X77.21 Y70.52 E15.74176
G1 X77.17 Y70.59 E15.74397
G1 X76.71 Y72.30 E15.79345
G1 X76.71 Y72.38 E15.79564
G1 X77.17 Y74.08 E15.84514
G1 X77.21 Y74.15 E15.84738
G1 X78.46 Y75.40 E15.89683
G1 X78.53 Y75.44 E15.89904
G0 F1680 X78.42 Y75.82
G0 X101.00 Y81.63
G0 X101.35 Y81.83
G1 F1140 X100.92 Y83.41 E15.94478
G1 X100.92 Y83.49 E15.94694
G1 X101.35 Y85.07 E15.99268
G1 X101.39 Y85.14 E15.99491
G1 X102.54 Y86.29 E16.04062
G1 X102.61 Y86.33 E16.04283
G1 X104.18 Y86.75 E16.08858
G1 X104.26 Y86.75 E16.09079
G1 X105.84 Y86.33 E16.13654
G1 X105.91 Y86.29 E16.13875
G1 X107.06 Y85.14 E16.18444
G1 X107.10 Y85.07 E16.18665
G1 X107.53 Y83.49 E16.23240
G1 X107.53 Y83.41 E16.23461
G1 X107.10 Y81.83 E16.28036
G1 X107.06 Y81.77 E16.28257
G1 X105.91 Y80.61 E16.32828
G1 X105.84 Y80.57 E16.33051
G1 X104.26 Y80.15 E16.37625
G1 X104.19 Y80.15 E16.37841
G1 X102.61 Y80.57 E16.42415
G1 X102.54 Y80.61 E16.42638
G1 X101.39 Y81.77 E16.47211
G1 X101.35 Y81.83 E16.47434
G0 F1680 X101.00 Y81.63
G0 X100.43 Y83.56
G0 X100.99 Y85.44
G0 X102.42 Y86.79
G0 X104.33 Y87.25
G0 X106.21 Y86.69
G0 X107.57 Y85.26
G0 X108.02 Y83.35
G0 X107.46 Y81.46
G0 X108.14 Y81.04
G0 X108.43 Y81.33
G1 F1140 X108.43 Y85.57 E16.59340
G1 X108.60 Y85.75 E16.60035
G1 X140.85 Y85.75 E17.50393
G1 X141.02 Y85.57 E17.51091
G1 X141.02 Y81.33 E17.62996
G1 X140.85 Y81.15 E17.63691
G1 X108.60 Y81.15 E18.54049
G1 X108.43 Y81.33 E18.54743
G0 F1680 X108.14 Y81.04
G0 X108.40 Y80.67
G0 X112.15 Y80.07
G0 X112.51 Y79.89
G1 F1140 X112.73 Y80.32 E18.56095
G1 X112.78 Y80.37 E18.56288
G1 X113.14 Y80.64 E18.57559
G1 X113.21 Y80.66 E18.57749
G1 X113.68 Y80.75 E18.59111
G1 X113.74 Y80.75 E18.59263
G1 X114.19 Y80.67 E18.60559
G1 X114.25 Y80.64 E18.60735
G1 X114.62 Y80.39 E18.61991
G1 X114.67 Y80.33 E18.62190
G1 X114.90 Y79.91 E18.63549
G1 X114.92 Y79.86 E18.63703
G1 X114.99 Y79.29 E18.65311
G1 X114.99 Y76.45 E18.73254
G1 X115.40 Y76.45 E18.74403
G1 X115.84 Y76.49 E18.75626
G1 X116.13 Y76.57 E18.76467
G1 X116.43 Y76.75 E18.77456
G1 X116.73 Y77.04 E18.78627
G1 X117.06 Y77.47 E18.80154
G1 X118.69 Y80.11 E18.88825
G1 X118.90 Y80.35 E18.89749
G1 X119.15 Y80.56 E18.90649
G1 X119.49 Y80.71 E18.91679
G1 X119.83 Y80.75 E18.92657
G1 X119.87 Y80.75 E18.92757
G1 X120.17 Y80.72 E18.93595
G1 X120.21 Y80.71 E18.93704
G1 X120.52 Y80.58 E18.94641
G1 X120.76 Y80.41 E18.95484
G1 X120.94 Y80.18 E18.96303
G1 X121.05 Y79.97 E18.96967
G1 X121.06 Y79.93 E18.97091
G1 X121.10 Y79.69 E18.97773
G1 X121.10 Y79.63 E18.97927
G1 X121.04 Y79.33 E18.98781
G1 X121.03 Y79.31 E18.98851
G1 X120.61 Y78.33 E19.01835
G1 X120.60 Y78.32 E19.01883
G1 X119.85 Y77.11 E19.05856
G1 X119.37 Y76.53 E19.07974
G1 X118.87 Y76.04 E19.09942
G1 X118.83 Y76.01 E19.10072
G1 X119.40 Y75.81 E19.11760
G1 X120.21 Y75.23 E19.14556
G1 X120.25 Y75.18 E19.14725
G1 X120.75 Y74.38 E19.17374
G1 X120.77 Y74.32 E19.17536
G1 X120.93 Y73.30 E19.20434
G1 X120.93 Y73.26 E19.20538
G1 X120.87 Y72.69 E19.22151
G1 X120.72 Y72.15 E19.23714
G1 X120.48 Y71.68 E19.25190
G1 X120.47 Y71.66 E19.25277
G1 X120.12 Y71.23 E19.26830
G1 X119.72 Y70.89 E19.28292
G1 X119.69 Y70.87 E19.28379
G1 X119.22 Y70.62 E19.29892
G1 X118.77 Y70.46 E19.31215
G1 X118.29 Y70.38 E19.32599
G1 X117.14 Y70.31 E19.35815
G1 X113.90 Y70.32 E19.44890
G1 X113.31 Y70.39 E19.46546
G1 X113.26 Y70.41 E19.46711
G1 X112.83 Y70.66 E19.48104
G1 X112.77 Y70.71 E19.48329
G1 X112.52 Y71.14 E19.49726
G1 X112.50 Y71.20 E19.49894
G1 X112.43 Y71.79 E19.51546
G1 X112.42 Y71.81 E19.51600
G1 X112.43 Y79.32 E19.72659
G1 X112.49 Y79.84 E19.74110
G1 X112.51 Y79.89 E19.74260
G0 F1680 X112.15 Y80.07
G0 X111.93 Y79.32
G0 X112.06 Y70.94
G0 X113.20 Y69.90
G0 X118.94 Y69.99
G0 X120.51 Y70.92
G0 X121.38 Y72.65
G0 X121.20 Y74.60
G0 X120.54 Y75.60
G0 X119.66 Y76.24
G0 X121.25 Y78.51
G0 X121.63 Y78.37
G1 F1140 X121.65 Y78.43 E19.74428
G1 X122.40 Y79.65 E19.78454
G1 X122.45 Y79.70 E19.78643
G1 X123.67 Y80.47 E19.82684
G1 X123.72 Y80.50 E19.82857
G1 X125.32 Y80.75 E19.87380
G1 X125.35 Y80.75 E19.87475
G1 X126.12 Y80.69 E19.89644
G1 X126.80 Y80.53 E19.91591
G1 X127.42 Y80.27 E19.93469
G1 X127.88 Y79.97 E19.95029
G1 X128.24 Y79.64 E19.96376
G1 X128.52 Y79.27 E19.97671
G1 X128.69 Y78.89 E19.98830
G1 X128.74 Y78.58 E19.99718
G1 X128.74 Y78.53 E19.99866
G1 X128.69 Y78.22 E20.00734
G1 X128.66 Y78.17 E20.00916
G1 X128.50 Y77.93 E20.01726
G1 X128.45 Y77.89 E20.01909
G1 X128.20 Y77.74 E20.02720
G1 X128.15 Y77.72 E20.02874
G1 X127.84 Y77.68 E20.03727
G1 X127.80 Y77.68 E20.03845
G1 X127.53 Y77.71 E20.04628
G1 X127.47 Y77.73 E20.04784
G1 X127.24 Y77.86 E20.05536
G1 X126.46 Y78.55 E20.08446
G1 X126.25 Y78.69 E20.09144
G1 X126.03 Y78.81 E20.09856
G1 X125.80 Y78.89 E20.10538
G1 X125.57 Y78.94 E20.11209
G1 X125.31 Y78.96 E20.11924
G1 X124.91 Y78.90 E20.13057
G1 X124.57 Y78.76 E20.14111
G1 X124.28 Y78.52 E20.15164
G1 X124.04 Y78.18 E20.16338
G1 X123.88 Y77.74 E20.17639
G1 X123.86 Y77.53 E20.18222
G1 X127.12 Y77.53 E20.27370
G1 X127.76 Y77.47 E20.29161
G1 X128.29 Y77.31 E20.30703
G1 X128.35 Y77.26 E20.30926
G1 X128.70 Y76.88 E20.32379
G1 X128.74 Y76.80 E20.32619
G1 X128.85 Y76.18 E20.34397
G1 X128.85 Y76.13 E20.34526
G1 X128.75 Y75.37 E20.36693
G1 X128.74 Y75.33 E20.36794
G1 X128.42 Y74.55 E20.39156
G1 X127.93 Y73.88 E20.41500
G1 X127.20 Y73.31 E20.44083
G1 X127.16 Y73.29 E20.44196
G1 X126.29 Y72.94 E20.46817
G1 X126.25 Y72.93 E20.46932
G1 X125.24 Y72.82 E20.49803
G1 X125.21 Y72.81 E20.49887
G1 X124.37 Y72.89 E20.52236
G1 X123.64 Y73.09 E20.54372
G1 X123.61 Y73.11 E20.54456
G1 X122.94 Y73.45 E20.56576
G1 X122.38 Y73.93 E20.58633
G1 X121.94 Y74.52 E20.60698
G1 X121.63 Y75.21 E20.62823
G1 X121.44 Y75.97 E20.65018
G1 X121.38 Y76.77 E20.67264
G1 X121.38 Y76.81 E20.67362
G1 X121.63 Y78.37 E20.71802
G1 F2400 E16.21802
G0 F1680 X129.40 Y77.54
G1 F2400 E20.71802
G1 F1140 X129.57 Y78.30 E20.73985
G1 X129.84 Y78.97 E20.75998
G1 X129.85 Y78.99 E20.76079
G1 X130.24 Y79.59 E20.78082
G1 X130.70 Y80.07 E20.79935
G1 X130.73 Y80.09 E20.80030
G1 X131.30 Y80.46 E20.81944
G1 X131.95 Y80.68 E20.83860
G1 X132.61 Y80.75 E20.85715
G1 X132.64 Y80.75 E20.85793
G1 X133.19 Y80.70 E20.87351
G1 X133.66 Y80.58 E20.88715
G1 X134.10 Y80.39 E20.90052
G1 X134.48 Y80.16 E20.91302
G1 X134.78 Y79.90 E20.92403
G1 X134.80 Y79.98 E20.92623
G1 X135.01 Y80.36 E20.93840
G1 X135.05 Y80.41 E20.94029
G1 X135.38 Y80.65 E20.95166
G1 X135.44 Y80.67 E20.95348
G1 X135.84 Y80.75 E20.96484
G1 X135.90 Y80.75 E20.96644
G1 X136.30 Y80.67 E20.97796
G1 X136.36 Y80.65 E20.97979
G1 X136.69 Y80.42 E20.99098
G1 X136.73 Y80.37 E20.99283
G1 X136.94 Y79.99 E21.00488
G1 X136.96 Y79.94 E21.00649
G1 X137.02 Y79.43 E21.02088
G1 X137.02 Y71.45 E21.24441
G1 X136.96 Y70.97 E21.25805
G1 X136.95 Y70.92 E21.25958
G1 X136.75 Y70.54 E21.27144
G1 X136.71 Y70.49 E21.27329
G1 X136.38 Y70.25 E21.28446
G1 X136.32 Y70.23 E21.28642
G1 X135.90 Y70.15 E21.29854
G1 X135.84 Y70.15 E21.30009
G1 X135.41 Y70.23 E21.31221
G1 X135.35 Y70.26 E21.31419
G1 X135.02 Y70.52 E21.32587
G1 X134.98 Y70.57 E21.32787
G1 X134.78 Y71.03 E21.34177
G1 X134.72 Y71.56 E21.35687
G1 X134.72 Y73.54 E21.41230
G1 X134.67 Y73.50 E21.41393
G1 X134.08 Y73.13 E21.43341
G1 X133.42 Y72.91 E21.45308
G1 X132.66 Y72.84 E21.47444
G1 X132.62 Y72.84 E21.47565
G1 X131.34 Y73.09 E21.51198
G1 X131.28 Y73.12 E21.51389
G1 X130.27 Y73.86 E21.54911
G1 X130.23 Y73.91 E21.55094
G1 X129.58 Y75.10 E21.58874
G1 X129.56 Y75.15 E21.59025
G1 X129.35 Y76.69 E21.63395
G1 X129.35 Y76.72 E21.63479
G1 X129.40 Y77.54 E21.65779
G1 F2400 E17.15779
G0 F1680 X142.35 Y81.83
G1 F2400 E21.65779
G1 F1140 X141.92 Y83.41 E21.70353
G1 X141.92 Y83.49 E21.70569
G1 X142.35 Y85.07 E21.75143
G1 X142.39 Y85.14 E21.75366
G1 X143.54 Y86.29 E21.79937
G1 X143.61 Y86.33 E21.80158
G1 X145.18 Y86.75 E21.84733
G1 X145.26 Y86.75 E21.84954
G1 X146.84 Y86.33 E21.89529
G1 X146.91 Y86.29 E21.89750
G1 X148.06 Y85.14 E21.94317
G1 X148.10 Y85.07 E21.94538
G1 X148.52 Y83.49 E21.99113
G1 X148.52 Y83.41 E21.99335
G1 X148.10 Y81.83 E22.03910
G1 X148.06 Y81.77 E22.04131
G1 X146.91 Y80.61 E22.08702
G1 X146.84 Y80.57 E22.08924
G1 X145.26 Y80.15 E22.13498
G1 X145.19 Y80.15 E22.13714
G1 X143.61 Y80.57 E22.18288
G1 X143.54 Y80.61 E22.18511
G1 X142.39 Y81.77 E22.23084
G1 X142.35 Y81.83 E22.23308
G0 F1680 X142.00 Y81.63
G0 X141.43 Y83.56
G0 X141.24 Y91.57
G0 X141.19 Y91.96
G1 F1140 X140.53 Y91.88 E22.25174
G1 X140.49 Y91.88 E22.25275
G1 X139.82 Y91.96 E22.27185
G1 X139.78 Y91.97 E22.27292
G1 X139.15 Y92.22 E22.29211
G1 X138.59 Y92.64 E22.31155
G1 X138.57 Y92.67 E22.31246
G1 X138.51 Y92.48 E22.31796
G1 X138.34 Y92.22 E22.32672
G1 X138.15 Y92.05 E22.33390
G1 X138.11 Y92.03 E22.33523
G1 X137.84 Y91.91 E22.34340
G1 X137.58 Y91.88 E22.35059
G1 X137.53 Y91.88 E22.35202
G1 X137.15 Y91.95 E22.36284
G1 X137.09 Y91.98 E22.36482
G1 X136.79 Y92.22 E22.37552
G1 X136.74 Y92.27 E22.37745
G1 X136.56 Y92.64 E22.38901
G1 X136.55 Y92.69 E22.39041
G1 X136.49 Y93.19 E22.40452
G1 X136.50 Y98.47 E22.55232
G1 X136.56 Y98.93 E22.56550
G1 X136.57 Y98.98 E22.56694
G1 X136.77 Y99.38 E22.57937
G1 X136.81 Y99.43 E22.58116
G1 X137.13 Y99.68 E22.59254
G1 X137.19 Y99.71 E22.59452
G1 X137.58 Y99.80 E22.60575
G1 X137.64 Y99.80 E22.60746
G1 X138.04 Y99.72 E22.61891
G1 X138.11 Y99.69 E22.62084
G1 X138.43 Y99.45 E22.63214
G1 X138.47 Y99.40 E22.63399
G1 X138.68 Y99.00 E22.64652
G1 X138.69 Y98.95 E22.64802
G1 X138.76 Y98.43 E22.66256
G1 X138.79 Y95.20 E22.75313
G1 X138.87 Y94.74 E22.76629
G1 X139.05 Y94.37 E22.77776
G1 X139.30 Y94.10 E22.78816
G1 X139.60 Y93.93 E22.79780
G1 X139.92 Y93.88 E22.80687
G1 X140.34 Y93.96 E22.81894
G1 X140.57 Y94.20 E22.82810
G1 X140.71 Y94.67 E22.84194
G1 X140.77 Y95.41 E22.86276
G1 X140.77 Y98.47 E22.94830
G1 X140.83 Y98.93 E22.96149
G1 X140.84 Y98.98 E22.96292
G1 X141.04 Y99.38 E22.97535
G1 X141.08 Y99.43 E22.97715
G1 X141.40 Y99.69 E22.98865
G1 X141.47 Y99.72 E22.99065
G1 X141.87 Y99.80 E23.00216
G1 X141.93 Y99.80 E23.00387
G1 X142.33 Y99.72 E23.01517
G1 X142.39 Y99.69 E23.01715
G1 X142.70 Y99.44 E23.02839
G1 X142.74 Y99.39 E23.03020
G1 X142.95 Y98.99 E23.04263
G1 X142.96 Y98.94 E23.04407
G1 X143.02 Y98.43 E23.05844
G1 X143.02 Y98.41 E23.05898
G1 X143.01 Y94.49 E23.16884
G1 X142.97 Y94.02 E23.18203
G1 X142.88 Y93.61 E23.19393
G1 X142.72 Y93.22 E23.20577
G1 X142.35 Y92.65 E23.22487
G1 X141.82 Y92.22 E23.24385
G1 X141.19 Y91.96 E23.26299
G0 F1680 X141.24 Y91.57
G0 X139.63 Y91.49
G0 X136.83 Y91.56
G0 X136.06 Y92.59
G0 X136.02 Y94.25
G0 X135.65 Y94.39
G1 F1140 X135.37 Y93.64 E23.28525
G1 X135.36 Y93.61 E23.28629
G1 X134.87 Y92.90 E23.31026
G1 X134.19 Y92.35 E23.33490
G1 X133.34 Y91.98 E23.36077
G1 X132.40 Y91.86 E23.38734
G1 X132.37 Y91.86 E23.38826
G1 X131.59 Y91.94 E23.41019
G1 X130.88 Y92.16 E23.43097
G1 X130.26 Y92.51 E23.45106
G1 X129.74 Y92.99 E23.47079
G1 X129.35 Y93.55 E23.48997
G1 X129.34 Y93.58 E23.49082
G1 X129.05 Y94.27 E23.51175
G1 X128.88 Y95.03 E23.53351
G1 X128.82 Y95.82 E23.55589
G1 X128.82 Y95.85 E23.55676
G1 X129.07 Y97.47 E23.60257
G1 X129.76 Y98.69 E23.64199
G1 X129.81 Y98.74 E23.64383
G1 X130.93 Y99.52 E23.68212
G1 X130.99 Y99.54 E23.68398
G1 X132.47 Y99.80 E23.72597
G1 X132.51 Y99.80 E23.72698
G1 X133.22 Y99.75 E23.74713
G1 X133.85 Y99.58 E23.76531
G1 X134.37 Y99.35 E23.78126
G1 X134.86 Y99.01 E23.79797
G1 X135.19 Y98.68 E23.81096
G1 X135.45 Y98.29 E23.82415
G1 X135.60 Y97.94 E23.83475
G1 X135.65 Y97.63 E23.84351
G1 X135.65 Y97.58 E23.84488
G1 X135.60 Y97.28 E23.85345
G1 X135.58 Y97.22 E23.85519
G1 X135.42 Y96.99 E23.86309
G1 X135.38 Y96.94 E23.86493
G1 X135.14 Y96.79 E23.87269
G1 X135.09 Y96.77 E23.87437
G1 X134.80 Y96.73 E23.88238
G1 X134.76 Y96.72 E23.88370
G1 X134.49 Y96.76 E23.89112
G1 X134.44 Y96.78 E23.89275
G1 X134.21 Y96.92 E23.90008
G1 X133.50 Y97.60 E23.92771
G1 X133.31 Y97.75 E23.93466
G1 X133.11 Y97.86 E23.94095
G1 X132.91 Y97.95 E23.94718
G1 X132.70 Y97.99 E23.95323
G1 X132.47 Y98.01 E23.95965
G1 X132.11 Y97.96 E23.96964
G1 X131.80 Y97.82 E23.97919
G1 X131.54 Y97.58 E23.98917
G1 X131.32 Y97.23 E24.00058
G1 X131.17 Y96.79 E24.01356
G1 X131.15 Y96.58 E24.01956
G1 X134.14 Y96.58 E24.10317
G1 X134.73 Y96.52 E24.11994
G1 X135.22 Y96.35 E24.13442
G1 X135.29 Y96.31 E24.13672
G1 X135.61 Y95.92 E24.15084
G1 X135.65 Y95.85 E24.15308
G1 X135.75 Y95.23 E24.17074
G1 X135.75 Y95.18 E24.17194
G1 X135.65 Y94.39 E24.19445
G1 F2400 E19.69445
G0 F1680 X128.33 Y95.18
G1 F2400 E24.19445
G1 F1140 X128.24 Y94.39 E24.21697
G1 X127.96 Y93.64 E24.23924
G1 X127.94 Y93.61 E24.24028
G1 X127.46 Y92.90 E24.26425
G1 X126.78 Y92.35 E24.28890
G1 X125.93 Y91.98 E24.31476
G1 X124.99 Y91.86 E24.34136
G1 X124.96 Y91.86 E24.34228
G1 X124.18 Y91.94 E24.36418
G1 X123.47 Y92.16 E24.38493
G1 X122.85 Y92.51 E24.40504
G1 X122.33 Y92.99 E24.42477
G1 X121.93 Y93.58 E24.44481
G1 X121.64 Y94.27 E24.46573
G1 X121.46 Y95.03 E24.48749
G1 X121.41 Y95.82 E24.50988
G1 X121.41 Y95.85 E24.51078
G1 X121.64 Y97.42 E24.55501
G1 X121.66 Y97.47 E24.55659
G1 X122.35 Y98.69 E24.59598
G1 X122.40 Y98.74 E24.59783
G1 X123.52 Y99.52 E24.63614
G1 X123.58 Y99.54 E24.63800
G1 X125.06 Y99.80 E24.67997
G1 X125.09 Y99.80 E24.68097
G1 X125.81 Y99.75 E24.70112
G1 X126.44 Y99.58 E24.71930
G1 X126.98 Y99.33 E24.73597
G1 X127.40 Y99.05 E24.75029
G1 X127.42 Y99.03 E24.75104
G1 X127.78 Y98.68 E24.76497
G1 X128.04 Y98.29 E24.77814
G1 X128.18 Y97.94 E24.78877
G1 X128.24 Y97.63 E24.79755
G1 X128.24 Y97.58 E24.79889
G1 X128.19 Y97.28 E24.80747
G1 X128.16 Y97.22 E24.80920
G1 X128.01 Y96.99 E24.81710
G1 X127.96 Y96.94 E24.81892
G1 X127.73 Y96.79 E24.82669
G1 X127.68 Y96.77 E24.82832
G1 X127.39 Y96.73 E24.83642
G1 X127.34 Y96.72 E24.83773
G1 X127.08 Y96.76 E24.84512
G1 X127.03 Y96.78 E24.84678
G1 X126.80 Y96.92 E24.85409
G1 X126.09 Y97.60 E24.88172
G1 X125.89 Y97.75 E24.88867
G1 X125.70 Y97.86 E24.89496
G1 X125.49 Y97.95 E24.90119
G1 X125.28 Y97.99 E24.90724
G1 X125.05 Y98.01 E24.91366
G1 X124.70 Y97.96 E24.92371
G1 X124.39 Y97.82 E24.93319
G1 X124.12 Y97.58 E24.94319
G1 X123.91 Y97.23 E24.95462
G1 X123.76 Y96.79 E24.96761
G1 X123.74 Y96.58 E24.97359
G1 X126.72 Y96.58 E25.05725
G1 X127.32 Y96.52 E25.07402
G1 X127.81 Y96.35 E25.08847
G1 X127.88 Y96.31 E25.09079
G1 X128.20 Y95.92 E25.10488
