;Generated with Cura_SteamEngine 13.12
M109 T0 S200.000000
T0
;Sliced at: Mon 20-01-2014 11:05:20
;Basic settings: Layer height: 0.2 Walls: 0.6 Fill: 15
;Print time: #P_TIME#
;Filament used: #F_AMNT#m #F_WGHT#g
;Filament cost: #F_COST#
;M190 S70 ;Uncomment to add your own bed temperature line
;M109 S200 ;Uncomment to add your own temperature line
G21        ;metric values
G90        ;absolute positioning
M107       ;start with the fan off
G28 X0 Y0  ;move X/Y to min endstops
G28 Z0     ;move Z to min endstops
G1 Z15.0 F10800 ;move the platform down 15mm
G92 E0                  ;zero the extruded length
G1 F200 E3              ;extrude 3mm of feed stock
G92 E0                  ;zero the extruded length again
G1 F10800
;Put printing message on LCD screen
M117 Printing...

;Layer count: 21
;LAYER:0
M107
G0 F3000 X124.03 Y92.19 Z0.30
;TYPE:SKIRT
G1 F2400 E0.00000
G1 F1140 X124.46 Y91.64 E0.01960
G1 X124.53 Y91.56 E0.02250
G1 X143.26 Y70.58 E0.81054
G1 X145.28 Y70.11 E0.86870
G1 X146.82 Y70.71 E0.91494
G1 X147.36 Y71.07 E0.93322
G1 X148.40 Y72.08 E0.97380
G1 X148.48 Y72.16 E0.97687
G1 X156.65 Y81.24 E1.31926
G1 X156.67 Y81.26 E1.32010
G1 X166.51 Y92.61 E1.74089
G1 X166.82 Y93.15 E1.75826
G1 X172.16 Y108.23 E2.20651
G1 X172.25 Y108.83 E2.22359
G1 X172.04 Y116.20 E2.43022
G1 X172.04 Y116.25 E2.43171
G1 X171.88 Y118.96 E2.50764
G1 X171.86 Y119.11 E2.51187
G1 X170.80 Y126.03 E2.70806
G1 X170.77 Y126.18 E2.71238
G1 X170.42 Y127.56 E2.75213
G1 X170.12 Y128.18 E2.77154
G1 X166.22 Y133.15 E2.94851
G1 X166.01 Y133.37 E2.95705
G1 X165.23 Y134.07 E2.98637
G1 X164.46 Y134.45 E3.01041
G1 X163.33 Y134.68 E3.04280
G1 X163.20 Y134.70 E3.04630
G1 X159.81 Y135.14 E3.14230
G1 X159.74 Y135.15 E3.14402
G1 X157.38 Y135.37 E3.21053
G1 X156.74 Y135.30 E3.22845
G1 X152.08 Y133.89 E3.36490
G1 X151.63 Y133.67 E3.37898
G1 X147.29 Y130.72 E3.52598
G1 X147.06 Y130.52 E3.53464
G1 X145.33 Y128.80 E3.60303
G1 X143.74 Y130.22 E3.66286
G1 X143.61 Y130.32 E3.66741
G1 X139.94 Y133.00 E3.79486
G1 X139.81 Y133.09 E3.79914
G1 X138.79 Y133.70 E3.83261
G1 X138.48 Y133.84 E3.84201
G1 X136.87 Y134.40 E3.88976
G1 X136.80 Y134.43 E3.89194
G1 X134.05 Y135.24 E3.97222
G1 X133.54 Y135.31 E3.98669
G1 X131.82 Y135.27 E4.03501
G1 X131.64 Y135.26 E4.03981
G1 X128.21 Y134.81 E4.13686
G1 X128.12 Y134.80 E4.13941
G1 X126.06 Y134.42 E4.19800
G1 X125.13 Y133.90 E4.22786
G1 X123.97 Y132.65 E4.27572
G1 X123.89 Y132.55 E4.27932
G1 X120.31 Y128.02 E4.44116
G1 X119.97 Y127.25 E4.46476
G1 X118.59 Y118.79 E4.70493
G1 X118.57 Y118.60 E4.71023
G1 X118.17 Y110.00 E4.95142
G1 X118.18 Y109.74 E4.95877
G1 X118.41 Y107.69 E5.01657
G1 X118.49 Y107.33 E5.02674
G1 X121.59 Y98.36 E5.29257
G1 X121.60 Y98.35 E5.29304
G1 X123.41 Y93.27 E5.44412
G1 X123.54 Y92.98 E5.45317
G1 X123.91 Y92.37 E5.47311
G1 X124.03 Y92.19 E5.47905
G0 F3000 X130.65 Y96.66
G1 F1140 X126.42 Y108.78 E5.83873
G1 X126.30 Y109.78 E5.86708
G1 X126.64 Y117.17 E6.07413
G1 X127.69 Y123.58 E6.25620
G1 X130.04 Y126.56 E6.36270
G1 X130.24 Y126.60 E6.36837
G1 X133.08 Y126.96 E6.44861
G1 X133.68 Y126.98 E6.46537
G1 X135.41 Y126.47 E6.51581
G1 X136.35 Y126.14 E6.54371
G1 X136.71 Y125.92 E6.55570
G1 X138.21 Y124.86 E6.60721
G1 X139.73 Y123.72 E6.66019
G1 X144.18 Y119.68 E6.82863
G1 X146.82 Y119.75 E6.90260
G1 X151.14 Y124.06 E7.07366
G1 X154.21 Y126.16 E7.17785
G1 X156.96 Y126.99 E7.25848
G1 X158.12 Y126.89 E7.29112
G1 X160.52 Y126.57 E7.35890
G1 X162.87 Y123.58 E7.46552
G1 X162.89 Y123.51 E7.46745
G1 X163.81 Y117.50 E7.63796
G1 X164.09 Y110.80 E7.82566
G1 X164.12 Y109.33 E7.86694
G1 X159.73 Y96.91 E8.23608
G1 X148.38 Y83.88 E8.72021
G1 X145.19 Y80.37 E8.85317
G1 X130.72 Y96.57 E9.46183
G1 X130.65 Y96.66 E9.46500
G1 F2400 E4.96500
G0 F3000 X127.95 Y94.26
;TYPE:WALL-OUTER
G1 F2400 E9.46500
G1 F1140 X127.62 Y94.69 E9.48017
G1 X127.38 Y95.10 E9.49333
G1 X122.88 Y107.99 E9.87604
G1 X122.69 Y109.65 E9.92277
G1 X122.69 Y109.67 E9.92347
G1 X123.06 Y117.55 E10.14436
G1 X124.28 Y125.04 E10.35702
G1 X124.31 Y125.11 E10.35917
G1 X127.41 Y129.04 E10.49950
G1 X128.15 Y129.84 E10.53015
G1 X128.24 Y129.89 E10.53290
G1 X129.69 Y130.16 E10.57427
G1 X132.80 Y130.56 E10.66199
G1 X134.13 Y130.59 E10.69946
G1 X134.18 Y130.59 E10.70076
G1 X136.52 Y129.89 E10.76912
G1 X137.89 Y129.41 E10.80977
G1 X138.68 Y128.94 E10.83566
G1 X140.35 Y127.76 E10.89271
G1 X142.03 Y126.49 E10.95185
G1 X145.41 Y123.43 E11.07964
G1 X148.82 Y126.84 E11.21478
G1 X148.84 Y126.86 E11.21559
G1 X152.62 Y129.43 E11.34358
G1 X152.66 Y129.45 E11.34488
G1 X156.56 Y130.63 E11.45909
G1 X156.62 Y130.64 E11.46072
G1 X158.54 Y130.46 E11.51471
G1 X161.66 Y130.06 E11.60290
G1 X162.31 Y129.92 E11.62158
G1 X162.38 Y129.89 E11.62375
G1 X162.77 Y129.54 E11.63822
G1 X166.15 Y125.22 E11.79203
G1 X166.18 Y125.17 E11.79381
G1 X166.42 Y124.21 E11.82137
G1 X167.40 Y117.86 E12.00149
G1 X167.69 Y110.93 E12.19572
G1 X167.73 Y108.77 E12.25620
G1 X167.72 Y108.72 E12.25770
G1 X162.90 Y95.09 E12.66278
G1 X151.05 Y81.45 E13.16913
G1 X146.22 Y76.16 E13.36983
G1 X145.48 Y75.44 E13.39880
G1 X145.43 Y75.40 E13.40047
G1 X145.07 Y75.26 E13.41141
G1 X144.88 Y75.30 E13.41670
G1 X127.95 Y94.26 E14.12888
G0 F3000 X127.25 Y93.92
G1 F1140 X145.12 Y73.91 E14.88051
G1 X145.13 Y73.92 E14.88099
G1 X145.84 Y74.61 E14.90863
G1 X153.96 Y83.63 E15.24890
G1 X163.55 Y94.69 E15.65903
G1 X168.64 Y109.09 E16.08688
G1 X168.45 Y116.07 E16.28265
G1 X168.29 Y118.64 E16.35462
G1 X167.25 Y125.40 E16.54631
G1 X167.03 Y126.29 E16.57187
G1 X163.50 Y130.79 E16.73225
G1 X163.23 Y131.03 E16.74224
G1 X162.67 Y131.14 E16.75824
G1 X159.37 Y131.57 E16.85144
G1 X157.43 Y131.75 E16.90622
G1 X153.41 Y130.53 E17.02371
G1 X149.47 Y127.85 E17.15737
G1 X145.56 Y123.93 E17.31246
G1 X145.32 Y123.93 E17.31924
G1 X141.41 Y127.47 E17.46703
G1 X137.89 Y130.04 E17.58895
G1 X137.11 Y130.51 E17.61466
G1 X135.74 Y130.99 E17.65525
G1 X133.32 Y131.70 E17.72592
G1 X132.01 Y131.67 E17.76271
G1 X128.72 Y131.25 E17.85563
G1 X127.34 Y130.99 E17.89481
G1 X126.66 Y130.26 E17.92293
G1 X123.44 Y126.18 E18.06853
G1 X122.16 Y118.32 E18.29148
G1 X121.78 Y109.99 E18.52535
G1 X121.97 Y108.31 E18.57267
G1 X126.73 Y94.66 E18.97773
G1 X126.94 Y94.32 E18.98896
G1 X127.25 Y93.92 E19.00295
G0 F3000 X127.49 Y93.97
;TYPE:FILL
G1 F1140 X127.92 Y93.98 E19.01245
G1 X128.09 Y93.30 E19.02176
G1 X128.72 Y93.08 E19.03109
G1 X128.89 Y92.40 E19.04042
G1 X129.52 Y92.19 E19.04968
G1 X129.69 Y91.50 E19.05894
G1 X130.32 Y91.29 E19.06823
G1 X130.49 Y90.61 E19.07748
G1 X131.12 Y90.39 E19.08677
G1 X131.29 Y89.71 E19.09603
G1 X131.92 Y89.50 E19.10529
G1 X132.09 Y88.81 E19.11461
G1 X132.73 Y88.60 E19.12394
G1 X132.89 Y87.92 E19.13324
G1 X133.52 Y87.71 E19.14256
G1 X133.69 Y87.02 E19.15189
G1 X134.33 Y86.81 E19.16122
G1 X134.49 Y86.12 E19.17055
G1 X135.13 Y85.91 E19.17989
G1 X135.29 Y85.23 E19.18917
G1 X135.93 Y85.01 E19.19851
G1 X136.09 Y84.33 E19.20783
G1 X136.73 Y84.12 E19.21714
G1 X136.89 Y83.43 E19.22644
G1 X137.53 Y83.22 E19.23575
G1 X137.69 Y82.54 E19.24508
G1 X138.33 Y82.32 E19.25442
G1 X138.49 Y81.64 E19.26378
G1 X139.13 Y81.43 E19.27311
G1 X139.29 Y80.75 E19.28244
G1 X139.93 Y80.53 E19.29177
G1 X140.09 Y79.85 E19.30109
G1 X140.73 Y79.64 E19.31043
G1 X140.90 Y78.95 E19.31976
G1 X141.53 Y78.74 E19.32908
G1 X141.70 Y78.06 E19.33841
G1 X142.33 Y77.84 E19.34774
G1 X142.50 Y77.16 E19.35707
G1 X143.13 Y76.95 E19.36636
G1 X143.30 Y76.26 E19.37566
G1 X143.93 Y76.05 E19.38499
G1 X144.10 Y75.37 E19.39431
G1 X144.79 Y75.21 E19.40359
G1 X144.70 Y74.69 E19.41838
G0 F3000 X145.10 Y74.25
G1 F1140 X146.42 Y75.57 E19.47044
G0 F3000 X146.28 Y75.69
G0 X150.19 Y79.92
G0 X150.04 Y80.04
G1 F1140 X153.98 Y83.97 E19.62621
G0 F3000 X153.83 Y84.10
G0 X156.25 Y86.82
G0 X156.10 Y86.94
G1 F1140 X159.50 Y90.35 E19.76101
G0 F3000 X159.36 Y90.47
G0 X161.89 Y93.30
G0 X161.74 Y93.43
G1 F1140 X163.51 Y95.20 E19.83101
G0 F3000 X163.44 Y95.98
G1 F1140 X163.94 Y96.90 E19.85198
G1 X164.40 Y98.21 E19.87299
G1 X164.87 Y99.53 E19.89393
G1 X165.33 Y100.84 E19.91493
G1 X165.79 Y102.15 E19.93594
G1 X166.26 Y103.47 E19.95688
G1 X166.72 Y104.78 E19.97782
G1 X167.19 Y106.09 E19.99876
G1 X167.65 Y107.40 E20.01969
G1 X168.04 Y108.64 E20.04064
G1 X168.17 Y109.62 E20.05978
G1 X168.15 Y110.45 E20.07869
G1 X168.12 Y111.27 E20.09732
G1 X168.10 Y112.09 E20.11612
G1 X168.07 Y112.91 E20.13539
G1 X168.04 Y113.73 E20.15512
G1 X168.01 Y114.55 E20.17525
G1 X167.98 Y115.37 E20.19583
G1 X167.95 Y116.19 E20.21690
G1 X167.91 Y117.00 E20.23743
G1 X167.87 Y117.80 E20.25741
G1 X167.79 Y118.57 E20.27713
G1 X167.68 Y119.31 E20.29737
G1 X167.57 Y120.05 E20.31761
G1 X167.45 Y120.78 E20.33785
G1 X167.34 Y121.52 E20.35810
G1 X167.23 Y122.25 E20.37837
G1 X167.11 Y122.99 E20.39864
G1 X167.00 Y123.72 E20.41889
G1 X166.87 Y124.45 E20.43911
G1 X167.01 Y125.43 E20.46033
G1 X166.20 Y125.47 E20.48239
G1 X166.50 Y126.62 E20.50854
G1 X165.47 Y126.43 E20.53468
G1 X165.75 Y127.57 E20.56076
G1 X164.72 Y127.39 E20.58687
G1 X165.01 Y128.52 E20.61303
G1 X163.98 Y128.34 E20.63915
G1 X164.26 Y129.47 E20.66530
G1 X163.23 Y129.29 E20.69147
G1 X163.52 Y130.42 E20.71763
G1 X162.32 Y130.07 E20.74560
G1 X162.36 Y130.96 E20.77398
G1 X160.91 Y130.37 E20.80164
G1 X160.86 Y131.16 E20.82935
G1 X159.41 Y130.56 E20.85701
G1 X159.35 Y131.35 E20.88475
G1 X158.23 Y131.08 E20.91246
G1 X157.45 Y131.14 E20.94019
G1 X156.45 Y130.99 E20.96718
G1 X155.27 Y130.67 E20.99082
G1 X154.06 Y130.30 E21.01445
G1 X153.15 Y129.81 E21.04334
G0 F3000 X153.09 Y129.99
G0 X137.66 Y129.70
G0 X137.83 Y129.77
G1 F1140 X137.54 Y129.90 E21.04684
G1 X136.94 Y130.15 E21.05550
G1 X136.31 Y130.37 E21.06669
G1 X135.67 Y130.57 E21.07888
G1 X135.01 Y130.77 E21.09180
G1 X134.36 Y130.96 E21.10470
G1 X133.65 Y131.10 E21.12181
G1 X132.82 Y131.12 E21.14747
G1 X131.93 Y130.66 E21.17554
G0 F3000 X131.86 Y131.44
G1 F1140 X130.96 Y130.53 E21.21136
G0 F3000 X130.89 Y131.31
G1 F1140 X129.98 Y130.41 E21.24722
G0 F3000 X129.91 Y131.19
G1 F1140 X128.96 Y130.24 E21.28491
G0 F3000 X128.94 Y131.06
G1 F1140 X123.57 Y125.69 E21.49751
G0 F3000 X123.41 Y124.68
G1 F1140 X124.81 Y126.08 E21.55291
G0 F3000 X124.66 Y126.20
G0 X123.79 Y125.18
G0 X123.77 Y124.41
G0 X123.96 Y124.38
G1 F1140 X123.52 Y123.52 E21.58112
G1 X123.35 Y122.50 E21.60935
G1 X123.19 Y121.49 E21.63761
G1 X123.02 Y120.48 E21.66589
G1 X122.86 Y119.46 E21.69415
G1 X122.69 Y118.45 E21.72242
G1 X122.59 Y117.50 E21.74722
G1 X122.55 Y116.61 E21.76846
G1 X122.51 Y115.72 E21.78972
G1 X122.46 Y114.83 E21.81098
G1 X122.42 Y113.94 E21.83224
G1 X122.38 Y113.05 E21.85346
G1 X122.34 Y112.16 E21.87464
G1 X122.30 Y111.27 E21.89579
G1 X122.26 Y110.38 E21.91699
G1 X122.26 Y109.54 E21.93626
G1 X122.35 Y108.77 E21.95245
G1 X122.46 Y108.04 E21.96750
G1 X122.68 Y107.41 E21.97802
G1 X122.90 Y106.78 E21.98856
G1 X123.12 Y106.15 E21.99908
G1 X123.34 Y105.52 E22.00960
G1 X123.56 Y104.89 E22.02011
G1 X123.78 Y104.26 E22.03063
G1 X124.00 Y103.63 E22.04113
G1 X124.22 Y103.00 E22.05166
G1 X124.44 Y102.38 E22.06216
G1 X124.66 Y101.75 E22.07269
G1 X124.88 Y101.12 E22.08319
G1 X125.10 Y100.49 E22.09365
G1 X125.32 Y99.86 E22.10416
G1 X125.54 Y99.23 E22.11461
G1 X125.75 Y98.60 E22.12513
G1 X125.97 Y97.97 E22.13558
G1 X126.19 Y97.34 E22.14607
G1 X126.41 Y96.71 E22.15655
G1 X126.63 Y96.09 E22.16701
G1 X126.85 Y95.46 E22.17746
G1 X127.10 Y94.86 E22.18797
G1 X127.11 Y94.44 E22.19963
G1 F2400 E17.69963
G0 F3000 X125.58 Y128.55
G1 F2400 E22.19963
G1 F1140 X127.91 Y130.88 E22.29189
;LAYER:1
M106 S255
G0 F10800 X128.24 Y129.89 Z0.50
;TYPE:WALL-OUTER
G1 F1920 X129.69 Y130.16 E22.31947
G1 X132.80 Y130.56 E22.37795
G1 X134.13 Y130.59 E22.40294
G1 X134.18 Y130.59 E22.40380
G1 X136.52 Y129.89 E22.44937
G1 X137.89 Y129.41 E22.47647
G1 X138.68 Y128.94 E22.49373
G1 X140.35 Y127.76 E22.53177
G1 X142.03 Y126.49 E22.57120
G1 X145.41 Y123.43 E22.65638
G1 X148.82 Y126.84 E22.74648
G1 X148.84 Y126.86 E22.74702
G1 X152.62 Y129.43 E22.83235
G1 X152.66 Y129.45 E22.83321
G1 X156.56 Y130.63 E22.90935
G1 X156.62 Y130.64 E22.91044
G1 X158.54 Y130.46 E22.94644
G1 X161.66 Y130.06 E23.00522
G1 X162.31 Y129.92 E23.01768
G1 X162.38 Y129.89 E23.01912
G1 X162.77 Y129.54 E23.02877
G1 X166.15 Y125.22 E23.13132
G1 X166.18 Y125.17 E23.13250
G1 X166.42 Y124.21 E23.15087
G1 X167.40 Y117.86 E23.27092
G1 X167.40 Y117.84 E23.27120
G1 X167.55 Y115.40 E23.31693
G1 X167.73 Y108.78 E23.44073
G1 X167.72 Y108.72 E23.44175
G1 X162.90 Y95.09 E23.71183
G1 X162.88 Y95.04 E23.71288
G1 X151.73 Y82.20 E24.03059
G1 X146.01 Y75.96 E24.18858
G1 X145.48 Y75.44 E24.20252
G1 X145.43 Y75.40 E24.20364
G1 X145.07 Y75.26 E24.21092
G1 X144.88 Y75.30 E24.21445
G1 X127.95 Y94.26 E24.68924
G1 X127.62 Y94.69 E24.69935
G1 X127.38 Y95.10 E24.70813
G1 X122.88 Y107.99 E24.96327
G1 X122.69 Y109.65 E24.99442
G1 X122.69 Y109.67 E24.99488
G1 X123.06 Y117.55 E25.14214
G1 X124.28 Y125.04 E25.28392
G1 X124.31 Y125.11 E25.28535
G1 X127.41 Y129.04 E25.37891
G1 X128.15 Y129.84 E25.39934
G1 X128.24 Y129.89 E25.40117
G0 F10800 X128.17 Y130.28
G0 X126.99 Y135.56
G0 X126.96 Y135.96
G1 F1920 X123.79 Y135.30 E25.46161
G1 X121.13 Y133.88 E25.51804
G1 X118.95 Y131.76 E25.57465
G1 X117.26 Y129.04 E25.63454
G1 X116.05 Y125.79 E25.69937
G1 X115.33 Y122.10 E25.76948
G1 X115.10 Y118.05 E25.84539
G1 X115.35 Y113.76 E25.92559
G1 X116.09 Y109.29 E26.01022
G1 X117.32 Y104.74 E26.09825
G1 X119.02 Y100.21 E26.18866
G1 X121.19 Y95.78 E26.28084
G1 X124.14 Y90.74 E26.38986
G1 X126.03 Y87.91 E26.45346
G1 X127.04 Y86.57 E26.48476
G1 X129.29 Y83.88 E26.55043
G1 X133.68 Y79.39 E26.66750
G1 X144.32 Y69.72 E26.93623
G1 X145.10 Y69.07 E26.95517
G1 X154.68 Y77.69 E27.19599
G1 X158.13 Y81.00 E27.28521
G1 X159.58 Y82.47 E27.32391
G1 X162.08 Y85.25 E27.39374
G1 X163.16 Y86.58 E27.42566
G1 X164.17 Y87.93 E27.45718
G1 X167.04 Y92.33 E27.55523
G1 X169.02 Y95.81 E27.63007
G1 X170.75 Y99.21 E27.70124
G1 X172.17 Y102.64 E27.77077
G1 X173.32 Y106.14 E27.83942
G1 X174.19 Y109.60 E27.90622
G1 X174.78 Y113.04 E27.97131
G1 X175.08 Y116.38 E28.03398
G1 X175.10 Y119.58 E28.09379
G1 X174.81 Y122.73 E28.15286
G1 X174.24 Y125.54 E28.20643
G1 X173.43 Y128.02 E28.25517
G1 X172.30 Y130.30 E28.30269
G1 X170.89 Y132.25 E28.34764
G1 X169.20 Y133.83 E28.39088
G1 X167.22 Y135.02 E28.43401
G1 X164.95 Y135.76 E28.47866
G1 X162.37 Y136.03 E28.52706
G1 X161.46 Y136.01 E28.54401
G1 X159.71 Y135.82 E28.57704
G1 X157.81 Y135.41 E28.61320
G1 X155.74 Y134.77 E28.65374
G1 X153.64 Y133.93 E28.69595
G1 X150.21 Y132.20 E28.76772
G1 X148.43 Y131.14 E28.80643
G1 X146.51 Y129.89 E28.84923
G1 X145.18 Y128.91 E28.88010
G1 X144.98 Y128.91 E28.88382
G1 X141.53 Y131.49 E28.96431
G1 X139.22 Y132.77 E29.01368
G1 X137.04 Y133.80 E29.05865
G1 X134.73 Y134.64 E29.10463
G1 X130.65 Y135.76 E29.18356
G1 X126.96 Y135.96 E29.25268
G0 F10800 X126.99 Y135.56
G0 X119.75 Y124.97
G0 X119.59 Y124.60
G1 F1920 X120.46 Y124.02 E29.27218
G1 X120.50 Y123.97 E29.27326
G1 X121.08 Y123.11 E29.29276
G1 X121.11 Y123.05 E29.29389
G1 X121.31 Y122.03 E29.31338
G1 X121.31 Y121.97 E29.31448
G1 X121.11 Y120.94 E29.33398
G1 X121.08 Y120.89 E29.33511
G1 X120.50 Y120.02 E29.35461
G1 X120.46 Y119.98 E29.35569
G1 X119.59 Y119.40 E29.37519
G1 X119.54 Y119.38 E29.37632
G1 X118.51 Y119.17 E29.39582
G1 X118.45 Y119.17 E29.39692
G1 X117.43 Y119.38 E29.41641
G1 X117.38 Y119.40 E29.41754
G1 X116.51 Y119.98 E29.43704
G1 X116.47 Y120.02 E29.43812
G1 X115.89 Y120.89 E29.45762
G1 X115.86 Y120.94 E29.45873
G1 X115.66 Y121.97 E29.47826
G1 X115.66 Y122.03 E29.47936
G1 X115.86 Y123.05 E29.49886
G1 X115.89 Y123.11 E29.49997
G1 X116.47 Y123.97 E29.51947
G1 X116.51 Y124.02 E29.52056
G1 X117.38 Y124.60 E29.54006
G1 X117.43 Y124.62 E29.54117
G1 X118.45 Y124.82 E29.56067
G1 X118.51 Y124.82 E29.56178
G1 X119.54 Y124.62 E29.58130
G1 X119.59 Y124.60 E29.58241
G0 F10800 X119.75 Y124.97
G0 X120.89 Y124.29
G0 X121.58 Y123.20
G0 X121.81 Y121.92
G0 X121.52 Y120.65
G0 X120.78 Y119.59
G0 X119.12 Y114.82
G0 X119.26 Y114.45
G1 F1920 X119.48 Y114.34 E29.58705
G1 X126.27 Y95.05 E29.96904
G1 X126.17 Y94.83 E29.97367
G1 X124.00 Y94.06 E30.01661
G1 X123.77 Y94.17 E30.02124
G1 X116.98 Y113.46 E30.40322
G1 X117.09 Y113.68 E30.40786
G1 X119.26 Y114.45 E30.45081
G0 F10800 X119.12 Y114.82
G0 X119.87 Y114.69
G0 X127.22 Y94.38
G0 X144.62 Y74.86
