;Generated with Cura_SteamEngine 13.12
M109 T0 S220.000000
T0
;Sliced at: Thu 16-01-2014 10:16:50
;Basic settings: Layer height: 0.2 Walls: 0.6 Fill: 15
;Print time: #P_TIME#
;Filament used: #F_AMNT#m #F_WGHT#g
;Filament cost: #F_COST#
;M190 S70 ;Uncomment to add your own bed temperature line
;M109 S220 ;Uncomment to add your own temperature line
G21        ;metric values
G90        ;absolute positioning
M107       ;start with the fan off
G28 X0 Y0  ;move X/Y to min endstops
G28 Z0     ;move Z to min endstops
G1 Z15.0 F10800 ;move the platform down 15mm
G92 E0                  ;zero the extruded length
G1 F200 E3              ;extrude 3mm of feed stock
G92 E0                  ;zero the extruded length again
G1 F10800
;Put printing message on LCD screen
M117 Printing...

;Layer count: 20
;LAYER:0
M107
G0 F1680 X126.50 Y84.46 Z0.30
;TYPE:SKIRT
G1 F2400 E0.00000
G1 F1140 X129.12 Y80.84 E0.12532
G1 X129.16 Y80.78 E0.12746
G1 X129.89 Y79.87 E0.16012
G1 X131.96 Y77.29 E0.25281
G1 X132.01 Y77.22 E0.25501
G1 X134.96 Y73.86 E0.38035
G1 X135.01 Y73.81 E0.38251
G1 X138.12 Y70.59 E0.50784
G1 X138.18 Y70.54 E0.51002
G1 X142.36 Y66.61 E0.67079
G1 X144.96 Y66.60 E0.74386
G1 X149.17 Y70.52 E0.90496
G1 X149.23 Y70.58 E0.90718
G1 X152.36 Y73.79 E1.03286
G1 X152.41 Y73.84 E1.03506
G1 X155.39 Y77.20 E1.16073
G1 X155.44 Y77.26 E1.16290
G1 X157.63 Y79.97 E1.26060
G1 X158.25 Y80.75 E1.28856
G1 X158.30 Y80.81 E1.29075
G1 X160.95 Y84.43 E1.41643
G1 X160.99 Y84.50 E1.41861
G1 X163.46 Y88.24 E1.54427
G1 X163.50 Y88.31 E1.54648
G1 X164.65 Y90.24 E1.60937
G1 X165.80 Y92.16 E1.67218
G1 X165.84 Y92.23 E1.67439
G1 X167.94 Y96.19 E1.80006
G1 X167.98 Y96.26 E1.80219
G1 X169.89 Y100.32 E1.92786
G1 X169.92 Y100.39 E1.93007
G1 X171.65 Y104.53 E2.05576
G1 X171.68 Y104.60 E2.05796
G1 X173.20 Y108.82 E2.18363
G1 X173.22 Y108.89 E2.18583
G1 X174.51 Y113.07 E2.30835
G1 X175.79 Y116.90 E2.42135
G1 X175.87 Y117.32 E2.43347
G1 X176.12 Y121.57 E2.55254
G1 X176.09 Y122.00 E2.56467
G1 X175.50 Y124.89 E2.64732
G1 X175.24 Y126.16 E2.68373
G1 X175.10 Y126.57 E2.69586
G1 X173.20 Y130.37 E2.81492
G1 X172.96 Y130.73 E2.82707
G1 X170.14 Y133.91 E2.94613
G1 X169.81 Y134.19 E2.95825
G1 X166.26 Y136.53 E3.07732
G1 X165.88 Y136.72 E3.08941
G1 X161.85 Y138.07 E3.20849
G1 X161.42 Y138.15 E3.22062
G1 X157.18 Y138.40 E3.33972
G1 X156.75 Y138.37 E3.35182
G1 X152.58 Y137.52 E3.47089
G1 X152.17 Y137.38 E3.48301
G1 X148.37 Y135.48 E3.60208
G1 X148.01 Y135.24 E3.61420
G1 X144.84 Y132.42 E3.73325
G1 X144.55 Y132.09 E3.74538
G1 X143.81 Y130.96 E3.78318
G1 X143.07 Y132.09 E3.82100
G1 X142.78 Y132.42 E3.83313
G1 X139.60 Y135.24 E3.95218
G1 X139.24 Y135.48 E3.96430
G1 X135.44 Y137.38 E4.08337
G1 X135.03 Y137.52 E4.09549
G1 X130.87 Y138.37 E4.21458
G1 X130.44 Y138.40 E4.22669
G1 X126.20 Y138.15 E4.34576
G1 X125.77 Y138.07 E4.35788
G1 X121.74 Y136.72 E4.47697
G1 X121.35 Y136.53 E4.48906
G1 X117.81 Y134.19 E4.60815
G1 X117.48 Y133.91 E4.62029
G1 X114.66 Y130.73 E4.73933
G1 X114.42 Y130.37 E4.75146
G1 X112.52 Y126.57 E4.87052
G1 X112.38 Y126.16 E4.88267
G1 X111.52 Y122.00 E5.00173
G1 X111.49 Y121.57 E5.01384
G1 X111.75 Y117.32 E5.13290
G1 X111.83 Y116.90 E5.14503
G1 X113.09 Y113.11 E5.25686
G1 X114.36 Y108.92 E5.37978
G1 X114.39 Y108.84 E5.38196
G1 X115.89 Y104.63 E5.50727
G1 X115.92 Y104.56 E5.50946
G1 X117.62 Y100.42 E5.63478
G1 X117.65 Y100.35 E5.63699
G1 X119.54 Y96.29 E5.76233
G1 X119.57 Y96.22 E5.76448
G1 X121.66 Y92.26 E5.88983
G1 X121.70 Y92.19 E5.89205
G1 X123.96 Y88.34 E6.01735
G1 X124.00 Y88.27 E6.01953
G1 X126.45 Y84.53 E6.14483
G1 X126.50 Y84.46 E6.14705
G0 F1680 X129.79 Y95.12
G1 F1140 X125.31 Y107.64 E6.51953
G1 X125.50 Y115.16 E6.73030
G1 X126.53 Y121.79 E6.91826
G1 X128.79 Y124.66 E7.02075
G1 X132.12 Y125.06 E7.11468
G1 X135.04 Y124.18 E7.20022
G1 X138.18 Y121.98 E7.30768
G1 X142.43 Y117.77 E7.47522
G1 X145.07 Y117.72 E7.54934
G1 X149.53 Y121.81 E7.71880
G1 X152.89 Y124.18 E7.83396
G1 X155.86 Y125.11 E7.92121
G1 X159.15 Y124.66 E8.01439
G1 X161.36 Y121.82 E8.11525
G1 X162.44 Y115.15 E8.30470
G1 X162.80 Y107.35 E8.52332
G1 X158.49 Y95.04 E8.88899
G1 X144.05 Y78.62 E9.50147
G1 X129.79 Y95.12 E10.11224
G1 F2400 E5.61224
G0 F1680 X126.62 Y93.30
;TYPE:WALL-OUTER
G1 F2400 E10.11224
G1 F1140 X121.71 Y107.03 E10.52075
G1 X121.70 Y107.08 E10.52232
G1 X121.91 Y115.49 E10.75792
G1 X123.11 Y123.23 E10.97739
G1 X123.14 Y123.30 E10.97953
G1 X126.84 Y128.01 E11.14716
G1 X126.94 Y128.06 E11.15051
G1 X132.40 Y128.72 E11.30466
G1 X132.47 Y128.72 E11.30644
G1 X136.65 Y127.45 E11.42896
G1 X140.51 Y124.74 E11.56103
G1 X143.82 Y121.46 E11.69165
G1 X147.27 Y124.62 E11.82271
G1 X151.29 Y127.45 E11.96056
G1 X155.51 Y128.78 E12.08447
G1 X155.58 Y128.78 E12.08635
G1 X161.03 Y128.04 E12.24052
G1 X161.13 Y127.98 E12.24380
G1 X164.74 Y123.33 E12.40878
G1 X164.77 Y123.26 E12.41088
G1 X166.03 Y115.52 E12.63075
G1 X166.43 Y106.85 E12.87383
G1 X166.42 Y106.79 E12.87545
G1 X161.66 Y93.21 E13.27868
G1 X161.63 Y93.16 E13.28030
G1 X144.16 Y73.30 E14.02148
G1 X143.88 Y73.30 E14.02910
G1 X126.65 Y93.25 E14.76778
G1 X126.62 Y93.30 E14.76932
G0 F1680 X126.28 Y93.10
G0 X125.17 Y94.18
G0 X124.83 Y93.97
G1 F1140 X127.05 Y90.20 E14.89206
G1 X129.44 Y86.54 E15.01437
G1 X132.01 Y83.00 E15.13713
G1 X132.71 Y82.12 E15.16867
G1 X135.04 Y79.22 E15.27283
G1 X135.17 Y79.51 E15.28159
G1 X135.19 Y79.54 E15.28268
G1 X135.39 Y79.78 E15.29149
G1 X135.65 Y79.96 E15.30025
G1 X135.95 Y80.06 E15.30905
G1 X136.22 Y80.09 E15.31679
G1 X136.26 Y80.09 E15.31797
G1 X136.59 Y80.02 E15.32712
G1 X136.82 Y79.92 E15.33428
G1 X136.85 Y79.89 E15.33537
G1 X137.09 Y79.69 E15.34416
G1 X137.27 Y79.43 E15.35294
G1 X137.37 Y79.14 E15.36174
G1 X137.40 Y78.86 E15.36942
G1 X137.40 Y78.82 E15.37054
G1 X137.34 Y78.52 E15.37929
G1 X137.22 Y78.27 E15.38698
G1 X137.20 Y78.23 E15.38807
G1 X137.00 Y78.00 E15.39686
G1 X136.74 Y77.82 E15.40566
G1 X136.48 Y77.72 E15.41332
G1 X136.44 Y77.71 E15.41442
G1 X136.38 Y77.71 E15.41633
G1 X137.63 Y76.28 E15.46950
G1 X140.68 Y73.12 E15.59261
G1 X143.67 Y70.31 E15.70749
G1 X146.69 Y73.13 E15.82307
G1 X149.75 Y76.27 E15.94617
G1 X152.66 Y79.55 E16.06887
G1 X154.82 Y82.23 E16.16546
G1 X155.43 Y82.98 E16.19234
G1 X158.02 Y86.53 E16.31545
G1 X160.43 Y90.18 E16.43812
G1 X161.56 Y92.07 E16.49988
G1 X162.68 Y93.96 E16.56123
G1 X164.74 Y97.85 E16.68470
G1 X166.62 Y101.81 E16.80738
G1 X168.30 Y105.86 E16.93049
G1 X169.80 Y109.99 E17.05356
G1 X171.10 Y114.21 E17.17719
G1 X172.29 Y117.80 E17.28319
G1 X172.52 Y121.53 E17.38778
G1 X171.98 Y124.17 E17.46332
G1 X171.77 Y125.19 E17.49262
G1 X171.40 Y125.92 E17.51534
G1 X171.59 Y125.24 E17.53490
G1 X171.60 Y124.51 E17.55536
G1 X171.40 Y123.77 E17.57697
G1 X171.04 Y123.14 E17.59743
G1 X170.52 Y122.62 E17.61792
G1 X169.89 Y122.25 E17.63840
G1 X169.22 Y122.07 E17.65779
G1 X168.49 Y122.06 E17.67824
G1 X167.74 Y122.26 E17.69986
G1 X167.11 Y122.62 E17.72032
G1 X166.60 Y123.14 E17.74081
G1 X166.23 Y123.77 E17.76129
G1 X166.05 Y124.44 E17.78068
G1 X166.04 Y125.17 E17.80113
G1 X166.23 Y125.92 E17.82274
G1 X166.60 Y126.55 E17.84321
G1 X167.12 Y127.07 E17.86369
G1 X167.75 Y127.43 E17.88417
G1 X168.42 Y127.61 E17.90356
G1 X169.15 Y127.62 E17.92402
G1 X169.86 Y127.44 E17.94454
G1 X169.89 Y127.43 E17.94561
G1 X170.53 Y127.06 E17.96613
G1 X171.04 Y126.54 E17.98660
G1 X171.37 Y125.98 E18.00481
G1 X170.10 Y128.53 E18.08468
G1 X167.62 Y131.33 E18.18943
G1 X164.50 Y133.39 E18.29405
G1 X160.95 Y134.57 E18.39899
G1 X157.22 Y134.80 E18.50360
G1 X153.55 Y134.04 E18.60843
G1 X150.21 Y132.37 E18.71312
G1 X147.41 Y129.89 E18.81786
G1 X145.36 Y126.78 E18.92249
G1 X144.13 Y123.10 E19.03115
G1 X143.97 Y122.99 E19.03659
G1 X143.64 Y122.99 E19.04584
G1 X143.49 Y123.10 E19.05128
G1 X142.26 Y126.78 E19.15993
G1 X140.20 Y129.89 E19.26457
G1 X137.41 Y132.37 E19.36931
G1 X134.06 Y134.04 E19.47400
G1 X130.40 Y134.80 E19.57885
G1 X126.67 Y134.57 E19.68344
G1 X123.12 Y133.39 E19.78838
G1 X120.00 Y131.33 E19.89302
G1 X117.52 Y128.53 E19.99776
G1 X115.85 Y125.19 E20.10245
G1 X115.10 Y121.53 E20.20729
G1 X115.32 Y117.80 E20.31188
G1 X116.52 Y114.21 E20.41802
G1 X117.79 Y110.01 E20.54078
G1 X119.26 Y105.89 E20.66352
G1 X120.93 Y101.82 E20.78664
G1 X122.78 Y97.86 E20.90898
G1 X124.83 Y93.97 E21.03213
G0 F1680 X125.02 Y94.05
;TYPE:FILL
G1 F1140 X125.84 Y94.87 E21.06443
G0 F1680 X125.61 Y95.49
G1 F1140 X124.73 Y94.61 E21.09945
G0 F1680 X124.44 Y95.16
G1 F1140 X125.39 Y96.12 E21.13726
G0 F1680 X125.17 Y96.74
G1 F1140 X124.14 Y95.72 E21.17775
G0 F1680 X123.85 Y96.28
G1 F1140 X124.94 Y97.37 E21.22098
G0 F1680 X124.72 Y97.99
G1 F1140 X123.56 Y96.83 E21.26697
G0 F1680 X123.27 Y97.39
G1 F1140 X124.50 Y98.61 E21.31565
G0 F1680 X124.27 Y99.24
G1 F1140 X122.97 Y97.94 E21.36706
G0 F1680 X122.70 Y98.52
G1 F1140 X124.05 Y99.87 E21.42035
G0 F1680 X123.82 Y100.49
G1 F1140 X122.43 Y99.10 E21.47547
G0 F1680 X122.16 Y99.68
G1 F1140 X123.60 Y101.11 E21.53245
G0 F1680 X123.38 Y101.74
G1 F1140 X121.89 Y100.25 E21.59129
G0 F1680 X121.62 Y100.83
G1 F1140 X123.15 Y102.36 E21.65194
G0 F1680 X122.93 Y102.99
G1 F1140 X121.35 Y101.41 E21.71447
G0 F1680 X121.09 Y102.00
G1 F1140 X122.71 Y103.61 E21.77866
G0 F1680 X122.48 Y104.24
G1 F1140 X120.84 Y102.60 E21.84374
G0 F1680 X120.59 Y103.20
G1 F1140 X122.26 Y104.86 E21.90976
G0 F1680 X122.04 Y105.49
G1 F1140 X120.35 Y103.80 E21.97672
G0 F1680 X120.10 Y104.40
G1 F1140 X121.81 Y106.11 E22.04458
G0 F1680 X121.59 Y106.74
G1 F1140 X119.85 Y105.00 E22.11337
G0 F1680 X119.60 Y105.60
G1 F1140 X121.50 Y107.50 E22.18838
G0 F1680 X121.52 Y108.37
G1 F1140 X119.37 Y106.21 E22.27363
G0 F1680 X119.14 Y106.84
G1 F1140 X121.54 Y109.24 E22.36861
G0 F1680 X121.56 Y110.11
G1 F1140 X118.92 Y107.47 E22.47330
G0 F1680 X118.70 Y108.09
G1 F1140 X121.59 Y110.98 E22.58768
G0 F1680 X121.61 Y111.85
G1 F1140 X118.48 Y108.72 E22.71174
G0 F1680 X118.25 Y109.34
G1 F1140 X121.63 Y112.72 E22.84551
G0 F1680 X121.65 Y113.59
G1 F1140 X118.03 Y109.97 E22.98899
G0 F1680 X117.83 Y110.62
G1 F1140 X121.67 Y114.46 E23.14133
G0 F1680 X121.70 Y115.33
G1 F1140 X117.63 Y111.27 E23.30241
G0 F1680 X117.43 Y111.92
G1 F1140 X121.82 Y116.31 E23.47642
G0 F1680 X121.98 Y117.32
G1 F1140 X117.24 Y112.57 E23.66452
G0 F1680 X117.04 Y113.22
G1 F1140 X122.14 Y118.32 E23.86662
G0 F1680 X122.29 Y119.32
G1 F1140 X116.84 Y113.87 E24.08273
G0 F1680 X116.64 Y114.52
G1 F1140 X122.45 Y120.33 E24.31309
G0 F1680 X122.61 Y121.33
G1 F1140 X116.43 Y115.15 E24.55803
G0 F1680 X116.21 Y115.79
G1 F1140 X122.76 Y122.34 E24.81757
G0 F1680 X122.95 Y123.37
G1 F1140 X116.00 Y116.43 E25.09289
G0 F1680 X115.79 Y117.06
G1 F1140 X125.99 Y127.26 E25.49712
G0 F1680 X127.01 Y128.28
G1 F1140 X132.81 Y134.09 E25.72702
G0 F1680 X132.11 Y134.23
G1 F1140 X115.58 Y117.70 E26.38201
G0 F1680 X115.49 Y118.46
G1 F1140 X131.40 Y134.37 E27.01252
G0 F1680 X130.70 Y134.52
G1 F1140 X115.44 Y119.26 E27.61700
G0 F1680 X115.40 Y120.06
G1 F1140 X129.89 Y134.55 E28.19120
G0 F1680 X128.98 Y134.50
G1 F1140 X115.35 Y120.86 E28.73152
G0 F1680 X115.35 Y121.72
G1 F1140 X128.08 Y134.45 E29.23586
G0 F1680 X127.18 Y134.39
G1 F1140 X115.57 Y122.78 E29.69577
G0 F1680 X115.79 Y123.85
G1 F1140 X126.09 Y134.15 E30.10406
G0 F1680 X124.82 Y133.73
G1 F1140 X116.01 Y124.92 E30.45329
G0 F1680 X116.20 Y124.88
G0 X116.91 Y126.41
G0 X116.74 Y126.50
G1 F1140 X123.55 Y133.31 E30.72317
G0 F1680 X123.61 Y133.13
G0 X121.49 Y131.83
G0 X121.38 Y131.99
G1 F1140 X117.59 Y128.19 E30.87355
G0 F1680 X117.76 Y128.11
G0 X127.95 Y128.59
G0 X127.97 Y128.40
G1 F1140 X133.52 Y133.94 E31.09311
G0 F1680 X134.18 Y133.75
G1 F1140 X128.94 Y128.52 E31.30058
G0 F1680 X129.91 Y128.63
G1 F1140 X134.74 Y133.47 E31.49221
G0 F1680 X135.31 Y133.19
G1 F1140 X130.87 Y128.75 E31.66802
G0 F1680 X131.84 Y128.87
G1 F1140 X135.87 Y132.90 E31.82807
G0 F1680 X136.44 Y132.62
G1 F1140 X132.69 Y128.87 E31.97670
G0 F1680 X133.34 Y128.67
G1 F1140 X137.01 Y132.34 E32.12196
G0 F1680 X137.51 Y132.00
G1 F1140 X133.99 Y128.48 E32.26150
G0 F1680 X134.64 Y128.28
G1 F1140 X137.96 Y131.60 E32.39306
G0 F1680 X138.41 Y131.20
G1 F1140 X135.29 Y128.08 E32.51661
G0 F1680 X135.94 Y127.88
G1 F1140 X138.86 Y130.80 E32.63219
G0 F1680 X139.31 Y130.40
G1 F1140 X136.60 Y127.69 E32.73977
G0 F1680 X137.13 Y127.37
G1 F1140 X139.76 Y130.00 E32.84404
G0 F1680 X140.17 Y129.56
G1 F1140 X137.63 Y127.02 E32.94475
G0 F1680 X138.13 Y126.67
G1 F1140 X140.51 Y129.05 E33.03908
G0 F1680 X140.84 Y128.54
G1 F1140 X138.62 Y126.32 E33.12700
G0 F1680 X139.12 Y125.97
G1 F1140 X141.18 Y128.03 E33.20855
G0 F1680 X141.52 Y127.52
G1 F1140 X139.62 Y125.62 E33.28370
G0 F1680 X140.12 Y125.27
G1 F1140 X141.86 Y127.01 E33.35247
G0 F1680 X142.15 Y126.45
G1 F1140 X140.62 Y124.92 E33.41298
G0 F1680 X141.05 Y124.50
G1 F1140 X142.36 Y125.81 E33.46486
G0 F1680 X142.57 Y125.18
G1 F1140 X141.48 Y124.08 E33.50825
G0 F1680 X141.90 Y123.66
G1 F1140 X142.78 Y124.54 E33.54320
G0 F1680 X142.99 Y123.90
G1 F1140 X142.54 Y123.02 E33.56964
G1 X143.39 Y123.03 E33.58762
G1 X143.18 Y122.39 E33.60640
G0 F1680 X143.60 Y121.97
G1 F1140 X155.96 Y134.32 E34.09596
G0 F1680 X154.89 Y134.10
G1 F1140 X144.58 Y123.80 E34.50443
G0 F1680 X145.01 Y125.07
G1 F1140 X153.83 Y133.89 E34.85382
G0 F1680 X153.87 Y133.70
G0 X152.33 Y132.99
G0 X152.25 Y133.16
G1 F1140 X145.43 Y126.34 E35.12392
G0 F1680 X145.61 Y126.28
G0 X147.49 Y125.27
G0 X147.60 Y125.11
G1 F1140 X157.03 Y134.54 E35.49746
G0 F1680 X157.88 Y134.55
G1 F1140 X150.44 Y127.11 E35.79225
G0 F1680 X150.33 Y127.26
G0 X151.11 Y127.91
G0 X152.05 Y128.10
G0 X152.11 Y127.92
G1 F1140 X158.68 Y134.50 E36.05274
G0 F1680 X159.48 Y134.45
G1 F1140 X153.35 Y128.32 E36.29580
G0 F1680 X154.59 Y128.71
G1 F1140 X160.28 Y134.40 E36.52148
G0 F1680 X161.04 Y134.32
G1 F1140 X155.71 Y128.98 E36.73296
G0 F1680 X156.45 Y128.88
G1 F1140 X161.68 Y134.10 E36.94008
G0 F1680 X162.32 Y133.89
G1 F1140 X157.20 Y128.77 E37.14284
G0 F1680 X157.95 Y128.67
G1 F1140 X162.95 Y133.68 E37.34122
G0 F1680 X163.59 Y133.47
G1 F1140 X158.69 Y128.57 E37.53522
G0 F1680 X159.44 Y128.47
G1 F1140 X164.23 Y133.25 E37.72484
G0 F1680 X164.77 Y132.95
G1 F1140 X160.19 Y128.37 E37.90654
G0 F1680 X160.93 Y128.27
G1 F1140 X165.28 Y132.62 E38.07891
G0 F1680 X165.79 Y132.28
G1 F1140 X161.44 Y127.92 E38.25144
G0 F1680 X161.81 Y127.45
G1 F1140 X166.31 Y131.94 E38.42951
G0 F1680 X166.82 Y131.60
G1 F1140 X162.18 Y126.97 E38.61313
G0 F1680 X162.55 Y126.49
G1 F1140 X167.33 Y131.27 E38.80232
G0 F1680 X167.76 Y130.85
G1 F1140 X162.93 Y126.01 E38.99390
G0 F1680 X163.30 Y125.54
G1 F1140 X168.16 Y130.40 E39.18660
G0 F1680 X168.56 Y129.95
G1 F1140 X163.67 Y125.06 E39.38036
G0 F1680 X164.04 Y124.58
G1 F1140 X168.96 Y129.50 E39.57524
G0 F1680 X169.35 Y129.05
G1 F1140 X168.03 Y127.72 E39.62782
G0 F1680 X168.99 Y127.83
G1 F1140 X169.92 Y128.34 E39.65826
G1 X169.70 Y127.70 E39.67726
G0 F1680 X169.75 Y127.89
G0 X168.32 Y128.10
G0 X166.22 Y126.88
G0 X165.75 Y125.68
G0 X165.94 Y125.64
G1 F1140 X164.41 Y124.10 E39.73797
G0 F1680 X164.78 Y123.63
G1 F1140 X165.83 Y124.68 E39.77965
G0 F1680 X165.96 Y123.96
G1 F1140 X165.02 Y123.02 E39.81682
G0 F1680 X165.14 Y122.29
G1 F1140 X166.22 Y123.37 E39.85952
G0 F1680 X166.57 Y122.87
G1 F1140 X165.26 Y121.56 E39.91133
G0 F1680 X165.38 Y120.83
G1 F1140 X166.99 Y122.45 E39.97534
G0 F1680 X167.53 Y122.13
G1 F1140 X165.50 Y120.10 E40.05596
G0 F1680 X165.61 Y119.37
G1 F1140 X168.17 Y121.93 E40.15724
G0 F1680 X168.95 Y121.86
G1 F1140 X165.73 Y118.64 E40.28467
G0 F1680 X165.85 Y117.91
G1 F1140 X170.04 Y122.10 E40.45090
G0 F1680 X170.14 Y121.93
G0 X171.92 Y122.43
G0 X172.11 Y122.47
G1 F1140 X166.09 Y116.45 E40.68948
G0 F1680 X166.20 Y115.72
G1 F1140 X172.25 Y121.76 E40.92913
G0 F1680 X172.27 Y120.93
G1 F1140 X166.26 Y114.93 E41.16723
G0 F1680 X166.30 Y114.11
G1 F1140 X172.22 Y120.03 E41.40169
G0 F1680 X172.16 Y119.13
G1 F1140 X166.34 Y113.31 E41.63250
G0 F1680 X166.38 Y112.49
G1 F1140 X172.11 Y118.23 E41.85971
G0 F1680 X171.84 Y117.11
G1 F1140 X166.41 Y111.68 E42.07477
G0 F1680 X166.45 Y110.87
G1 F1140 X171.42 Y115.84 E42.27151
G0 F1680 X170.99 Y114.57
G1 F1140 X166.49 Y110.06 E42.44998
G0 F1680 X166.53 Y109.25
G1 F1140 X170.60 Y113.33 E42.61149
G0 F1680 X170.23 Y112.10
G1 F1140 X166.57 Y108.44 E42.75650
G0 F1680 X166.60 Y107.63
