;Generated with Cura_SteamEngine 13.12
M109 T0 S220.000000
T0
;Sliced ?filename? at: Sat 18-01-2014 11:40:02
;Basic settings: Layer height: 0.1 Walls: 0.4 Fill: 15
;Print time: #P_TIME#
;Filament used: #F_AMNT#m #F_WGHT#g
;Filament cost: #F_COST#
G21        ;metric values
G90        ;absolute positioning
M107       ;start with the fan off
G28 X0 Y0  ;move X/Y to min endstops
G28 Z0     ;move Z to min endstops
G1 Z15.0 F?max_z_speed? ;move the platform down 15mm
G92 E0                  ;zero the extruded length
G1 F200 E3              ;extrude 3mm of feed stock
G92 E0                  ;zero the extruded length again
G1 F9000
M117 Printing...

;Layer count: 40
;LAYER:0
M107
G0 F2520 X122.80 Y86.30 Z0.30
;TYPE:SKIRT
G1 F2400 E0.00000
G1 F1140 X124.39 Y84.13 E0.05027
G1 X124.46 Y84.04 E0.05226
G1 X126.83 Y81.21 E0.12126
G1 X126.88 Y81.15 E0.12275
G1 X128.26 Y79.66 E0.16068
G1 X128.31 Y79.62 E0.16184
G1 X131.49 Y76.43 E0.24592
G1 X131.54 Y76.39 E0.24715
G1 X137.85 Y70.56 E0.40767
G1 X137.88 Y70.55 E0.40819
G1 X142.50 Y66.43 E0.52384
G1 X142.53 Y66.40 E0.52467
G1 X144.46 Y64.78 E0.57175
G1 X146.86 Y64.82 E0.61645
G1 X157.74 Y74.61 E0.88987
G1 X157.78 Y74.64 E0.89084
G1 X161.35 Y78.07 E0.98332
G1 X161.40 Y78.12 E0.98461
G1 X164.28 Y81.14 E1.06265
G1 X164.35 Y81.22 E1.06453
G1 X166.75 Y84.07 E1.13409
G1 X166.82 Y84.16 E1.13626
G1 X168.92 Y87.06 E1.20317
G1 X168.99 Y87.16 E1.20546
G1 X171.97 Y92.02 E1.31197
G1 X172.00 Y92.07 E1.31308
G1 X173.08 Y94.00 E1.35427
G1 X173.11 Y94.06 E1.35559
G1 X174.91 Y97.61 E1.42997
G1 X174.96 Y97.72 E1.43222
G1 X176.47 Y101.37 E1.50607
G1 X176.51 Y101.48 E1.50827
G1 X177.73 Y105.17 E1.58082
G1 X177.76 Y105.29 E1.58303
G1 X178.69 Y108.97 E1.65397
G1 X178.71 Y109.09 E1.65622
G1 X179.33 Y112.73 E1.72524
G1 X179.35 Y112.85 E1.72759
G1 X179.67 Y116.42 E1.79438
G1 X179.68 Y116.55 E1.79694
G1 X179.70 Y120.00 E1.86129
G1 X179.69 Y120.15 E1.86421
G1 X179.38 Y123.55 E1.92792
G1 X179.35 Y123.72 E1.93107
G1 X178.73 Y126.80 E1.98983
G1 X178.68 Y126.98 E1.99338
G1 X177.78 Y129.75 E2.04773
G1 X177.69 Y129.96 E2.05195
G1 X176.41 Y132.55 E2.10591
G1 X176.28 Y132.78 E2.11090
G1 X174.64 Y135.04 E2.16317
G1 X174.43 Y135.28 E2.16899
G1 X172.42 Y137.16 E2.22038
G1 X172.15 Y137.36 E2.22673
G1 X169.77 Y138.78 E2.27837
G1 X169.45 Y138.92 E2.28498
G1 X166.74 Y139.81 E2.33826
G1 X166.41 Y139.89 E2.34463
G1 X163.45 Y140.20 E2.40024
G1 X163.24 Y140.20 E2.40418
G1 X162.12 Y140.17 E2.42507
G1 X161.99 Y140.16 E2.42747
G1 X160.02 Y139.95 E2.46446
G1 X159.86 Y139.92 E2.46749
G1 X157.74 Y139.47 E2.50801
G1 X157.60 Y139.44 E2.51073
G1 X155.33 Y138.73 E2.55516
G1 X155.18 Y138.68 E2.55810
G1 X151.72 Y137.22 E2.62818
G1 X151.58 Y137.15 E2.63118
G1 X147.89 Y135.14 E2.70966
G1 X147.79 Y135.08 E2.71183
G1 X145.63 Y133.70 E2.75967
G1 X143.96 Y134.95 E2.79865
G1 X143.78 Y135.07 E2.80283
G1 X141.15 Y136.52 E2.85876
G1 X141.06 Y136.56 E2.86070
G1 X138.80 Y137.62 E2.90733
G1 X138.67 Y137.68 E2.91007
G1 X136.15 Y138.59 E2.96011
G1 X136.03 Y138.63 E2.96247
G1 X131.60 Y139.85 E3.04829
G1 X131.26 Y139.90 E3.05466
G1 X127.05 Y140.13 E3.13350
G1 X126.63 Y140.10 E3.14127
G1 X122.89 Y139.33 E3.21266
G1 X122.46 Y139.17 E3.22124
G1 X119.26 Y137.46 E3.28888
G1 X118.90 Y137.20 E3.29725
G1 X116.32 Y134.69 E3.36438
G1 X116.08 Y134.39 E3.37167
G1 X114.13 Y131.25 E3.44064
G1 X113.99 Y130.97 E3.44662
G1 X112.64 Y127.33 E3.51917
G1 X112.57 Y127.07 E3.52404
G1 X111.78 Y123.03 E3.60101
G1 X111.75 Y122.82 E3.60506
G1 X111.50 Y118.45 E3.68669
G1 X111.50 Y118.27 E3.69018
G1 X111.77 Y113.67 E3.77614
G1 X111.79 Y113.50 E3.77928
G1 X112.57 Y108.76 E3.86916
G1 X112.61 Y108.60 E3.87212
G1 X113.90 Y103.79 E3.96528
G1 X113.95 Y103.64 E3.96815
G1 X115.75 Y98.85 E4.06381
G1 X115.81 Y98.70 E4.06672
G1 X118.10 Y94.04 E4.16372
G1 X118.15 Y93.96 E4.16558
G1 X120.24 Y90.30 E4.24414
G1 X120.28 Y90.23 E4.24567
G1 X122.75 Y86.38 E4.33117
G1 X122.80 Y86.30 E4.33300
G0 F2520 X131.56 Y96.55
G1 F1140 X131.53 Y96.59 E4.33392
G1 X127.41 Y108.39 E4.56747
G1 X127.30 Y109.36 E4.58569
G1 X127.63 Y116.56 E4.72023
G1 X128.64 Y122.81 E4.83846
G1 X130.94 Y125.71 E4.90771
G1 X131.14 Y125.75 E4.91151
G1 X133.91 Y126.11 E4.96358
G1 X134.49 Y126.12 E4.97451
G1 X136.17 Y125.62 E5.00724
G1 X137.09 Y125.31 E5.02528
G1 X137.45 Y125.09 E5.03330
G1 X138.92 Y124.05 E5.06687
G1 X140.39 Y122.95 E5.10114
G1 X144.71 Y119.02 E5.21030
G1 X147.27 Y119.08 E5.25811
G1 X151.48 Y123.28 E5.36909
G1 X154.48 Y125.33 E5.43702
G1 X157.02 Y126.11 E5.48667
G1 X157.10 Y126.14 E5.48832
G1 X158.32 Y126.03 E5.51114
G1 X160.62 Y125.73 E5.55452
G1 X162.91 Y122.81 E5.62388
G1 X162.93 Y122.74 E5.62519
G1 X163.83 Y116.88 E5.73585
G1 X164.11 Y110.37 E5.85764
G1 X164.13 Y108.93 E5.88454
G1 X159.86 Y96.83 E6.12422
G1 X148.71 Y84.02 E6.44142
G1 X145.69 Y80.72 E6.52492
G1 X131.56 Y96.55 E6.92128
G1 F2400 E2.42128
G0 F2520 X128.94 Y94.38
;TYPE:WALL-OUTER
G1 F2400 E6.92128
G1 F1140 X128.68 Y94.72 E6.92935
G1 X128.45 Y95.11 E6.93784
G1 X124.07 Y107.64 E7.18581
G1 X123.89 Y109.26 E7.21629
G1 X124.24 Y116.92 E7.35941
G1 X125.43 Y124.20 E7.49718
G1 X125.44 Y124.24 E7.49812
G1 X128.46 Y128.05 E7.58888
G1 X129.17 Y128.82 E7.60843
G1 X129.23 Y128.85 E7.60965
G1 X130.62 Y129.11 E7.63606
G1 X133.65 Y129.50 E7.69320
G1 X134.93 Y129.53 E7.71707
G1 X134.96 Y129.53 E7.71768
G1 X137.23 Y128.86 E7.76180
G1 X138.54 Y128.40 E7.78793
G1 X139.30 Y127.94 E7.80440
G1 X140.92 Y126.80 E7.84147
G1 X142.56 Y125.57 E7.87971
G1 X145.91 Y122.52 E7.96428
G1 X149.31 Y125.92 E8.05391
G1 X153.00 Y128.43 E8.13733
G1 X156.79 Y129.57 E8.21126
G1 X156.82 Y129.58 E8.21192
G1 X158.68 Y129.41 E8.24673
G1 X161.71 Y129.01 E8.30384
G1 X162.33 Y128.88 E8.31572
G1 X162.38 Y128.86 E8.31669
G1 X162.74 Y128.54 E8.32559
G1 X166.02 Y124.35 E8.42513
G1 X166.04 Y124.31 E8.42591
G1 X166.27 Y123.40 E8.44352
G1 X167.22 Y117.21 E8.56054
G1 X167.50 Y110.48 E8.68625
G1 X167.55 Y108.39 E8.72528
G1 X167.54 Y108.36 E8.72594
G1 X162.85 Y95.11 E8.98853
G1 X162.83 Y95.07 E8.98922
G1 X151.22 Y81.73 E9.31971
G1 X146.53 Y76.60 E9.44940
G1 X145.92 Y76.01 E9.46536
G1 X145.89 Y75.99 E9.46611
G1 X145.57 Y75.86 E9.47250
G1 X145.45 Y75.89 E9.47485
G1 X128.94 Y94.38 E9.93774
G0 F2520 X128.70 Y94.20
G0 X124.87 Y98.25
G0 X124.78 Y98.53
G1 F1140 X122.66 Y97.84 E9.97930
G1 X122.51 Y97.91 E9.98240
G1 X119.58 Y106.88 E10.15865
G1 X119.66 Y107.03 E10.16175
G1 X121.77 Y107.72 E10.20333
G1 X121.92 Y107.65 E10.20643
G1 X124.85 Y98.68 E10.38266
G1 X124.78 Y98.53 E10.38576
G0 F2520 X124.87 Y98.25
G0 X121.39 Y95.74
G0 X121.13 Y95.60
G1 F1140 X123.17 Y92.03 E10.46264
G1 X125.58 Y88.26 E10.54627
G1 X127.11 Y86.18 E10.59442
G1 X129.40 Y83.43 E10.66126
G1 X130.74 Y82.00 E10.69787
G1 X133.87 Y78.87 E10.78052
G1 X144.74 Y68.99 E11.05496
G1 X145.60 Y68.26 E11.07598
G1 X155.45 Y77.12 E11.32331
G1 X158.96 Y80.49 E11.41436
G1 X161.79 Y83.45 E11.49080
G1 X164.11 Y86.21 E11.55811
G1 X166.12 Y88.99 E11.62223
G1 X169.05 Y93.78 E11.72702
G1 X170.09 Y95.62 E11.76668
G1 X171.84 Y99.08 E11.83899
G1 X173.31 Y102.62 E11.91061
G1 X174.49 Y106.18 E11.98068
G1 X175.38 Y109.74 E12.04909
G1 X175.97 Y113.23 E12.11536
G1 X176.28 Y116.64 E12.17933
G1 X176.30 Y119.93 E12.24069
G1 X176.00 Y123.14 E12.30095
G1 X175.42 Y126.03 E12.35593
G1 X174.59 Y128.57 E12.40588
G1 X173.43 Y130.91 E12.45465
G1 X171.98 Y132.91 E12.50086
G1 X170.24 Y134.54 E12.54531
G1 X168.20 Y135.76 E12.58977
G1 X165.87 Y136.52 E12.63566
G1 X163.21 Y136.80 E12.68550
G1 X162.29 Y136.78 E12.70279
G1 X160.48 Y136.58 E12.73674
G1 X158.52 Y136.16 E12.77411
G1 X156.42 Y135.51 E12.81527
G1 X153.13 Y134.13 E12.88189
G1 X149.57 Y132.18 E12.95773
G1 X146.99 Y130.53 E13.01496
G1 X145.65 Y129.54 E13.04613
G1 X145.51 Y129.54 E13.04862
G1 X142.03 Y132.15 E13.13007
G1 X139.56 Y133.51 E13.18263
G1 X137.43 Y134.51 E13.22658
G1 X135.06 Y135.37 E13.27368
G1 X130.88 Y136.52 E13.35464
G1 X127.09 Y136.73 E13.42552
G1 X123.83 Y136.05 E13.48777
G1 X121.09 Y134.59 E13.54581
G1 X118.85 Y132.41 E13.60404
G1 X117.11 Y129.61 E13.66567
G1 X115.88 Y126.28 E13.73203
G1 X115.14 Y122.50 E13.80388
G1 X114.90 Y118.36 E13.88138
G1 X115.16 Y113.96 E13.96382
G1 X115.91 Y109.40 E14.05006
G1 X117.16 Y104.75 E14.14001
G1 X118.90 Y100.12 E14.23239
G1 X121.13 Y95.60 E14.32654
G0 F2520 X121.39 Y95.74
G0 X119.17 Y106.91
G0 X119.39 Y107.35
G0 X118.53 Y119.32
G0 X118.48 Y119.61
G1 F1140 X118.44 Y119.61 E14.32727
G1 X117.41 Y119.81 E14.34677
G1 X117.38 Y119.83 E14.34750
G1 X116.51 Y120.41 E14.36699
G1 X116.48 Y120.44 E14.36773
G1 X115.90 Y121.30 E14.38722
G1 X115.89 Y121.34 E14.38796
G1 X115.68 Y122.36 E14.40748
G1 X115.68 Y122.40 E14.40821
G1 X115.89 Y123.43 E14.42771
G1 X115.90 Y123.46 E14.42845
G1 X116.48 Y124.33 E14.44794
G1 X116.51 Y124.36 E14.44868
G1 X117.38 Y124.94 E14.46816
G1 X117.41 Y124.96 E14.46890
G1 X118.44 Y125.16 E14.48840
G1 X118.48 Y125.16 E14.48913
G1 X119.50 Y124.96 E14.50865
G1 X119.54 Y124.94 E14.50939
G1 X120.40 Y124.36 E14.52888
G1 X120.43 Y124.33 E14.52962
G1 X121.01 Y123.46 E14.54911
G1 X121.03 Y123.43 E14.54985
G1 X121.23 Y122.40 E14.56935
G1 X121.23 Y122.36 E14.57007
G1 X121.03 Y121.34 E14.58959
G1 X121.01 Y121.30 E14.59033
G1 X120.43 Y120.44 E14.60982
G1 X120.40 Y120.41 E14.61056
G1 X119.54 Y119.83 E14.63005
G1 X119.50 Y119.81 E14.63078
G1 X118.48 Y119.61 E14.65030
G0 F2520 X118.53 Y119.32
G0 X128.35 Y94.48
G0 X145.24 Y75.54
G0 X146.17 Y75.70
G0 X157.50 Y85.89
G0 X157.71 Y85.68
G1 F1140 X157.74 Y85.70 E14.65104
G1 X158.36 Y86.12 E14.66491
G1 X158.39 Y86.13 E14.66565
G1 X159.12 Y86.28 E14.67953
G1 X159.16 Y86.28 E14.68026
G1 X159.89 Y86.13 E14.69412
G1 X159.93 Y86.12 E14.69486
G1 X160.54 Y85.70 E14.70873
G1 X160.57 Y85.68 E14.70947
G1 X160.98 Y85.06 E14.72334
G1 X161.00 Y85.02 E14.72408
G1 X161.14 Y84.29 E14.73794
G1 X161.14 Y84.25 E14.73867
G1 X161.00 Y83.53 E14.75255
G1 X160.98 Y83.49 E14.75329
G1 X160.57 Y82.87 E14.76716
G1 X160.54 Y82.84 E14.76790
G1 X159.93 Y82.43 E14.78177
G1 X159.89 Y82.42 E14.78251
G1 X159.16 Y82.27 E14.79637
G1 X159.12 Y82.27 E14.79710
G1 X158.39 Y82.42 E14.81098
G1 X158.36 Y82.43 E14.81172
G1 X157.74 Y82.84 E14.82559
G1 X157.71 Y82.87 E14.82633
G1 X157.30 Y83.49 E14.84020
G1 X157.28 Y83.53 E14.84094
G1 X157.14 Y84.25 E14.85482
G1 X157.14 Y84.29 E14.85555
G1 X157.28 Y85.02 E14.86941
G1 X157.30 Y85.06 E14.87015
G1 X157.71 Y85.68 E14.88402
G0 F2520 X157.50 Y85.89
G0 X166.73 Y98.89
G0 X166.83 Y99.17
G1 F1140 X166.75 Y99.32 E14.88712
G1 X169.68 Y108.29 E15.06335
G1 X169.83 Y108.36 E15.06645
G1 X171.95 Y107.67 E15.10802
G1 X172.02 Y107.52 E15.11112
G1 X169.09 Y98.55 E15.28734
G1 X168.94 Y98.48 E15.29044
G1 X166.83 Y99.17 E15.33202
G0 F2520 X166.70 Y99.10
;TYPE:FILL
G1 F1140 X163.16 Y95.56 E15.42556
G0 F2520 X163.47 Y96.44
G1 F1140 X166.73 Y99.69 E15.51154
G0 F2520 X167.10 Y98.93
G1 F1140 X161.55 Y93.38 E15.65812
G0 F2520 X161.67 Y93.28
G0 X163.22 Y94.94
G0 X163.93 Y97.26
G0 X163.78 Y97.31
G1 F1140 X167.00 Y100.53 E15.74316
G0 F2520 X167.27 Y101.37
G1 F1140 X164.09 Y98.19 E15.82727
G0 F2520 X164.40 Y99.06
G1 F1140 X167.55 Y102.21 E15.91046
G0 F2520 X167.82 Y103.05
G1 F1140 X164.71 Y99.94 E15.99272
G0 F2520 X165.02 Y100.82
G1 F1140 X168.10 Y103.89 E16.07406
G0 F2520 X168.37 Y104.73
G1 F1140 X165.33 Y101.69 E16.15447
G0 F2520 X165.64 Y102.57
G1 F1140 X168.65 Y105.57 E16.23399
G0 F2520 X168.92 Y106.42
G1 F1140 X165.95 Y103.44 E16.31255
G0 F2520 X166.26 Y104.32
G1 F1140 X169.20 Y107.26 E16.39020
G0 F2520 X169.47 Y108.10
G1 F1140 X166.57 Y105.19 E16.46691
G0 F2520 X166.88 Y106.07
G1 F1140 X176.01 Y115.20 E16.70810
G0 F2520 X175.95 Y114.57
G1 F1140 X169.87 Y108.49 E16.86873
G0 F2520 X170.30 Y108.36
G1 F1140 X175.90 Y113.95 E17.01660
G0 F2520 X175.84 Y113.33
G1 F1140 X170.72 Y108.22 E17.15171
G0 F2520 X171.15 Y108.08
G1 F1140 X175.73 Y112.66 E17.27271
G0 F2520 X175.61 Y111.97
G1 F1140 X171.58 Y107.94 E17.37938
G0 F2520 X172.00 Y107.80
G1 F1140 X175.50 Y111.29 E17.47170
G0 F2520 X175.38 Y110.61
G1 F1140 X172.11 Y107.33 E17.55822
G0 F2520 X171.83 Y106.49
G1 F1140 X175.26 Y109.93 E17.64892
G0 F2520 X175.09 Y109.19
G1 F1140 X171.56 Y105.65 E17.74234
G0 F2520 X171.28 Y104.81
G1 F1140 X174.90 Y108.44 E17.83802
G0 F2520 X174.71 Y107.68
G1 F1140 X171.01 Y103.97 E17.93597
G0 F2520 X170.73 Y103.13
G1 F1140 X174.53 Y106.93 E18.03618
G0 F2520 X174.33 Y106.17
G1 F1140 X170.46 Y102.29 E18.13852
G0 F2520 X170.18 Y101.45
G1 F1140 X174.05 Y105.32 E18.24075
G0 F2520 X173.77 Y104.48
G1 F1140 X169.91 Y100.61 E18.34288
G0 F2520 X169.63 Y99.77
G1 F1140 X173.50 Y103.63 E18.44490
G0 F2520 X173.22 Y102.79
G1 F1140 X169.36 Y98.93 E18.54680
G0 F2520 X168.80 Y98.38
G1 F1140 X142.05 Y71.62 E19.25354
G0 F2520 X141.75 Y71.89
G1 F1140 X145.58 Y75.72 E19.35469
G0 F2520 X145.22 Y75.93
G1 F1140 X141.46 Y72.16 E19.45422
G0 F2520 X141.16 Y72.43
G1 F1140 X144.96 Y76.23 E19.55451
G0 F2520 X144.69 Y76.53
G1 F1140 X140.86 Y72.70 E19.65558
G0 F2520 X140.57 Y72.97
G1 F1140 X144.42 Y76.82 E19.75745
G0 F2520 X144.16 Y77.12
G1 F1140 X140.27 Y73.24 E19.86009
G0 F2520 X139.97 Y73.51
G1 F1140 X143.89 Y77.42 E19.96351
G0 F2520 X143.62 Y77.72
G1 F1140 X139.68 Y73.78 E20.06772
G0 F2520 X139.38 Y74.04
G1 F1140 X143.36 Y78.02 E20.17270
G0 F2520 X143.09 Y78.32
G1 F1140 X139.09 Y74.31 E20.27848
G0 F2520 X138.79 Y74.58
G1 F1140 X142.82 Y78.62 E20.38504
G0 F2520 X142.55 Y78.92
G1 F1140 X138.49 Y74.85 E20.49237
G0 F2520 X138.20 Y75.12
G1 F1140 X142.29 Y79.21 E20.60048
G0 F2520 X142.02 Y79.51
G1 F1140 X137.90 Y75.39 E20.70939
G0 F2520 X137.60 Y75.66
G1 F1140 X141.76 Y79.81 E20.81906
G0 F2520 X141.49 Y80.11
G1 F1140 X137.31 Y75.93 E20.92953
G0 F2520 X137.01 Y76.20
G1 F1140 X141.22 Y80.41 E21.04077
G0 F2520 X140.95 Y80.71
G1 F1140 X136.71 Y76.47 E21.15279
G0 F2520 X136.42 Y76.74
G1 F1140 X140.69 Y81.01 E21.26560
G0 F2520 X140.42 Y81.31
G1 F1140 X136.12 Y77.01 E21.37920
G0 F2520 X135.82 Y77.28
G1 F1140 X140.15 Y81.61 E21.49357
G0 F2520 X139.89 Y81.90
G1 F1140 X135.53 Y77.54 E21.60871
G0 F2520 X135.23 Y77.81
G1 F1140 X139.62 Y82.20 E21.72466
G0 F2520 X139.35 Y82.50
G1 F1140 X134.93 Y78.08 E21.84136
G0 F2520 X134.64 Y78.35
G1 F1140 X139.09 Y82.80 E21.95886
G0 F2520 X138.82 Y83.10
G1 F1140 X134.34 Y78.62 E22.07716
G0 F2520 X134.05 Y78.89
G1 F1140 X138.55 Y83.40 E22.19623
G0 F2520 X138.29 Y83.70
G1 F1140 X133.76 Y79.17 E22.31583
G0 F2520 X133.48 Y79.45
G1 F1140 X138.02 Y84.00 E22.43587
G0 F2520 X137.75 Y84.29
G1 F1140 X133.19 Y79.74 E22.55630
G0 F2520 X132.91 Y80.02
G1 F1140 X137.49 Y84.59 E22.67717
G0 F2520 X137.22 Y84.89
G1 F1140 X132.63 Y80.30 E22.79847
G0 F2520 X132.34 Y80.58
G1 F1140 X136.95 Y85.19 E22.92020
G0 F2520 X136.68 Y85.49
G1 F1140 X132.06 Y80.87 E23.04233
G0 F2520 X131.78 Y81.15
G1 F1140 X136.42 Y85.79 E23.16488
G0 F2520 X136.15 Y86.09
G1 F1140 X131.50 Y81.43 E23.28785
G0 F2520 X131.21 Y81.72
G1 F1140 X135.88 Y86.39 E23.41125
G0 F2520 X135.62 Y86.69
G1 F1140 X130.93 Y82.00 E23.53509
G0 F2520 X130.65 Y82.29
G1 F1140 X135.35 Y86.99 E23.65917
G0 F2520 X135.08 Y87.28
G1 F1140 X130.38 Y82.58 E23.78338
G0 F2520 X130.11 Y82.88
G1 F1140 X134.82 Y87.58 E23.90772
G0 F2520 X134.55 Y87.88
G1 F1140 X129.84 Y83.17 E24.03222
G0 F2520 X129.57 Y83.46
G1 F1140 X134.28 Y88.18 E24.15687
G0 F2520 X134.02 Y88.48
G1 F1140 X129.30 Y83.77 E24.28135
G0 F2520 X129.05 Y84.07
G1 F1140 X133.75 Y88.78 E24.40561
G0 F2520 X133.48 Y89.08
G1 F1140 X128.79 Y84.38 E24.52965
G0 F2520 X128.53 Y84.69
G1 F1140 X133.22 Y89.38 E24.65343
G0 F2520 X132.95 Y89.68
G1 F1140 X128.27 Y85.00 E24.77701
G0 F2520 X128.01 Y85.31
G1 F1140 X132.68 Y89.97 E24.90035
G0 F2520 X132.42 Y90.27
G1 F1140 X127.76 Y85.61 E25.02345
G0 F2520 X127.50 Y85.92
G1 F1140 X132.15 Y90.57 E25.14631
G0 F2520 X131.88 Y90.87
G1 F1140 X127.24 Y86.23 E25.26895
G0 F2520 X127.00 Y86.55
G1 F1140 X131.62 Y91.17 E25.39086
G0 F2520 X131.35 Y91.47
G1 F1140 X126.76 Y86.88 E25.51206
G0 F2520 X126.52 Y87.21
G1 F1140 X131.08 Y91.77 E25.63252
G0 F2520 X130.82 Y92.07
G1 F1140 X126.28 Y87.53 E25.75224
G0 F2520 X126.04 Y87.86
G1 F1140 X130.55 Y92.36 E25.87121
G0 F2520 X130.28 Y92.66
G1 F1140 X125.81 Y88.19 E25.98945
G0 F2520 X125.58 Y88.52
G1 F1140 X130.01 Y92.96 E26.10668
G0 F2520 X129.75 Y93.26
G1 F1140 X125.36 Y88.87 E26.22272
G0 F2520 X125.14 Y89.21
G1 F1140 X129.48 Y93.56 E26.33752
G0 F2520 X129.21 Y93.86
