;Generated with Cura_SteamEngine 13.12
M109 T0 S220.000000
T0
;Sliced ?filename? at: Sat 18-01-2014 22:26:27
;Basic settings: Layer height: 0.1 Walls: 0.4 Fill: 15
;Print time: #P_TIME#
;Filament used: #F_AMNT#m #F_WGHT#g
;Filament cost: #F_COST#
G21        ;metric values
G90        ;absolute positioning
M107       ;start with the fan off
G28 X0 Y0  ;move X/Y to min endstops
G28 Z0     ;move Z to min endstops
G1 Z15.0 F?max_z_speed? ;move the platform down 15mm
G92 E0                  ;zero the extruded length
G1 F200 E3              ;extrude 3mm of feed stock
G92 E0                  ;zero the extruded length again
G1 F9000
M117 Printing...

;Layer count: 40
;LAYER:0
M107
G0 F2520 X122.80 Y86.30 Z0.30
;TYPE:SKIRT
G1 F2400 E0.00000
G1 F1140 X124.39 Y84.13 E0.05027
G1 X124.46 Y84.04 E0.05226
G1 X126.83 Y81.21 E0.12126
G1 X126.88 Y81.15 E0.12275
G1 X128.26 Y79.66 E0.16068
G1 X128.31 Y79.62 E0.16184
G1 X131.49 Y76.43 E0.24592
G1 X131.54 Y76.39 E0.24715
G1 X137.85 Y70.56 E0.40767
G1 X137.88 Y70.55 E0.40819
G1 X142.50 Y66.43 E0.52384
G1 X142.53 Y66.40 E0.52467
G1 X144.46 Y64.78 E0.57180
G1 X146.87 Y64.82 E0.61666
G1 X159.62 Y76.38 E0.93825
G1 X159.68 Y76.44 E0.93968
G1 X162.88 Y79.64 E1.02436
G1 X162.94 Y79.70 E1.02595
G1 X165.56 Y82.61 E1.09900
G1 X165.63 Y82.69 E1.10108
G1 X167.85 Y85.53 E1.16829
G1 X167.90 Y85.60 E1.16992
G1 X168.95 Y87.10 E1.20409
G1 X169.00 Y87.19 E1.20604
G1 X172.51 Y92.99 E1.33275
G1 X172.56 Y93.08 E1.33471
G1 X174.90 Y97.59 E1.42954
G1 X174.96 Y97.71 E1.43209
G1 X176.47 Y101.37 E1.50608
G1 X176.51 Y101.48 E1.50827
G1 X177.73 Y105.17 E1.58082
G1 X177.76 Y105.29 E1.58304
G1 X178.69 Y108.97 E1.65397
G1 X178.71 Y109.09 E1.65622
G1 X179.33 Y112.73 E1.72524
G1 X179.35 Y112.85 E1.72760
G1 X179.67 Y116.42 E1.79439
G1 X179.68 Y116.55 E1.79695
G1 X179.70 Y120.00 E1.86130
G1 X179.69 Y120.15 E1.86422
G1 X179.38 Y123.55 E1.92794
G1 X179.35 Y123.72 E1.93109
G1 X178.73 Y126.80 E1.98983
G1 X178.68 Y126.98 E1.99338
G1 X177.78 Y129.75 E2.04773
G1 X177.69 Y129.96 E2.05195
G1 X176.41 Y132.55 E2.10592
G1 X176.28 Y132.78 E2.11090
G1 X174.64 Y135.04 E2.16317
G1 X174.43 Y135.28 E2.16900
G1 X172.42 Y137.16 E2.22038
G1 X172.15 Y137.36 E2.22673
G1 X169.77 Y138.78 E2.27837
G1 X169.45 Y138.92 E2.28499
G1 X166.74 Y139.81 E2.33827
G1 X166.41 Y139.89 E2.34463
G1 X163.45 Y140.20 E2.40024
G1 X163.24 Y140.20 E2.40418
G1 X162.12 Y140.17 E2.42508
G1 X161.99 Y140.16 E2.42747
G1 X160.02 Y139.95 E2.46447
G1 X159.86 Y139.92 E2.46750
G1 X157.74 Y139.47 E2.50801
G1 X157.60 Y139.44 E2.51075
G1 X155.34 Y138.74 E2.55489
G1 X155.22 Y138.70 E2.55727
G1 X152.94 Y137.79 E2.60306
G1 X152.84 Y137.74 E2.60522
G1 X150.42 Y136.57 E2.65539
G1 X150.33 Y136.52 E2.65724
G1 X147.86 Y135.12 E2.71037
G1 X147.78 Y135.07 E2.71211
G1 X145.63 Y133.70 E2.75970
G1 X143.96 Y134.95 E2.79871
G1 X143.78 Y135.07 E2.80289
G1 X141.15 Y136.52 E2.85882
G1 X141.06 Y136.56 E2.86076
G1 X138.80 Y137.62 E2.90739
G1 X138.67 Y137.68 E2.91013
G1 X136.15 Y138.59 E2.96017
G1 X136.03 Y138.63 E2.96253
G1 X131.60 Y139.85 E3.04834
G1 X131.26 Y139.90 E3.05472
G1 X127.05 Y140.13 E3.13355
G1 X126.63 Y140.10 E3.14133
G1 X122.89 Y139.33 E3.21272
G1 X122.46 Y139.17 E3.22130
G1 X119.26 Y137.46 E3.28894
G1 X118.90 Y137.20 E3.29731
G1 X116.32 Y134.69 E3.36444
G1 X116.08 Y134.39 E3.37173
G1 X114.13 Y131.25 E3.44070
G1 X113.99 Y130.97 E3.44667
G1 X112.64 Y127.33 E3.51923
G1 X112.57 Y127.07 E3.52410
G1 X111.78 Y123.03 E3.60107
G1 X111.75 Y122.82 E3.60512
G1 X111.50 Y118.45 E3.68675
G1 X111.50 Y118.27 E3.69024
G1 X111.77 Y113.67 E3.77620
G1 X111.79 Y113.50 E3.77934
G1 X112.57 Y108.76 E3.86922
G1 X112.61 Y108.60 E3.87218
G1 X113.90 Y103.79 E3.96534
G1 X113.95 Y103.64 E3.96821
G1 X115.75 Y98.85 E4.06387
G1 X115.81 Y98.70 E4.06678
G1 X118.10 Y94.04 E4.16378
G1 X118.15 Y93.96 E4.16564
G1 X120.24 Y90.30 E4.24420
G1 X120.28 Y90.23 E4.24573
G1 X122.75 Y86.38 E4.33123
G1 X122.80 Y86.30 E4.33306
G0 F2520 X131.56 Y96.55
G1 F1140 X131.53 Y96.59 E4.33397
G1 X127.41 Y108.39 E4.56753
G1 X127.30 Y109.36 E4.58574
G1 X127.63 Y116.56 E4.72029
G1 X128.64 Y122.81 E4.83852
G1 X130.94 Y125.71 E4.90777
G1 X131.14 Y125.75 E4.91157
G1 X133.91 Y126.11 E4.96364
G1 X134.49 Y126.12 E4.97457
G1 X136.17 Y125.62 E5.00730
G1 X137.09 Y125.31 E5.02534
G1 X137.45 Y125.09 E5.03336
G1 X138.92 Y124.05 E5.06693
G1 X140.39 Y122.95 E5.10120
G1 X144.71 Y119.02 E5.21036
G1 X147.27 Y119.08 E5.25817
G1 X151.48 Y123.28 E5.36915
G1 X154.48 Y125.33 E5.43708
G1 X157.02 Y126.11 E5.48673
G1 X157.10 Y126.14 E5.48837
G1 X158.32 Y126.03 E5.51120
G1 X160.62 Y125.73 E5.55458
G1 X162.91 Y122.81 E5.62394
G1 X162.93 Y122.74 E5.62525
G1 X163.83 Y116.88 E5.73591
G1 X164.11 Y110.37 E5.85770
G1 X164.13 Y108.93 E5.88460
G1 X159.86 Y96.83 E6.12428
G1 X148.70 Y84.02 E6.44163
G1 X145.69 Y80.72 E6.52498
G1 X131.56 Y96.55 E6.92134
G1 F2400 E2.42134
G0 F2520 X128.94 Y94.38
;TYPE:WALL-OUTER
G1 F2400 E6.92134
G1 F1140 X128.68 Y94.72 E6.92941
G1 X128.45 Y95.11 E6.93789
G1 X124.07 Y107.64 E7.18587
G1 X123.89 Y109.26 E7.21635
G1 X124.24 Y116.92 E7.35947
G1 X125.43 Y124.20 E7.49724
G1 X125.44 Y124.24 E7.49817
G1 X128.46 Y128.05 E7.58894
G1 X129.17 Y128.82 E7.60849
G1 X129.23 Y128.85 E7.60971
G1 X130.62 Y129.11 E7.63611
G1 X133.65 Y129.50 E7.69325
G1 X134.93 Y129.53 E7.71713
G1 X134.96 Y129.53 E7.71773
G1 X137.23 Y128.86 E7.76186
G1 X138.54 Y128.40 E7.78798
G1 X139.30 Y127.94 E7.80446
G1 X140.92 Y126.80 E7.84153
G1 X142.56 Y125.57 E7.87977
G1 X145.91 Y122.52 E7.96434
G1 X149.31 Y125.92 E8.05397
G1 X153.00 Y128.43 E8.13739
G1 X156.79 Y129.57 E8.21132
G1 X156.82 Y129.58 E8.21197
G1 X158.68 Y129.41 E8.24679
G1 X161.71 Y129.01 E8.30390
G1 X162.33 Y128.88 E8.31578
G1 X162.38 Y128.86 E8.31674
G1 X162.74 Y128.54 E8.32565
G1 X166.02 Y124.35 E8.42519
G1 X166.04 Y124.31 E8.42596
G1 X166.27 Y123.40 E8.44358
G1 X167.22 Y117.21 E8.56059
G1 X167.50 Y110.48 E8.68631
G1 X167.55 Y108.39 E8.72534
G1 X167.54 Y108.36 E8.72600
G1 X162.85 Y95.11 E8.98858
G1 X162.83 Y95.07 E8.98928
G1 X151.21 Y81.72 E9.31993
G1 X146.53 Y76.60 E9.44946
G1 X145.92 Y76.01 E9.46542
G1 X145.89 Y75.99 E9.46617
G1 X145.57 Y75.86 E9.47256
G1 X145.45 Y75.89 E9.47491
G1 X128.94 Y94.38 E9.93779
G0 F2520 X128.70 Y94.20
G0 X126.56 Y94.78
G0 X126.29 Y94.91
G1 F1140 X126.21 Y94.76 E9.94088
G1 X124.09 Y94.01 E9.98304
G1 X123.94 Y94.08 E9.98613
G1 X117.04 Y113.67 E10.37402
G1 X117.11 Y113.82 E10.37711
G1 X119.24 Y114.57 E10.41927
G1 X119.39 Y114.50 E10.42236
G1 X126.29 Y94.91 E10.81028
G0 F2520 X126.56 Y94.78
G0 X126.49 Y94.45
G0 X123.42 Y92.19
G0 X123.17 Y92.03
G1 F1140 X125.58 Y88.26 E10.89391
G1 X127.11 Y86.18 E10.94205
G1 X129.40 Y83.43 E11.00889
G1 X130.74 Y82.00 E11.04551
G1 X133.87 Y78.87 E11.12815
G1 X144.74 Y68.99 E11.40259
G1 X145.60 Y68.26 E11.42361
G1 X157.30 Y78.87 E11.71864
G1 X160.45 Y82.01 E11.80158
G1 X163.00 Y84.84 E11.87279
G1 X165.14 Y87.59 E11.93786
G1 X166.13 Y89.00 E11.97006
G1 X169.57 Y94.69 E12.09433
G1 X171.85 Y99.09 E12.18673
G1 X173.31 Y102.62 E12.25821
G1 X174.49 Y106.18 E12.32827
G1 X175.38 Y109.74 E12.39669
G1 X175.97 Y113.23 E12.46295
G1 X176.28 Y116.64 E12.52693
G1 X176.30 Y119.93 E12.58829
G1 X176.00 Y123.14 E12.64856
G1 X175.42 Y126.03 E12.70353
G1 X174.59 Y128.57 E12.75348
G1 X173.43 Y130.91 E12.80225
G1 X171.98 Y132.91 E12.84846
G1 X170.24 Y134.54 E12.89291
G1 X168.20 Y135.76 E12.93737
G1 X165.87 Y136.52 E12.98326
G1 X163.21 Y136.80 E13.03310
G1 X162.29 Y136.78 E13.05039
G1 X160.48 Y136.58 E13.08434
G1 X158.52 Y136.16 E13.12171
G1 X156.42 Y135.51 E13.16285
G1 X154.26 Y134.65 E13.20623
G1 X151.95 Y133.53 E13.25421
G1 X149.57 Y132.19 E13.30520
G1 X146.99 Y130.53 E13.36262
G1 X145.65 Y129.54 E13.39377
G1 X145.51 Y129.54 E13.39625
G1 X142.03 Y132.15 E13.47770
G1 X139.56 Y133.51 E13.53027
G1 X137.43 Y134.51 E13.57422
G1 X135.06 Y135.37 E13.62131
G1 X130.88 Y136.52 E13.70227
G1 X127.09 Y136.73 E13.77315
G1 X123.83 Y136.05 E13.83540
G1 X121.09 Y134.59 E13.89344
G1 X118.85 Y132.41 E13.95167
G1 X117.11 Y129.61 E14.01331
G1 X115.88 Y126.28 E14.07967
G1 X115.14 Y122.50 E14.15152
G1 X114.90 Y118.36 E14.22901
G1 X115.16 Y113.96 E14.31146
G1 X115.91 Y109.40 E14.39770
G1 X117.16 Y104.75 E14.48764
G1 X118.90 Y100.12 E14.58002
G1 X121.13 Y95.60 E14.67417
G1 X123.17 Y92.03 E14.75105
G0 F2520 X123.42 Y92.19
G0 X116.62 Y113.69
G0 X116.83 Y114.13
G0 X118.53 Y119.32
G0 X118.48 Y119.61
G1 F1140 X118.44 Y119.61 E14.75178
G1 X117.41 Y119.81 E14.77128
G1 X117.38 Y119.83 E14.77202
G1 X116.51 Y120.41 E14.79151
G1 X116.48 Y120.44 E14.79225
G1 X115.90 Y121.30 E14.81173
G1 X115.89 Y121.34 E14.81247
G1 X115.68 Y122.36 E14.83199
G1 X115.68 Y122.40 E14.83272
G1 X115.89 Y123.43 E14.85222
G1 X115.90 Y123.46 E14.85296
G1 X116.48 Y124.33 E14.87245
G1 X116.51 Y124.36 E14.87319
G1 X117.38 Y124.94 E14.89268
G1 X117.41 Y124.96 E14.89342
G1 X118.44 Y125.16 E14.91292
G1 X118.48 Y125.16 E14.91365
G1 X119.50 Y124.96 E14.93317
G1 X119.54 Y124.94 E14.93390
G1 X120.40 Y124.36 E14.95339
G1 X120.43 Y124.33 E14.95413
G1 X121.01 Y123.46 E14.97362
G1 X121.03 Y123.43 E14.97436
G1 X121.23 Y122.40 E14.99386
G1 X121.23 Y122.36 E14.99459
G1 X121.03 Y121.34 E15.01411
G1 X121.01 Y121.30 E15.01484
G1 X120.43 Y120.44 E15.03433
G1 X120.40 Y120.41 E15.03507
G1 X119.54 Y119.83 E15.05456
G1 X119.50 Y119.81 E15.05530
G1 X118.48 Y119.61 E15.07482
G0 F2520 X118.53 Y119.32
G0 X128.35 Y94.48
G0 X145.24 Y75.54
G0 X146.17 Y75.70
G0 X157.50 Y85.89
G0 X157.71 Y85.68
G1 F1140 X157.74 Y85.70 E15.07556
G1 X158.36 Y86.12 E15.08943
G1 X158.39 Y86.13 E15.09016
G1 X159.12 Y86.28 E15.10405
G1 X159.16 Y86.28 E15.10477
G1 X159.89 Y86.13 E15.11864
G1 X159.93 Y86.12 E15.11937
G1 X160.54 Y85.70 E15.13325
G1 X160.57 Y85.68 E15.13398
G1 X160.98 Y85.06 E15.14786
G1 X161.00 Y85.02 E15.14859
G1 X161.14 Y84.29 E15.16246
G1 X161.14 Y84.25 E15.16319
G1 X161.00 Y83.53 E15.17707
G1 X160.98 Y83.49 E15.17780
G1 X160.57 Y82.87 E15.19168
G1 X160.54 Y82.84 E15.19241
G1 X159.93 Y82.43 E15.20629
G1 X159.89 Y82.42 E15.20702
G1 X159.16 Y82.27 E15.22089
G1 X159.12 Y82.27 E15.22162
G1 X158.39 Y82.42 E15.23550
G1 X158.36 Y82.43 E15.23623
G1 X157.74 Y82.84 E15.25011
G1 X157.71 Y82.87 E15.25084
G1 X157.30 Y83.49 E15.26472
G1 X157.28 Y83.53 E15.26545
G1 X157.14 Y84.25 E15.27933
G1 X157.14 Y84.29 E15.28006
G1 X157.28 Y85.02 E15.29393
G1 X157.30 Y85.06 E15.29466
G1 X157.71 Y85.68 E15.30854
G0 F2520 X157.50 Y85.89
G0 X165.36 Y95.14
G0 X165.46 Y95.43
G1 F1140 X165.39 Y95.57 E15.31163
G1 X172.29 Y115.16 E15.69953
G1 X172.43 Y115.23 E15.70262
G1 X174.57 Y114.48 E15.74482
G1 X174.64 Y114.33 E15.74791
G1 X167.74 Y94.75 E16.13582
G1 X167.59 Y94.68 E16.13891
G1 X165.46 Y95.43 E16.18109
G0 F2520 X165.30 Y95.44
;TYPE:FILL
G1 F1140 X149.45 Y79.58 E16.59987
G0 F2520 X149.56 Y79.48
G0 X146.07 Y75.63
G0 X145.64 Y75.57
G0 X145.58 Y75.72
G1 F1140 X141.75 Y71.89 E16.70102
G0 F2520 X141.46 Y72.16
G1 F1140 X145.22 Y75.93 E16.80054
G0 F2520 X144.96 Y76.23
G1 F1140 X141.16 Y72.43 E16.90083
G0 F2520 X140.86 Y72.70
G1 F1140 X144.69 Y76.53 E17.00190
G0 F2520 X144.42 Y76.82
G1 F1140 X140.57 Y72.97 E17.10377
G0 F2520 X140.27 Y73.24
G1 F1140 X144.16 Y77.12 E17.20642
G0 F2520 X143.89 Y77.42
G1 F1140 X139.97 Y73.51 E17.30984
G0 F2520 X139.68 Y73.78
G1 F1140 X143.62 Y77.72 E17.41405
G0 F2520 X143.36 Y78.02
G1 F1140 X139.38 Y74.04 E17.51903
G0 F2520 X139.09 Y74.31
G1 F1140 X143.09 Y78.32 E17.62480
G0 F2520 X142.82 Y78.62
G1 F1140 X138.79 Y74.58 E17.73136
G0 F2520 X138.49 Y74.85
G1 F1140 X142.55 Y78.92 E17.83869
G0 F2520 X142.29 Y79.21
G1 F1140 X138.20 Y75.12 E17.94680
G0 F2520 X137.90 Y75.39
G1 F1140 X142.02 Y79.51 E18.05572
G0 F2520 X141.76 Y79.81
G1 F1140 X137.60 Y75.66 E18.16539
G0 F2520 X137.31 Y75.93
G1 F1140 X141.49 Y80.11 E18.27586
G0 F2520 X141.22 Y80.41
G1 F1140 X137.01 Y76.20 E18.38710
G0 F2520 X136.71 Y76.47
G1 F1140 X140.95 Y80.71 E18.49912
G0 F2520 X140.69 Y81.01
G1 F1140 X136.42 Y76.74 E18.61193
G0 F2520 X136.12 Y77.01
G1 F1140 X140.42 Y81.31 E18.72552
G0 F2520 X140.15 Y81.61
G1 F1140 X135.82 Y77.28 E18.83989
G0 F2520 X135.53 Y77.54
G1 F1140 X139.89 Y81.90 E18.95504
G0 F2520 X139.62 Y82.20
G1 F1140 X135.23 Y77.81 E19.07098
G0 F2520 X134.93 Y78.08
G1 F1140 X139.35 Y82.50 E19.18769
G0 F2520 X139.09 Y82.80
G1 F1140 X134.64 Y78.35 E19.30519
G0 F2520 X134.34 Y78.62
G1 F1140 X138.82 Y83.10 E19.42348
G0 F2520 X138.55 Y83.40
G1 F1140 X134.05 Y78.89 E19.54255
G0 F2520 X133.76 Y79.17
G1 F1140 X138.29 Y83.70 E19.66215
G0 F2520 X138.02 Y84.00
G1 F1140 X133.48 Y79.45 E19.78219
G0 F2520 X133.19 Y79.74
G1 F1140 X137.75 Y84.29 E19.90262
G0 F2520 X137.49 Y84.59
G1 F1140 X132.91 Y80.02 E20.02349
G0 F2520 X132.63 Y80.30
G1 F1140 X137.22 Y84.89 E20.14480
G0 F2520 X136.95 Y85.19
G1 F1140 X132.34 Y80.58 E20.26652
G0 F2520 X132.06 Y80.87
G1 F1140 X136.68 Y85.49 E20.38866
G0 F2520 X136.42 Y85.79
G1 F1140 X131.78 Y81.15 E20.51121
G0 F2520 X131.50 Y81.43
G1 F1140 X136.15 Y86.09 E20.63417
G0 F2520 X135.88 Y86.39
G1 F1140 X131.21 Y81.72 E20.75758
G0 F2520 X130.93 Y82.00
G1 F1140 X135.62 Y86.69 E20.88142
G0 F2520 X135.35 Y86.99
G1 F1140 X130.65 Y82.29 E21.00550
G0 F2520 X130.38 Y82.58
G1 F1140 X135.08 Y87.28 E21.12971
G0 F2520 X134.82 Y87.58
G1 F1140 X130.11 Y82.88 E21.25405
G0 F2520 X129.84 Y83.17
G1 F1140 X134.55 Y87.88 E21.37855
G0 F2520 X134.28 Y88.18
G1 F1140 X129.57 Y83.46 E21.50320
G0 F2520 X129.30 Y83.77
G1 F1140 X134.02 Y88.48 E21.62767
G0 F2520 X133.75 Y88.78
G1 F1140 X129.05 Y84.07 E21.75193
G0 F2520 X128.79 Y84.38
G1 F1140 X133.48 Y89.08 E21.87597
G0 F2520 X133.22 Y89.38
G1 F1140 X128.53 Y84.69 E21.99976
G0 F2520 X128.27 Y85.00
G1 F1140 X132.95 Y89.68 E22.12333
G0 F2520 X132.68 Y89.97
G1 F1140 X128.01 Y85.31 E22.24667
G0 F2520 X127.76 Y85.61
G1 F1140 X132.42 Y90.27 E22.36977
G0 F2520 X132.15 Y90.57
G1 F1140 X127.50 Y85.92 E22.49264
G0 F2520 X127.24 Y86.23
G1 F1140 X131.88 Y90.87 E22.61527
G0 F2520 X131.62 Y91.17
G1 F1140 X127.00 Y86.55 E22.73719
G0 F2520 X126.76 Y86.88
G1 F1140 X131.35 Y91.47 E22.85839
G0 F2520 X131.08 Y91.77
G1 F1140 X126.52 Y87.21 E22.97884
G0 F2520 X126.28 Y87.53
G1 F1140 X130.82 Y92.07 E23.09856
G0 F2520 X130.55 Y92.36
G1 F1140 X126.04 Y87.86 E23.21753
G0 F2520 X125.81 Y88.19
G1 F1140 X130.28 Y92.66 E23.33577
G0 F2520 X130.01 Y92.96
G1 F1140 X125.58 Y88.52 E23.45301
G0 F2520 X125.36 Y88.87
G1 F1140 X129.75 Y93.26 E23.56904
G0 F2520 X129.48 Y93.56
G1 F1140 X125.14 Y89.21 E23.68385
G0 F2520 X124.91 Y89.56
G1 F1140 X129.21 Y93.86 E23.79744
G0 F2520 X128.95 Y94.16
G1 F1140 X124.69 Y89.90 E23.90983
G0 F2520 X124.47 Y90.25
G1 F1140 X128.69 Y94.47 E24.02128
G0 F2520 X128.46 Y94.80
G1 F1140 X124.25 Y90.59 E24.13248
G0 F2520 X124.03 Y90.94
G1 F1140 X128.27 Y95.18 E24.24450
G0 F2520 X128.12 Y95.60
G1 F1140 X123.81 Y91.28 E24.35847
G0 F2520 X123.59 Y91.63
G1 F1140 X127.98 Y96.02 E24.47444
G0 F2520 X127.83 Y96.44
G1 F1140 X126.40 Y95.00 E24.51228
G0 F2520 X126.25 Y95.42
G1 F1140 X127.68 Y96.86 E24.55013
G0 F2520 X127.54 Y97.28
G1 F1140 X126.11 Y95.84 E24.58801
G0 F2520 X125.96 Y96.26
G1 F1140 X127.39 Y97.69 E24.62594
G0 F2520 X127.25 Y98.11
G1 F1140 X125.81 Y96.68 E24.66387
G0 F2520 X125.66 Y97.10
G1 F1140 X127.10 Y98.53 E24.70183
G0 F2520 X126.95 Y98.95
G1 F1140 X125.51 Y97.51 E24.73982
G0 F2520 X125.37 Y97.93
G1 F1140 X126.81 Y99.37 E24.77783
G0 F2520 X126.66 Y99.79
G1 F1140 X125.22 Y98.35 E24.81587
G0 F2520 X125.07 Y98.77
G1 F1140 X126.51 Y100.21 E24.85394
G0 F2520 X126.37 Y100.63
G1 F1140 X124.93 Y99.19 E24.89203
G0 F2520 X124.78 Y99.61
G1 F1140 X126.22 Y101.05 E24.93015
G0 F2520 X126.07 Y101.47
G1 F1140 X124.63 Y100.02 E24.96829
G0 F2520 X124.48 Y100.44
G1 F1140 X125.93 Y101.89 E25.00645
G0 F2520 X125.78 Y102.31
G1 F1140 X124.34 Y100.86 E25.04465
G0 F2520 X124.19 Y101.28
G1 F1140 X125.64 Y102.73 E25.08287
G0 F2520 X125.49 Y103.14
G1 F1140 X124.04 Y101.70 E25.12111
G0 F2520 X123.89 Y102.12
G1 F1140 X125.34 Y103.56 E25.15936
G0 F2520 X125.20 Y103.98
G1 F1140 X123.75 Y102.53 E25.19767
G0 F2520 X123.60 Y102.95
G1 F1140 X125.05 Y104.40 E25.23598
G0 F2520 X124.90 Y104.82
G1 F1140 X123.45 Y103.37 E25.27431
G0 F2520 X123.31 Y103.79
G1 F1140 X124.76 Y105.24 E25.31270
G0 F2520 X124.61 Y105.66
G1 F1140 X123.16 Y104.21 E25.35109
G0 F2520 X123.01 Y104.63
G1 F1140 X124.46 Y106.08 E25.38950
G0 F2520 X124.32 Y106.50
