;Generated with Cura_SteamEngine 13.12
M109 T0 S220.000000
T0
;Sliced ?filename? at: Sat 18-01-2014 12:21:47
;Basic settings: Layer height: 0.1 Walls: 0.4 Fill: 15
;Print time: #P_TIME#
;Filament used: #F_AMNT#m #F_WGHT#g
;Filament cost: #F_COST#
G21        ;metric values
G90        ;absolute positioning
M107       ;start with the fan off
G28 X0 Y0  ;move X/Y to min endstops
G28 Z0     ;move Z to min endstops
G1 Z15.0 F?max_z_speed? ;move the platform down 15mm
G92 E0                  ;zero the extruded length
G1 F200 E3              ;extrude 3mm of feed stock
G92 E0                  ;zero the extruded length again
G1 F9000
M117 Printing...

;Layer count: 40
;LAYER:0
M107
G0 F2520 X122.80 Y86.30 Z0.30
;TYPE:SKIRT
G1 F2400 E0.00000
G1 F1140 X124.39 Y84.13 E0.05027
G1 X124.46 Y84.04 E0.05226
G1 X126.83 Y81.21 E0.12126
G1 X126.88 Y81.15 E0.12275
G1 X128.26 Y79.66 E0.16068
G1 X128.31 Y79.62 E0.16184
G1 X131.49 Y76.43 E0.24592
G1 X131.54 Y76.39 E0.24715
G1 X137.85 Y70.56 E0.40767
G1 X137.88 Y70.55 E0.40819
G1 X142.50 Y66.43 E0.52384
G1 X142.53 Y66.40 E0.52467
G1 X144.46 Y64.78 E0.57180
G1 X146.87 Y64.82 E0.61666
G1 X159.62 Y76.38 E0.93825
G1 X159.68 Y76.44 E0.93968
G1 X162.88 Y79.64 E1.02436
G1 X162.94 Y79.70 E1.02595
G1 X165.56 Y82.61 E1.09900
G1 X165.63 Y82.69 E1.10108
G1 X167.85 Y85.53 E1.16829
G1 X167.90 Y85.60 E1.16992
G1 X168.95 Y87.10 E1.20409
G1 X169.00 Y87.19 E1.20604
G1 X172.51 Y92.99 E1.33275
G1 X172.56 Y93.08 E1.33471
G1 X174.90 Y97.59 E1.42954
G1 X174.96 Y97.71 E1.43209
G1 X176.47 Y101.37 E1.50608
G1 X176.51 Y101.48 E1.50827
G1 X177.73 Y105.17 E1.58082
G1 X177.76 Y105.29 E1.58304
G1 X178.69 Y108.97 E1.65397
G1 X178.71 Y109.09 E1.65622
G1 X179.33 Y112.73 E1.72524
G1 X179.35 Y112.85 E1.72760
G1 X179.67 Y116.42 E1.79439
G1 X179.68 Y116.55 E1.79695
G1 X179.70 Y120.00 E1.86130
G1 X179.69 Y120.15 E1.86422
G1 X179.38 Y123.55 E1.92794
G1 X179.35 Y123.72 E1.93109
G1 X178.73 Y126.80 E1.98983
G1 X178.68 Y126.98 E1.99338
G1 X177.78 Y129.75 E2.04773
G1 X177.69 Y129.96 E2.05195
G1 X176.41 Y132.55 E2.10592
G1 X176.28 Y132.78 E2.11090
G1 X174.64 Y135.04 E2.16317
G1 X174.43 Y135.28 E2.16900
G1 X172.42 Y137.16 E2.22038
G1 X172.15 Y137.36 E2.22673
G1 X169.77 Y138.78 E2.27837
G1 X169.45 Y138.92 E2.28499
G1 X166.74 Y139.81 E2.33827
G1 X166.41 Y139.89 E2.34463
G1 X163.45 Y140.20 E2.40024
G1 X163.24 Y140.20 E2.40418
G1 X162.12 Y140.17 E2.42508
G1 X161.99 Y140.16 E2.42747
G1 X160.02 Y139.95 E2.46447
G1 X159.86 Y139.92 E2.46750
G1 X157.74 Y139.47 E2.50801
G1 X157.60 Y139.44 E2.51075
G1 X155.34 Y138.74 E2.55489
G1 X155.22 Y138.70 E2.55727
G1 X152.94 Y137.79 E2.60306
G1 X152.84 Y137.74 E2.60522
G1 X150.42 Y136.57 E2.65539
G1 X150.33 Y136.52 E2.65724
G1 X147.86 Y135.12 E2.71037
G1 X147.78 Y135.07 E2.71211
G1 X145.63 Y133.70 E2.75970
G1 X143.96 Y134.95 E2.79871
G1 X143.78 Y135.07 E2.80289
G1 X141.15 Y136.52 E2.85882
G1 X141.06 Y136.56 E2.86076
G1 X138.80 Y137.62 E2.90739
G1 X138.67 Y137.68 E2.91013
G1 X136.15 Y138.59 E2.96017
G1 X136.03 Y138.63 E2.96253
G1 X131.60 Y139.85 E3.04834
G1 X131.26 Y139.90 E3.05472
G1 X127.05 Y140.13 E3.13355
G1 X126.63 Y140.10 E3.14133
G1 X122.89 Y139.33 E3.21272
G1 X122.46 Y139.17 E3.22130
G1 X119.26 Y137.46 E3.28894
G1 X118.90 Y137.20 E3.29731
G1 X116.32 Y134.69 E3.36444
G1 X116.08 Y134.39 E3.37173
G1 X114.13 Y131.25 E3.44070
G1 X113.99 Y130.97 E3.44667
G1 X112.64 Y127.33 E3.51923
G1 X112.57 Y127.07 E3.52410
G1 X111.78 Y123.03 E3.60107
G1 X111.75 Y122.82 E3.60512
G1 X111.50 Y118.45 E3.68675
G1 X111.50 Y118.27 E3.69024
G1 X111.77 Y113.67 E3.77620
G1 X111.79 Y113.50 E3.77934
G1 X112.57 Y108.76 E3.86922
G1 X112.61 Y108.60 E3.87218
G1 X113.90 Y103.79 E3.96534
G1 X113.95 Y103.64 E3.96821
G1 X115.75 Y98.85 E4.06387
G1 X115.81 Y98.70 E4.06678
G1 X118.10 Y94.04 E4.16378
G1 X118.15 Y93.96 E4.16564
G1 X120.24 Y90.30 E4.24420
G1 X120.28 Y90.23 E4.24573
G1 X122.75 Y86.38 E4.33123
G1 X122.80 Y86.30 E4.33306
G0 F2520 X131.56 Y96.55
G1 F1140 X131.53 Y96.59 E4.33397
G1 X127.41 Y108.39 E4.56753
G1 X127.30 Y109.36 E4.58574
G1 X127.63 Y116.56 E4.72029
G1 X128.64 Y122.81 E4.83852
G1 X130.94 Y125.71 E4.90777
G1 X131.14 Y125.75 E4.91157
G1 X133.91 Y126.11 E4.96364
G1 X134.49 Y126.12 E4.97457
G1 X136.17 Y125.62 E5.00730
G1 X137.09 Y125.31 E5.02534
G1 X137.45 Y125.09 E5.03336
G1 X138.92 Y124.05 E5.06693
G1 X140.39 Y122.95 E5.10120
G1 X144.71 Y119.02 E5.21036
G1 X147.27 Y119.08 E5.25817
G1 X151.48 Y123.28 E5.36915
G1 X154.48 Y125.33 E5.43708
G1 X157.02 Y126.11 E5.48673
G1 X157.10 Y126.14 E5.48837
G1 X158.32 Y126.03 E5.51120
G1 X160.62 Y125.73 E5.55458
G1 X162.91 Y122.81 E5.62394
G1 X162.93 Y122.74 E5.62525
G1 X163.83 Y116.88 E5.73591
G1 X164.11 Y110.37 E5.85770
G1 X164.13 Y108.93 E5.88460
G1 X159.86 Y96.83 E6.12428
G1 X148.70 Y84.02 E6.44163
G1 X145.69 Y80.72 E6.52498
G1 X131.56 Y96.55 E6.92134
G1 F2400 E2.42134
G0 F2520 X128.94 Y94.38
;TYPE:WALL-OUTER
G1 F2400 E6.92134
G1 F1140 X128.68 Y94.72 E6.92941
G1 X128.45 Y95.11 E6.93789
G1 X124.07 Y107.64 E7.18587
G1 X123.89 Y109.26 E7.21635
G1 X124.24 Y116.92 E7.35947
G1 X125.43 Y124.20 E7.49724
G1 X125.44 Y124.24 E7.49817
G1 X128.46 Y128.05 E7.58894
G1 X129.17 Y128.82 E7.60849
G1 X129.23 Y128.85 E7.60971
G1 X130.62 Y129.11 E7.63611
G1 X133.65 Y129.50 E7.69325
G1 X134.93 Y129.53 E7.71713
G1 X134.96 Y129.53 E7.71773
G1 X137.23 Y128.86 E7.76186
G1 X138.54 Y128.40 E7.78798
G1 X139.30 Y127.94 E7.80446
G1 X140.92 Y126.80 E7.84153
G1 X142.56 Y125.57 E7.87977
G1 X145.91 Y122.52 E7.96434
G1 X149.31 Y125.92 E8.05397
G1 X153.00 Y128.43 E8.13739
G1 X156.79 Y129.57 E8.21132
G1 X156.82 Y129.58 E8.21197
G1 X158.68 Y129.41 E8.24679
G1 X161.71 Y129.01 E8.30390
G1 X162.33 Y128.88 E8.31578
G1 X162.38 Y128.86 E8.31674
G1 X162.74 Y128.54 E8.32565
G1 X166.02 Y124.35 E8.42519
G1 X166.04 Y124.31 E8.42596
G1 X166.27 Y123.40 E8.44358
G1 X167.22 Y117.21 E8.56059
G1 X167.50 Y110.48 E8.68631
G1 X167.55 Y108.39 E8.72534
G1 X167.54 Y108.36 E8.72600
G1 X162.85 Y95.11 E8.98858
G1 X162.83 Y95.07 E8.98928
G1 X151.21 Y81.72 E9.31993
G1 X146.53 Y76.60 E9.44946
G1 X145.92 Y76.01 E9.46542
G1 X145.89 Y75.99 E9.46617
G1 X145.57 Y75.86 E9.47256
G1 X145.45 Y75.89 E9.47491
G1 X128.94 Y94.38 E9.93779
G0 F2520 X128.70 Y94.20
G0 X127.20 Y92.59
G0 X126.91 Y92.50
G1 F1140 X126.84 Y92.35 E9.94088
G1 X124.72 Y91.65 E9.98243
G1 X124.58 Y91.73 E9.98555
G1 X120.02 Y105.59 E10.25800
G1 X120.10 Y105.73 E10.26109
G1 X122.21 Y106.43 E10.30266
G1 X122.36 Y106.35 E10.30576
G1 X126.91 Y92.50 E10.57818
G0 F2520 X127.20 Y92.59
G0 X122.67 Y106.62
G0 X122.24 Y106.84
G0 X119.82 Y106.05
G0 X119.61 Y105.62
G0 X123.42 Y92.19
G0 X123.17 Y92.03
G1 F1140 X125.58 Y88.26 E10.66181
G1 X127.11 Y86.18 E10.70996
G1 X129.40 Y83.43 E10.77679
G1 X130.74 Y82.00 E10.81341
G1 X133.87 Y78.87 E10.89605
G1 X144.74 Y68.99 E11.17049
G1 X145.60 Y68.26 E11.19152
G1 X157.30 Y78.87 E11.48654
G1 X160.45 Y82.01 E11.56948
G1 X163.00 Y84.84 E11.64069
G1 X165.14 Y87.59 E11.70577
G1 X166.13 Y89.00 E11.73797
G1 X169.57 Y94.69 E11.86223
G1 X171.85 Y99.09 E11.95463
G1 X173.31 Y102.62 E12.02611
G1 X174.49 Y106.18 E12.09618
G1 X175.38 Y109.74 E12.16459
G1 X175.97 Y113.23 E12.23086
G1 X176.28 Y116.64 E12.29483
G1 X176.30 Y119.93 E12.35619
G1 X176.00 Y123.14 E12.41647
G1 X175.42 Y126.03 E12.47143
G1 X174.59 Y128.57 E12.52138
G1 X173.43 Y130.91 E12.57016
G1 X171.98 Y132.91 E12.61636
G1 X170.24 Y134.54 E12.66081
G1 X168.20 Y135.76 E12.70527
G1 X165.87 Y136.52 E12.75116
G1 X163.21 Y136.80 E12.80100
G1 X162.29 Y136.78 E12.81829
G1 X160.48 Y136.58 E12.85224
G1 X158.52 Y136.16 E12.88961
G1 X156.42 Y135.51 E12.93075
G1 X154.26 Y134.65 E12.97414
G1 X151.95 Y133.53 E13.02211
G1 X149.57 Y132.19 E13.07310
G1 X146.99 Y130.53 E13.13052
G1 X145.65 Y129.54 E13.16167
G1 X145.51 Y129.54 E13.16415
G1 X142.03 Y132.15 E13.24561
G1 X139.56 Y133.51 E13.29817
G1 X137.43 Y134.51 E13.34212
G1 X135.06 Y135.37 E13.38921
G1 X130.88 Y136.52 E13.47017
G1 X127.09 Y136.73 E13.54105
G1 X123.83 Y136.05 E13.60331
G1 X121.09 Y134.59 E13.66134
G1 X118.85 Y132.41 E13.71957
G1 X117.11 Y129.61 E13.78121
G1 X115.88 Y126.28 E13.84757
G1 X115.14 Y122.50 E13.91942
G1 X114.90 Y118.36 E13.99691
G1 X115.16 Y113.96 E14.07936
G1 X115.91 Y109.40 E14.16560
G1 X117.16 Y104.75 E14.25554
G1 X118.90 Y100.12 E14.34793
G1 X121.13 Y95.60 E14.44207
G1 X123.17 Y92.03 E14.51895
G0 F2520 X123.42 Y92.19
G0 X119.61 Y105.62
G0 X119.82 Y106.05
G0 X118.53 Y119.32
G0 X118.48 Y119.61
G1 F1140 X118.44 Y119.61 E14.51968
G1 X117.41 Y119.81 E14.53918
G1 X117.38 Y119.83 E14.53992
G1 X116.51 Y120.41 E14.55941
G1 X116.48 Y120.44 E14.56015
G1 X115.90 Y121.30 E14.57964
G1 X115.89 Y121.34 E14.58037
G1 X115.68 Y122.36 E14.59989
G1 X115.68 Y122.40 E14.60062
G1 X115.89 Y123.43 E14.62013
G1 X115.90 Y123.46 E14.62086
G1 X116.48 Y124.33 E14.64035
G1 X116.51 Y124.36 E14.64109
G1 X117.38 Y124.94 E14.66058
G1 X117.41 Y124.96 E14.66132
G1 X118.44 Y125.16 E14.68082
G1 X118.48 Y125.16 E14.68155
G1 X119.50 Y124.96 E14.70107
G1 X119.54 Y124.94 E14.70181
G1 X120.40 Y124.36 E14.72130
G1 X120.43 Y124.33 E14.72204
G1 X121.01 Y123.46 E14.74153
G1 X121.03 Y123.43 E14.74226
G1 X121.23 Y122.40 E14.76176
G1 X121.23 Y122.36 E14.76249
G1 X121.03 Y121.34 E14.78201
G1 X121.01 Y121.30 E14.78274
G1 X120.43 Y120.44 E14.80223
G1 X120.40 Y120.41 E14.80297
G1 X119.54 Y119.83 E14.82246
G1 X119.50 Y119.81 E14.82320
G1 X118.48 Y119.61 E14.84272
G0 F2520 X118.53 Y119.32
G0 X128.35 Y94.48
G0 X145.24 Y75.54
G0 X146.17 Y75.70
G0 X157.50 Y85.89
G0 X157.71 Y85.68
G1 F1140 X157.74 Y85.70 E14.84346
G1 X158.36 Y86.12 E14.85733
G1 X158.39 Y86.13 E14.85807
G1 X159.12 Y86.28 E14.87195
G1 X159.16 Y86.28 E14.87268
G1 X159.89 Y86.13 E14.88654
G1 X159.93 Y86.12 E14.88727
G1 X160.54 Y85.70 E14.90115
G1 X160.57 Y85.68 E14.90189
G1 X160.98 Y85.06 E14.91576
G1 X161.00 Y85.02 E14.91650
G1 X161.14 Y84.29 E14.93036
G1 X161.14 Y84.25 E14.93109
G1 X161.00 Y83.53 E14.94497
G1 X160.98 Y83.49 E14.94570
G1 X160.57 Y82.87 E14.95958
G1 X160.54 Y82.84 E14.96032
G1 X159.93 Y82.43 E14.97419
G1 X159.89 Y82.42 E14.97493
G1 X159.16 Y82.27 E14.98879
G1 X159.12 Y82.27 E14.98952
G1 X158.39 Y82.42 E15.00340
G1 X158.36 Y82.43 E15.00413
G1 X157.74 Y82.84 E15.01801
G1 X157.71 Y82.87 E15.01875
G1 X157.30 Y83.49 E15.03262
G1 X157.28 Y83.53 E15.03336
G1 X157.14 Y84.25 E15.04724
G1 X157.14 Y84.29 E15.04797
G1 X157.28 Y85.02 E15.06183
G1 X157.30 Y85.06 E15.06256
G1 X157.71 Y85.68 E15.07644
G0 F2520 X157.50 Y85.89
G0 X164.50 Y92.86
G0 X164.77 Y92.99
G1 F1140 X164.69 Y93.14 E15.07954
G1 X169.25 Y107.00 E15.35198
G1 X169.40 Y107.07 E15.35509
G1 X171.51 Y106.38 E15.39666
G1 X171.59 Y106.23 E15.39975
G1 X167.03 Y92.37 E15.67217
G1 X166.88 Y92.30 E15.67527
G1 X164.77 Y92.99 E15.71683
G0 F2520 X164.59 Y93.03
;TYPE:FILL
G1 F1140 X142.64 Y71.08 E16.29665
G0 F2520 X142.35 Y71.35
G1 F1140 X164.75 Y93.75 E16.88843
G0 F2520 X165.02 Y94.60
G1 F1140 X142.05 Y71.62 E17.49535
G0 F2520 X141.75 Y71.89
G1 F1140 X145.58 Y75.72 E17.59650
G0 F2520 X145.22 Y75.93
G1 F1140 X141.46 Y72.16 E17.69602
G0 F2520 X141.16 Y72.43
G1 F1140 X144.96 Y76.23 E17.79631
G0 F2520 X144.69 Y76.53
G1 F1140 X140.86 Y72.70 E17.89738
G0 F2520 X140.57 Y72.97
G1 F1140 X144.42 Y76.82 E17.99925
G0 F2520 X144.16 Y77.12
G1 F1140 X140.27 Y73.24 E18.10189
G0 F2520 X139.97 Y73.51
G1 F1140 X143.89 Y77.42 E18.20532
G0 F2520 X143.62 Y77.72
G1 F1140 X139.68 Y73.78 E18.30953
G0 F2520 X139.38 Y74.04
G1 F1140 X143.36 Y78.02 E18.41451
G0 F2520 X143.09 Y78.32
G1 F1140 X139.09 Y74.31 E18.52028
G0 F2520 X138.79 Y74.58
G1 F1140 X142.82 Y78.62 E18.62684
G0 F2520 X142.55 Y78.92
G1 F1140 X138.49 Y74.85 E18.73417
G0 F2520 X138.20 Y75.12
G1 F1140 X142.29 Y79.21 E18.84228
G0 F2520 X142.02 Y79.51
G1 F1140 X137.90 Y75.39 E18.95120
G0 F2520 X137.60 Y75.66
G1 F1140 X141.76 Y79.81 E19.06086
G0 F2520 X141.49 Y80.11
G1 F1140 X137.31 Y75.93 E19.17134
G0 F2520 X137.01 Y76.20
G1 F1140 X141.22 Y80.41 E19.28258
G0 F2520 X140.95 Y80.71
G1 F1140 X136.71 Y76.47 E19.39460
G0 F2520 X136.42 Y76.74
G1 F1140 X140.69 Y81.01 E19.50741
G0 F2520 X140.42 Y81.31
G1 F1140 X136.12 Y77.01 E19.62100
G0 F2520 X135.82 Y77.28
G1 F1140 X140.15 Y81.61 E19.73537
G0 F2520 X139.89 Y81.90
G1 F1140 X135.53 Y77.54 E19.85052
G0 F2520 X135.23 Y77.81
G1 F1140 X139.62 Y82.20 E19.96646
G0 F2520 X139.35 Y82.50
G1 F1140 X134.93 Y78.08 E20.08317
G0 F2520 X134.64 Y78.35
G1 F1140 X139.09 Y82.80 E20.20067
G0 F2520 X138.82 Y83.10
G1 F1140 X134.34 Y78.62 E20.31896
G0 F2520 X134.05 Y78.89
G1 F1140 X138.55 Y83.40 E20.43803
G0 F2520 X138.29 Y83.70
G1 F1140 X133.76 Y79.17 E20.55763
G0 F2520 X133.48 Y79.45
G1 F1140 X138.02 Y84.00 E20.67767
G0 F2520 X137.75 Y84.29
G1 F1140 X133.19 Y79.74 E20.79810
G0 F2520 X132.91 Y80.02
G1 F1140 X137.49 Y84.59 E20.91897
G0 F2520 X137.22 Y84.89
G1 F1140 X132.63 Y80.30 E21.04027
G0 F2520 X132.34 Y80.58
G1 F1140 X136.95 Y85.19 E21.16200
G0 F2520 X136.68 Y85.49
G1 F1140 X132.06 Y80.87 E21.28414
G0 F2520 X131.78 Y81.15
G1 F1140 X136.42 Y85.79 E21.40668
G0 F2520 X136.15 Y86.09
G1 F1140 X131.50 Y81.43 E21.52965
G0 F2520 X131.21 Y81.72
G1 F1140 X135.88 Y86.39 E21.65306
G0 F2520 X135.62 Y86.69
G1 F1140 X130.93 Y82.00 E21.77690
G0 F2520 X130.65 Y82.29
G1 F1140 X135.35 Y86.99 E21.90098
G0 F2520 X135.08 Y87.28
G1 F1140 X130.38 Y82.58 E22.02519
G0 F2520 X130.11 Y82.88
G1 F1140 X134.82 Y87.58 E22.14953
G0 F2520 X134.55 Y87.88
G1 F1140 X129.84 Y83.17 E22.27403
G0 F2520 X129.57 Y83.46
G1 F1140 X134.28 Y88.18 E22.39867
G0 F2520 X134.02 Y88.48
G1 F1140 X129.30 Y83.77 E22.52315
G0 F2520 X129.05 Y84.07
G1 F1140 X133.75 Y88.78 E22.64741
G0 F2520 X133.48 Y89.08
G1 F1140 X128.79 Y84.38 E22.77145
G0 F2520 X128.53 Y84.69
G1 F1140 X133.22 Y89.38 E22.89524
G0 F2520 X132.95 Y89.68
G1 F1140 X128.27 Y85.00 E23.01881
G0 F2520 X128.01 Y85.31
G1 F1140 X132.68 Y89.97 E23.14215
G0 F2520 X132.42 Y90.27
G1 F1140 X127.76 Y85.61 E23.26525
G0 F2520 X127.50 Y85.92
G1 F1140 X132.15 Y90.57 E23.38812
G0 F2520 X131.88 Y90.87
G1 F1140 X127.24 Y86.23 E23.51075
G0 F2520 X127.00 Y86.55
G1 F1140 X131.62 Y91.17 E23.63267
G0 F2520 X131.35 Y91.47
G1 F1140 X126.76 Y86.88 E23.75386
G0 F2520 X126.52 Y87.21
G1 F1140 X131.08 Y91.77 E23.87432
G0 F2520 X130.82 Y92.07
G1 F1140 X126.28 Y87.53 E23.99404
G0 F2520 X126.04 Y87.86
G1 F1140 X130.55 Y92.36 E24.11301
G0 F2520 X130.28 Y92.66
G1 F1140 X125.81 Y88.19 E24.23125
G0 F2520 X125.58 Y88.52
G1 F1140 X130.01 Y92.96 E24.34848
G0 F2520 X129.75 Y93.26
G1 F1140 X125.36 Y88.87 E24.46452
G0 F2520 X125.14 Y89.21
G1 F1140 X129.48 Y93.56 E24.57932
G0 F2520 X129.21 Y93.86
G1 F1140 X124.91 Y89.56 E24.69292
G0 F2520 X124.69 Y89.90
G1 F1140 X128.95 Y94.16 E24.80530
G0 F2520 X128.69 Y94.47
G1 F1140 X126.97 Y92.75 E24.85063
G0 F2520 X126.83 Y93.18
G1 F1140 X128.46 Y94.80 E24.89360
G0 F2520 X128.27 Y95.18
G1 F1140 X126.69 Y93.60 E24.93523
G0 F2520 X126.56 Y94.03
G1 F1140 X128.12 Y95.60 E24.97669
G0 F2520 X127.98 Y96.02
G1 F1140 X126.42 Y94.45 E25.01800
G0 F2520 X126.28 Y94.88
G1 F1140 X127.83 Y96.44 E25.05913
G0 F2520 X127.68 Y96.86
G1 F1140 X126.14 Y95.31 E25.10007
G0 F2520 X126.00 Y95.73
G1 F1140 X127.54 Y97.28 E25.14087
G0 F2520 X127.39 Y97.69
G1 F1140 X125.86 Y96.16 E25.18150
G0 F2520 X125.71 Y96.58
G1 F1140 X127.25 Y98.11 E25.22194
G0 F2520 X127.10 Y98.53
G1 F1140 X125.57 Y97.01 E25.26224
G0 F2520 X125.43 Y97.43
G1 F1140 X126.95 Y98.95 E25.30236
G0 F2520 X126.81 Y99.37
G1 F1140 X125.29 Y97.86 E25.34230
G0 F2520 X125.15 Y98.29
G1 F1140 X126.66 Y99.79 E25.38208
G0 F2520 X126.51 Y100.21
G1 F1140 X125.01 Y98.71 E25.42169
G0 F2520 X124.88 Y99.14
G1 F1140 X126.37 Y100.63 E25.46113
G0 F2520 X126.22 Y101.05
G1 F1140 X124.74 Y99.56 E25.50041
G0 F2520 X124.60 Y99.99
G1 F1140 X126.07 Y101.47 E25.53951
G0 F2520 X125.93 Y101.89
G1 F1140 X124.46 Y100.41 E25.57843
G0 F2520 X124.32 Y100.84
G1 F1140 X125.78 Y102.31 E25.61720
G0 F2520 X125.64 Y102.73
G1 F1140 X124.18 Y101.26 E25.65579
G0 F2520 X124.04 Y101.69
G1 F1140 X125.49 Y103.14 E25.69422
G0 F2520 X125.34 Y103.56
G1 F1140 X123.89 Y102.12 E25.73247
G0 F2520 X123.75 Y102.54
G1 F1140 X125.20 Y103.98 E25.77056
G0 F2520 X125.05 Y104.40
G1 F1140 X123.61 Y102.97 E25.80848
G0 F2520 X123.47 Y103.39
G1 F1140 X124.90 Y104.82 E25.84623
G0 F2520 X124.76 Y105.24
G1 F1140 X123.33 Y103.82 E25.88382
G0 F2520 X123.19 Y104.25
