;Generated with Cura_SteamEngine 13.12
M109 T0 S235.000000
T0
;Sliced at: Thu 23-01-2014 18:31:54
;Basic settings: Layer height: 0.1 Walls: 0.4 Fill: 15
;Print time: #P_TIME#
;Filament used: #F_AMNT#m #F_WGHT#g
;Filament cost: #F_COST#
;M190 S70 ;Uncomment to add your own bed temperature line
;M109 S235 ;Uncomment to add your own temperature line
G21        ;metric values
G90        ;absolute positioning
M107       ;start with the fan off
G28 X0 Y0  ;move X/Y to min endstops
G28 Z0     ;move Z to min endstops
G1 Z15.0 F10800 ;move the platform down 15mm
G92 E0                  ;zero the extruded length
G1 F200 E3              ;extrude 3mm of feed stock
G92 E0                  ;zero the extruded length again
G1 F10800
;Put printing message on LCD screen
M117 Printing...

;Layer count: 42
;LAYER:0
M107
G0 F3000 X124.13 Y91.75 Z0.30
;TYPE:SKIRT
G1 F2400 E0.00000
G1 F1140 X124.56 Y91.20 E0.01306
G1 X124.62 Y91.12 E0.01488
G1 X141.46 Y72.23 E0.48748
G1 X141.47 Y72.22 E0.48789
G1 X143.54 Y69.95 E0.54522
G1 X145.49 Y69.51 E0.58244
G1 X146.97 Y70.10 E0.61230
G1 X147.50 Y70.44 E0.62409
G1 X148.54 Y71.45 E0.65104
G1 X148.60 Y71.52 E0.65284
G1 X154.58 Y78.07 E0.81849
G1 X154.60 Y78.10 E0.81923
G1 X166.81 Y92.17 E1.16722
G1 X167.12 Y92.69 E1.17844
G1 X172.50 Y107.90 E1.47979
G1 X172.59 Y108.48 E1.49081
G1 X172.38 Y115.91 E1.62967
G1 X172.38 Y115.97 E1.63066
G1 X172.21 Y118.69 E1.68170
G1 X172.19 Y118.84 E1.68442
G1 X171.12 Y125.82 E1.81641
G1 X171.09 Y125.97 E1.81921
G1 X170.75 Y127.34 E1.84565
G1 X170.45 Y127.95 E1.85821
G1 X166.53 Y132.95 E1.97696
G1 X166.33 Y133.16 E1.98250
G1 X165.55 Y133.85 E2.00182
G1 X164.80 Y134.22 E2.01735
G1 X163.68 Y134.45 E2.03876
G1 X163.56 Y134.47 E2.04101
G1 X160.14 Y134.91 E2.10557
G1 X160.08 Y134.92 E2.10670
G1 X157.70 Y135.14 E2.15124
G1 X157.09 Y135.08 E2.16282
G1 X152.40 Y133.66 E2.25425
G1 X151.96 Y133.45 E2.26333
G1 X147.60 Y130.47 E2.36202
G1 X147.37 Y130.28 E2.36763
G1 X145.53 Y128.44 E2.41620
G1 X143.85 Y129.96 E2.45841
G1 X143.72 Y130.07 E2.46158
G1 X140.01 Y132.78 E2.54737
G1 X139.89 Y132.86 E2.55013
G1 X138.86 Y133.47 E2.57249
G1 X138.57 Y133.61 E2.57856
G1 X136.95 Y134.17 E2.61055
G1 X136.88 Y134.20 E2.61198
G1 X134.11 Y135.02 E2.66581
G1 X133.62 Y135.08 E2.67515
G1 X131.89 Y135.04 E2.70740
G1 X131.72 Y135.03 E2.71053
G1 X128.26 Y134.58 E2.77577
G1 X128.17 Y134.57 E2.77741
G1 X126.12 Y134.19 E2.81644
G1 X125.21 Y133.69 E2.83576
G1 X124.06 Y132.44 E2.86752
G1 X123.98 Y132.34 E2.86984
G1 X120.37 Y127.78 E2.97844
G1 X120.04 Y127.04 E2.99369
G1 X118.66 Y118.51 E3.15501
G1 X118.64 Y118.33 E3.15845
G1 X118.24 Y109.65 E3.32067
G1 X118.25 Y109.40 E3.32541
G1 X118.48 Y107.34 E3.36408
G1 X118.56 Y107.00 E3.37067
G1 X121.70 Y97.90 E3.55048
G1 X121.71 Y97.89 E3.55077
G1 X123.51 Y92.81 E3.65138
G1 X123.65 Y92.53 E3.65720
G1 X124.01 Y91.92 E3.67046
G1 X124.13 Y91.75 E3.67436
G0 F3000 X130.59 Y96.12
G1 F1140 X126.30 Y108.39 E3.91728
G1 X126.18 Y109.43 E3.93675
G1 X126.53 Y116.91 E4.07660
G1 X127.59 Y123.43 E4.19997
G1 X130.02 Y126.50 E4.27319
G1 X130.28 Y126.55 E4.27817
G1 X133.15 Y126.92 E4.33227
G1 X133.78 Y126.94 E4.34405
G1 X135.55 Y126.41 E4.37845
G1 X136.51 Y126.08 E4.39754
G1 X136.88 Y125.86 E4.40551
G1 X139.98 Y123.60 E4.47712
G1 X144.42 Y119.57 E4.58914
G1 X146.98 Y119.63 E4.63695
G1 X151.31 Y123.96 E4.75140
G1 X154.44 Y126.09 E4.82212
G1 X157.26 Y126.95 E4.87722
G1 X158.51 Y126.83 E4.90052
G1 X160.95 Y126.52 E4.94646
G1 X163.37 Y123.43 E5.01977
G1 X163.40 Y123.30 E5.02220
G1 X163.92 Y120.04 E5.08396
G1 X164.32 Y117.26 E5.13644
G1 X164.61 Y110.47 E5.26324
G1 X164.64 Y108.96 E5.29160
G1 X160.19 Y96.37 E5.54103
G1 X148.70 Y83.16 E5.86803
G1 X145.39 Y79.53 E5.95978
G1 X130.67 Y96.01 E6.37252
G1 X130.59 Y96.12 E6.37497
G1 F2400 E1.87497
G0 F3000 X128.06 Y93.83
;TYPE:WALL-OUTER
G1 F2400 E6.37497
G1 F1140 X127.74 Y94.24 E6.38473
G1 X127.50 Y94.64 E6.39349
G1 X122.96 Y107.64 E6.65074
G1 X122.77 Y109.32 E6.68232
G1 X123.14 Y117.26 E6.83081
G1 X124.37 Y124.82 E6.97369
G1 X124.39 Y124.86 E6.97462
G1 X127.51 Y128.82 E7.06876
G1 X128.25 Y129.61 E7.08904
G1 X128.31 Y129.64 E7.09028
G1 X129.75 Y129.91 E7.11763
G1 X132.90 Y130.32 E7.17690
G1 X134.22 Y130.35 E7.20164
G1 X134.25 Y130.34 E7.20224
G1 X136.60 Y129.65 E7.24803
G1 X137.97 Y129.17 E7.27510
G1 X138.76 Y128.69 E7.29235
G1 X142.13 Y126.23 E7.37028
G1 X145.62 Y123.07 E7.45814
G1 X149.14 Y126.60 E7.55122
G1 X152.97 Y129.20 E7.63773
G1 X156.90 Y130.39 E7.71432
G1 X156.93 Y130.39 E7.71503
G1 X158.86 Y130.22 E7.75118
G1 X162.00 Y129.81 E7.81038
G1 X162.65 Y129.68 E7.82266
G1 X162.69 Y129.65 E7.82364
G1 X163.06 Y129.32 E7.83286
G1 X166.47 Y124.97 E7.93613
G1 X166.49 Y124.93 E7.93691
G1 X166.73 Y123.99 E7.95511
G1 X167.28 Y120.58 E8.01965
G1 X167.71 Y117.57 E8.07651
G1 X168.01 Y110.59 E8.20694
G1 X168.05 Y108.42 E8.24742
G1 X168.05 Y108.39 E8.24808
G1 X163.18 Y94.64 E8.52046
G1 X163.17 Y94.61 E8.52115
G1 X151.24 Y80.90 E8.86064
G1 X146.36 Y75.55 E8.99573
G1 X145.59 Y74.81 E9.01584
G1 X145.26 Y74.68 E9.02241
G1 X145.14 Y74.71 E9.02478
G1 X128.06 Y93.83 E9.50356
G0 F3000 X127.20 Y93.34
G1 F1140 X145.28 Y73.09 E10.01071
G1 X145.39 Y73.13 E10.01280
G1 X146.12 Y73.84 E10.03194
G1 X152.05 Y80.35 E10.19632
G1 X164.02 Y94.14 E10.53749
G1 X169.18 Y108.72 E10.82636
G1 X168.98 Y115.79 E10.95836
G1 X168.82 Y118.40 E11.00739
G1 X167.77 Y125.22 E11.13626
G1 X167.54 Y126.15 E11.15407
G1 X163.96 Y130.72 E11.26256
G1 X163.66 Y130.98 E11.27003
G1 X163.05 Y131.11 E11.28157
G1 X159.74 Y131.54 E11.34405
G1 X157.74 Y131.72 E11.38153
G1 X153.65 Y130.48 E11.46131
G1 X149.65 Y127.76 E11.55178
G1 X145.72 Y123.83 E11.65557
G1 X145.56 Y123.82 E11.65854
G1 X141.65 Y127.37 E11.75724
G1 X138.07 Y129.98 E11.83982
G1 X137.27 Y130.46 E11.85727
G1 X135.87 Y130.95 E11.88493
G1 X133.42 Y131.68 E11.93280
G1 X132.06 Y131.64 E11.95810
G1 X128.75 Y131.22 E12.02047
G1 X127.31 Y130.95 E12.04778
G1 X126.60 Y130.18 E12.06737
G1 X123.33 Y126.04 E12.16603
G1 X122.03 Y118.07 E12.31670
G1 X121.64 Y109.64 E12.47441
G1 X121.84 Y107.92 E12.50676
G1 X126.66 Y94.12 E12.77979
G1 X126.87 Y93.76 E12.78759
G1 X127.20 Y93.34 E12.79758
G0 F3000 X127.21 Y93.55
;TYPE:FILL
G1 F1140 X127.83 Y93.89 E12.81069
G1 X127.60 Y93.10 E12.82352
G1 X128.36 Y93.28 E12.83636
G1 X128.14 Y92.50 E12.84919
G1 X128.89 Y92.69 E12.86204
G1 X128.67 Y91.90 E12.87488
G1 X129.42 Y92.09 E12.88771
G1 X129.21 Y91.30 E12.90058
G1 X129.96 Y91.49 E12.91341
G1 X129.74 Y90.71 E12.92625
G1 X130.49 Y90.89 E12.93910
G1 X130.27 Y90.11 E12.95194
G1 X131.03 Y90.30 E12.96479
G1 X130.80 Y89.51 E12.97762
G1 X131.56 Y89.70 E12.99048
G1 X131.34 Y88.91 E13.00335
G1 X132.09 Y89.10 E13.01620
G1 X131.87 Y88.32 E13.02904
G1 X132.63 Y88.50 E13.04189
G1 X132.41 Y87.72 E13.05476
G1 X133.16 Y87.91 E13.06762
G1 X132.94 Y87.12 E13.08049
G1 X133.70 Y87.31 E13.09336
G1 X133.47 Y86.52 E13.10622
G1 X134.23 Y86.71 E13.11907
G1 X134.01 Y85.92 E13.13191
G1 X134.76 Y86.11 E13.14480
G1 X134.54 Y85.33 E13.15769
G1 X135.30 Y85.51 E13.17055
G1 X135.07 Y84.73 E13.18341
G1 X135.83 Y84.92 E13.19630
G1 X135.61 Y84.13 E13.20916
G1 X136.36 Y84.32 E13.22205
G1 X136.14 Y83.53 E13.23491
G1 X136.90 Y83.72 E13.24778
G1 X136.68 Y82.93 E13.26066
G1 X137.43 Y83.12 E13.27357
G1 X137.21 Y82.34 E13.28644
G1 X137.96 Y82.53 E13.29932
G1 X137.74 Y81.74 E13.31219
G1 X138.50 Y81.93 E13.32506
G1 X138.28 Y81.14 E13.33796
G1 X139.03 Y81.33 E13.35083
G1 X138.81 Y80.54 E13.36370
G1 X139.57 Y80.74 E13.37658
G1 X139.34 Y79.95 E13.38947
G1 X140.10 Y80.14 E13.40235
G1 X139.88 Y79.35 E13.41528
G1 X140.63 Y79.54 E13.42815
G1 X140.41 Y78.75 E13.44103
G1 X141.17 Y78.94 E13.45396
G1 X140.95 Y78.15 E13.46684
G1 X141.70 Y78.34 E13.47973
G1 X141.48 Y77.56 E13.49261
G1 X142.24 Y77.75 E13.50554
G1 X142.01 Y76.96 E13.51842
G1 X142.77 Y77.15 E13.53131
G1 X142.55 Y76.36 E13.54419
G1 X143.30 Y76.55 E13.55712
G1 X143.08 Y75.76 E13.57000
G1 X143.84 Y75.95 E13.58292
G1 X143.61 Y75.17 E13.59581
G1 X144.37 Y75.36 E13.60872
G1 X144.15 Y74.57 E13.62162
G1 X144.90 Y74.76 E13.63455
G1 X144.55 Y74.12 E13.64818
G0 F3000 X144.81 Y73.82
G1 F1140 X146.17 Y75.18 E13.68407
G0 F3000 X146.60 Y75.61
G1 F1140 X155.29 Y84.30 E13.91366
G0 F3000 X155.17 Y84.40
G0 X155.96 Y85.88
G0 X155.84 Y85.98
G1 F1140 X162.72 Y92.86 E14.09532
G0 F3000 X162.60 Y92.96
G0 X163.45 Y94.50
G0 X163.31 Y94.58
G1 F1140 X164.42 Y95.69 E14.12467
G0 F3000 X163.93 Y96.33
G1 F1140 X165.04 Y97.44 E14.15402
G0 F3000 X164.55 Y98.08
G1 F1140 X165.66 Y99.19 E14.18337
G0 F3000 X165.17 Y99.83
G1 F1140 X166.28 Y100.94 E14.21270
G0 F3000 X165.79 Y101.58
G1 F1140 X166.90 Y102.69 E14.24204
G0 F3000 X166.41 Y103.33
G1 F1140 X167.52 Y104.44 E14.27136
G0 F3000 X167.03 Y105.08
G1 F1140 X168.14 Y106.19 E14.30067
G0 F3000 X167.65 Y106.83
G1 F1140 X168.76 Y107.94 E14.32997
G0 F3000 X168.19 Y108.51
G1 F1140 X169.02 Y109.34 E14.35193
G0 F3000 X169.01 Y109.89
G1 F1140 X168.18 Y109.06 E14.37380
G0 F3000 X168.17 Y109.62
G1 F1140 X168.99 Y110.44 E14.39557
G0 F3000 X168.98 Y110.99
G1 F1140 X168.15 Y110.17 E14.41723
G0 F3000 X168.14 Y110.72
G1 F1140 X168.96 Y111.54 E14.43882
G0 F3000 X168.94 Y112.09
G1 F1140 X168.12 Y111.27 E14.46060
G0 F3000 X168.10 Y111.81
G1 F1140 X168.93 Y112.64 E14.48257
G0 F3000 X168.91 Y113.19
G1 F1140 X168.07 Y112.35 E14.50474
G0 F3000 X168.05 Y112.89
G1 F1140 X168.90 Y113.74 E14.52713
G0 F3000 X168.88 Y114.29
G1 F1140 X168.03 Y113.44 E14.54969
G0 F3000 X168.00 Y113.98
G1 F1140 X168.87 Y114.84 E14.57246
G0 F3000 X168.85 Y115.39
G1 F1140 X167.98 Y114.52 E14.59541
G0 F3000 X167.96 Y115.07
G1 F1140 X168.83 Y115.94 E14.61845
G0 F3000 X168.80 Y116.47
G1 F1140 X167.93 Y115.61 E14.64122
G0 F3000 X167.91 Y116.15
G1 F1140 X168.76 Y117.00 E14.66374
G0 F3000 X168.73 Y117.54
G1 F1140 X167.89 Y116.69 E14.68602
G0 F3000 X167.87 Y117.24
G1 F1140 X168.70 Y118.07 E14.70805
G0 F3000 X168.65 Y118.59
G1 F1140 X167.82 Y117.76 E14.72985
G0 F3000 X167.75 Y118.26
G1 F1140 X168.57 Y119.08 E14.75152
G0 F3000 X168.50 Y119.57
G1 F1140 X167.68 Y118.75 E14.77313
G0 F3000 X167.61 Y119.25
G1 F1140 X168.42 Y120.06 E14.79461
G0 F3000 X168.35 Y120.55
G1 F1140 X167.54 Y119.74 E14.81599
G0 F3000 X167.47 Y120.23
G1 F1140 X168.27 Y121.04 E14.83727
G0 F3000 X168.20 Y121.53
G1 F1140 X167.40 Y120.73 E14.85845
G0 F3000 X167.32 Y121.21
G1 F1140 X168.12 Y122.02 E14.87973
G0 F3000 X168.05 Y122.51
G1 F1140 X167.24 Y121.70 E14.90110
G0 F3000 X167.16 Y122.19
G1 F1140 X167.97 Y123.00 E14.92253
G0 F3000 X167.90 Y123.49
G1 F1140 X167.08 Y122.67 E14.94408
G0 F3000 X167.00 Y123.16
G1 F1140 X167.82 Y123.98 E14.96573
G0 F3000 X167.74 Y124.47
G1 F1140 X166.92 Y123.65 E14.98745
G0 F3000 X166.84 Y124.13
G1 F1140 X167.67 Y124.96 E15.00948
G0 F3000 X167.57 Y125.43
G1 F1140 X166.72 Y124.58 E15.03198
G0 F3000 X166.60 Y125.02
G1 F1140 X167.46 Y125.88 E15.05475
G0 F3000 X167.27 Y126.26
G1 F1140 X166.36 Y125.34 E15.07899
G0 F3000 X166.11 Y125.66
G1 F1140 X167.02 Y126.58 E15.10325
G0 F3000 X166.78 Y126.90
G1 F1140 X165.86 Y125.98 E15.12752
G0 F3000 X165.61 Y126.29
G1 F1140 X166.53 Y127.21 E15.15177
G0 F3000 X166.28 Y127.53
G1 F1140 X165.36 Y126.61 E15.17601
G0 F3000 X165.11 Y126.93
G1 F1140 X166.03 Y127.85 E15.20026
G0 F3000 X165.78 Y128.16
G1 F1140 X164.87 Y127.25 E15.22451
G0 F3000 X164.62 Y127.56
G1 F1140 X165.53 Y128.48 E15.24874
G0 F3000 X165.29 Y128.80
G1 F1140 X164.37 Y127.88 E15.27297
G0 F3000 X164.12 Y128.20
G1 F1140 X165.04 Y129.12 E15.29720
G0 F3000 X164.79 Y129.43
G1 F1140 X163.87 Y128.52 E15.32144
G0 F3000 X163.62 Y128.83
G1 F1140 X164.54 Y129.75 E15.34567
G0 F3000 X164.29 Y130.07
G1 F1140 X163.38 Y129.15 E15.36989
G0 F3000 X163.12 Y129.46
G1 F1140 X164.04 Y130.38 E15.39432
G0 F3000 X163.78 Y130.69
G1 F1140 X162.82 Y129.73 E15.41972
G0 F3000 X162.40 Y129.87
G1 F1140 X163.42 Y130.89 E15.44670
G0 F3000 X162.94 Y130.98
G1 F1140 X161.92 Y129.96 E15.47372
G0 F3000 X161.42 Y130.02
G1 F1140 X162.44 Y131.05 E15.50073
G0 F3000 X161.94 Y131.11
G1 F1140 X160.92 Y130.09 E15.52775
G0 F3000 X160.42 Y130.15
G1 F1140 X161.44 Y131.18 E15.55475
G0 F3000 X160.94 Y131.24
G1 F1140 X159.92 Y130.22 E15.58176
G0 F3000 X159.42 Y130.29
G1 F1140 X160.44 Y131.31 E15.60877
G0 F3000 X159.94 Y131.37
G1 F1140 X158.92 Y130.35 E15.63577
G0 F3000 X158.40 Y130.40
G1 F1140 X159.43 Y131.43 E15.66299
G0 F3000 X158.91 Y131.47
G1 F1140 X157.88 Y130.44 E15.69022
G0 F3000 X157.36 Y130.49
G1 F1140 X158.39 Y131.52 E15.71742
G0 F3000 X157.87 Y131.57
G1 F1140 X156.81 Y130.51 E15.74541
G0 F3000 X156.32 Y131.15
G1 F1140 X155.19 Y130.02 E15.77524
G0 F3000 X154.70 Y130.65
G1 F1140 X153.57 Y129.52 E15.80503
G0 F3000 X154.38 Y129.77
G1 F1140 X155.51 Y130.90 E15.83482
G0 F3000 X156.00 Y130.26
G1 F1140 X157.13 Y131.39 E15.86464
G0 F3000 X157.18 Y131.24
G0 X153.93 Y130.26
G0 X153.88 Y130.41
G1 F1140 X152.57 Y129.10 E15.89925
G0 F3000 X152.32 Y129.41
G1 F1140 X150.80 Y127.89 E15.93922
G0 F3000 X150.54 Y128.20
G1 F1140 X145.63 Y123.29 E16.06895
G0 F3000 X145.31 Y123.54
G1 F1140 X145.33 Y123.84 E16.07336
G1 X144.87 Y123.94 E16.07782
G1 X144.74 Y124.38 E16.08223
G1 X144.27 Y124.48 E16.08669
G1 X144.15 Y124.91 E16.09110
G1 X143.68 Y125.01 E16.09551
G1 X143.55 Y125.45 E16.09991
G1 X143.09 Y125.55 E16.10433
G1 X142.96 Y125.99 E16.10872
G1 X142.50 Y126.09 E16.11314
G1 X142.37 Y126.53 E16.11754
G1 X141.87 Y126.60 E16.12240
G1 X141.77 Y127.07 E16.12806
G1 X141.21 Y127.07 E16.13452
G1 X141.14 Y127.57 E16.14119
G1 X140.56 Y127.55 E16.14784
G1 X140.49 Y128.04 E16.15450
G1 X139.91 Y128.03 E16.16113
G1 X139.83 Y128.52 E16.16778
G1 X139.25 Y128.51 E16.17438
G1 X139.18 Y129.00 E16.18100
G1 X138.58 Y128.96 E16.18780
G1 X138.52 Y129.47 E16.19530
G1 X137.84 Y129.36 E16.20348
G1 X137.86 Y129.94 E16.21405
G1 X137.01 Y129.65 E16.22644
G1 X137.33 Y130.26 E16.23932
G0 F3000 X136.93 Y130.43
G1 F1140 X136.37 Y129.86 E16.25429
G0 F3000 X135.93 Y129.99
G1 F1140 X136.51 Y130.57 E16.26973
G0 F3000 X136.10 Y130.72
G1 F1140 X135.49 Y130.12 E16.28560
G0 F3000 X135.06 Y130.25
G1 F1140 X135.67 Y130.86 E16.30174
G0 F3000 X135.23 Y130.99
G1 F1140 X134.62 Y130.38 E16.31788
G0 F3000 X134.16 Y130.49
G1 F1140 X134.80 Y131.12 E16.33461
G0 F3000 X134.36 Y131.25
G1 F1140 X133.58 Y130.47 E16.35514
G0 F3000 X133.00 Y130.46
G1 F1140 X133.92 Y131.38 E16.37951
G0 F3000 X133.49 Y131.51
G1 F1140 X132.37 Y130.39 E16.40915
G0 F3000 X131.72 Y130.30
G1 F1140 X132.94 Y131.52 E16.44141
G0 F3000 X132.36 Y131.51
G1 F1140 X131.07 Y130.22 E16.47550
G0 F3000 X130.42 Y130.13
G1 F1140 X131.74 Y131.46 E16.51055
G0 F3000 X131.10 Y131.38
G1 F1140 X129.77 Y130.05 E16.54561
G0 F3000 X129.08 Y129.93
G1 F1140 X130.45 Y131.29 E16.58169
G0 F3000 X129.79 Y131.21
G1 F1140 X128.38 Y129.80 E16.61894
G0 F3000 X128.48 Y131.02
G1 F1140 X123.57 Y126.11 E16.74855
G0 F3000 X123.35 Y125.33
G1 F1140 X129.15 Y131.12 E16.90153
G0 F3000 X127.78 Y130.89
G1 F1140 X125.70 Y128.81 E16.95653
G0 F3000 X127.09 Y128.50
G1 F1140 X123.24 Y124.66 E17.05813
G0 F3000 X123.13 Y123.98
G1 F1140 X124.95 Y125.80 E17.10618
G0 F3000 X124.83 Y125.90
G0 X123.98 Y124.93
G0 X124.01 Y124.47
G0 X124.17 Y124.45
G1 F1140 X123.02 Y123.31 E17.13637
G0 F3000 X122.91 Y122.63
G1 F1140 X124.06 Y123.77 E17.16655
G0 F3000 X123.95 Y123.10
G1 F1140 X122.81 Y121.96 E17.19675
G0 F3000 X122.69 Y121.28
G1 F1140 X123.84 Y122.42 E17.22695
G0 F3000 X123.73 Y121.75
G1 F1140 X122.58 Y120.61 E17.25715
G0 F3000 X122.47 Y119.93
G1 F1140 X123.62 Y121.07 E17.28734
G0 F3000 X123.51 Y120.40
G1 F1140 X122.36 Y119.25 E17.31754
G0 F3000 X122.25 Y118.58
G1 F1140 X123.40 Y119.72 E17.34776
G0 F3000 X123.29 Y119.05
G1 F1140 X122.17 Y117.92 E17.37745
G0 F3000 X122.14 Y117.33
G1 F1140 X123.18 Y118.37 E17.40497
G0 F3000 X123.07 Y117.69
G1 F1140 X122.11 Y116.74 E17.43031
G0 F3000 X122.08 Y116.14
G1 F1140 X122.99 Y117.05 E17.45433
G0 F3000 X122.96 Y116.46
G1 F1140 X122.06 Y115.55 E17.47836
G0 F3000 X122.03 Y114.96
G1 F1140 X122.94 Y115.86 E17.50234
G0 F3000 X122.91 Y115.27
G1 F1140 X122.00 Y114.36 E17.52636
G0 F3000 X121.97 Y113.77
G1 F1140 X122.88 Y114.68 E17.55036
G0 F3000 X122.85 Y114.09
G1 F1140 X121.94 Y113.18 E17.57437
G0 F3000 X121.92 Y112.58
G1 F1140 X122.83 Y113.49 E17.59837
G0 F3000 X122.80 Y112.90
G1 F1140 X121.89 Y111.99 E17.62235
G0 F3000 X121.86 Y111.40
G1 F1140 X122.77 Y112.31 E17.64634
