;Generated with Cura_SteamEngine 13.12
M109 T0 S220.000000
T0
;Sliced at: Wed 15-01-2014 17:56:21
;Basic settings: Layer height: 0.2 Walls: 0.6 Fill: 15
;Print time: #P_TIME#
;Filament used: #F_AMNT#m #F_WGHT#g
;Filament cost: #F_COST#
;M190 S70 ;Uncomment to add your own bed temperature line
;M109 S220 ;Uncomment to add your own temperature line
G21        ;metric values
G90        ;absolute positioning
M107       ;start with the fan off
G28 X0 Y0  ;move X/Y to min endstops
G28 Z0     ;move Z to min endstops
G1 Z15.0 F10800 ;move the platform down 15mm
G92 E0                  ;zero the extruded length
G1 F200 E3              ;extrude 3mm of feed stock
G92 E0                  ;zero the extruded length again
G1 F10800
;Put printing message on LCD screen
M117 Printing...

;Layer count: 20
;LAYER:0
M107
G0 F1680 X90.70 Y77.22 Z0.30
;TYPE:SKIRT
G1 F2400 E0.00000
G1 F1140 X93.65 Y73.86 E0.12533
G1 X93.70 Y73.81 E0.12750
G1 X96.81 Y70.59 E0.25283
G1 X96.87 Y70.54 E0.25501
G1 X101.05 Y66.61 E0.41578
G1 X103.65 Y66.60 E0.48885
G1 X107.86 Y70.52 E0.64995
G1 X107.92 Y70.58 E0.65217
G1 X111.05 Y73.79 E0.77784
G1 X111.10 Y73.84 E0.78004
G1 X114.08 Y77.20 E0.90572
G1 X114.13 Y77.26 E0.90789
G1 X116.32 Y79.97 E1.00559
G1 X116.94 Y80.75 E1.03355
G1 X116.99 Y80.81 E1.03574
G1 X119.64 Y84.43 E1.16142
G1 X119.68 Y84.50 E1.16360
G1 X122.15 Y88.24 E1.28926
G1 X122.19 Y88.31 E1.29147
G1 X123.34 Y90.24 E1.35435
G1 X124.49 Y92.16 E1.41717
G1 X124.53 Y92.23 E1.41938
G1 X126.63 Y96.19 E1.54505
G1 X126.67 Y96.26 E1.54718
G1 X128.58 Y100.32 E1.67285
G1 X128.62 Y100.39 E1.67506
G1 X130.34 Y104.53 E1.80074
G1 X130.37 Y104.60 E1.80295
G1 X131.89 Y108.82 E1.92862
G1 X131.91 Y108.89 E1.93082
G1 X133.21 Y113.07 E2.05334
G1 X134.48 Y116.90 E2.16633
G1 X134.56 Y117.32 E2.17846
G1 X134.82 Y121.57 E2.29753
G1 X134.79 Y122.00 E2.30966
G1 X134.19 Y124.89 E2.39231
G1 X133.93 Y126.16 E2.42872
G1 X133.79 Y126.57 E2.44084
G1 X131.89 Y130.37 E2.55991
G1 X131.65 Y130.73 E2.57205
G1 X128.83 Y133.91 E2.69112
G1 X128.50 Y134.19 E2.70324
G1 X124.96 Y136.53 E2.82231
G1 X124.57 Y136.72 E2.83440
G1 X120.54 Y138.07 E2.95348
G1 X120.11 Y138.15 E2.96561
G1 X115.87 Y138.40 E3.08471
G1 X115.44 Y138.37 E3.09681
G1 X111.27 Y137.52 E3.21588
G1 X110.86 Y137.38 E3.22800
G1 X107.06 Y135.48 E3.34706
G1 X106.71 Y135.24 E3.35919
G1 X103.53 Y132.42 E3.47824
G1 X103.24 Y132.09 E3.49037
G1 X102.50 Y130.96 E3.52817
G1 X101.76 Y132.09 E3.56598
G1 X101.47 Y132.42 E3.57812
G1 X98.29 Y135.24 E3.69717
G1 X97.93 Y135.48 E3.70929
G1 X94.13 Y137.38 E3.82835
G1 X93.72 Y137.52 E3.84048
G1 X89.56 Y138.37 E3.95957
G1 X89.13 Y138.40 E3.97167
G1 X84.89 Y138.15 E4.09074
G1 X84.46 Y138.07 E4.10287
G1 X80.43 Y136.72 E4.22195
G1 X80.04 Y136.53 E4.23405
G1 X76.50 Y134.19 E4.35314
G1 X76.17 Y133.91 E4.36527
G1 X73.35 Y130.73 E4.48432
G1 X73.11 Y130.37 E4.49645
G1 X71.21 Y126.57 E4.61551
G1 X71.07 Y126.16 E4.62766
G1 X70.21 Y122.00 E4.74672
G1 X70.18 Y121.57 E4.75882
G1 X70.44 Y117.32 E4.87789
G1 X70.52 Y116.90 E4.89002
G1 X71.78 Y113.11 E5.00184
G1 X73.06 Y108.92 E5.12477
G1 X73.08 Y108.84 E5.12695
G1 X74.58 Y104.63 E5.25226
G1 X74.61 Y104.56 E5.25445
G1 X76.31 Y100.42 E5.37977
G1 X76.34 Y100.35 E5.38198
G1 X78.23 Y96.29 E5.50732
G1 X78.27 Y96.22 E5.50947
G1 X80.35 Y92.26 E5.63481
G1 X80.39 Y92.19 E5.63703
G1 X82.65 Y88.34 E5.76234
G1 X82.70 Y88.27 E5.76452
G1 X85.14 Y84.53 E5.88981
G1 X85.19 Y84.46 E5.89204
G1 X87.81 Y80.84 E6.01736
G1 X87.86 Y80.78 E6.01950
G1 X88.58 Y79.87 E6.05216
G1 X90.65 Y77.29 E6.14484
G1 X90.70 Y77.22 E6.14705
G0 F1680 X102.74 Y78.62
G1 F1140 X88.49 Y95.12 E6.75782
G1 X84.00 Y107.64 E7.13030
G1 X84.19 Y115.16 E7.34107
G1 X85.22 Y121.79 E7.52903
G1 X87.48 Y124.66 E7.63152
G1 X90.81 Y125.06 E7.72545
G1 X93.73 Y124.18 E7.81099
G1 X96.88 Y121.98 E7.91845
G1 X101.12 Y117.77 E8.08599
G1 X103.76 Y117.72 E8.16011
G1 X108.22 Y121.81 E8.32957
G1 X111.58 Y124.18 E8.44473
G1 X114.55 Y125.11 E8.53198
G1 X117.84 Y124.66 E8.62516
G1 X120.05 Y121.82 E8.72602
G1 X121.13 Y115.15 E8.91547
G1 X121.50 Y107.35 E9.13409
G1 X117.18 Y95.04 E9.49976
G1 X102.74 Y78.62 E10.11224
G1 F2400 E5.61224
G0 F1680 X102.85 Y73.30
;TYPE:WALL-OUTER
G1 F2400 E10.11224
G1 F1140 X102.58 Y73.30 E10.11986
G1 X85.34 Y93.25 E10.85854
G1 X85.31 Y93.30 E10.86008
G1 X80.40 Y107.03 E11.26860
G1 X80.39 Y107.08 E11.27016
G1 X80.60 Y115.49 E11.50576
G1 X81.81 Y123.23 E11.72523
G1 X81.84 Y123.30 E11.72738
G1 X85.53 Y128.01 E11.89500
G1 X85.63 Y128.06 E11.89835
G1 X91.10 Y128.72 E12.05251
G1 X91.16 Y128.72 E12.05428
G1 X95.34 Y127.45 E12.17680
G1 X99.20 Y124.74 E12.30887
G1 X102.51 Y121.46 E12.43949
G1 X105.96 Y124.62 E12.57055
G1 X109.99 Y127.45 E12.70840
G1 X114.20 Y128.78 E12.83231
G1 X114.27 Y128.78 E12.83420
G1 X119.72 Y128.04 E12.98837
G1 X119.82 Y127.98 E12.99165
G1 X123.44 Y123.33 E13.15662
G1 X123.46 Y123.26 E13.15872
G1 X124.72 Y115.52 E13.37860
G1 X125.12 Y106.85 E13.62167
G1 X125.11 Y106.79 E13.62329
G1 X120.35 Y93.21 E14.02652
G1 X120.32 Y93.16 E14.02814
G1 X102.85 Y73.30 E14.76932
G0 F1680 X103.15 Y73.04
G0 X105.10 Y73.41
G0 X105.38 Y73.13
G1 F1140 X108.44 Y76.27 E14.89242
G1 X111.35 Y79.55 E15.01512
G1 X113.51 Y82.23 E15.11171
G1 X114.12 Y82.98 E15.13859
G1 X116.71 Y86.53 E15.26170
G1 X119.12 Y90.18 E15.38437
G1 X120.25 Y92.07 E15.44613
G1 X121.37 Y93.96 E15.50748
G1 X123.43 Y97.85 E15.63095
G1 X125.31 Y101.81 E15.75363
G1 X126.99 Y105.86 E15.87674
G1 X128.49 Y109.99 E15.99981
G1 X129.79 Y114.21 E16.12344
G1 X130.99 Y117.80 E16.22944
G1 X131.21 Y121.53 E16.33403
G1 X130.67 Y124.17 E16.40957
G1 X130.46 Y125.19 E16.43887
G1 X130.10 Y125.92 E16.46159
G1 X130.28 Y125.24 E16.48115
G1 X130.29 Y124.51 E16.50161
G1 X130.10 Y123.77 E16.52322
G1 X129.73 Y123.14 E16.54368
G1 X129.21 Y122.62 E16.56417
G1 X128.58 Y122.25 E16.58465
G1 X127.91 Y122.07 E16.60404
G1 X127.18 Y122.06 E16.62449
G1 X126.43 Y122.26 E16.64611
G1 X125.80 Y122.62 E16.66657
G1 X125.29 Y123.14 E16.68705
G1 X124.92 Y123.77 E16.70754
G1 X124.74 Y124.44 E16.72693
G1 X124.73 Y125.17 E16.74738
G1 X124.92 Y125.92 E16.76899
G1 X125.29 Y126.55 E16.78946
G1 X125.81 Y127.07 E16.80994
G1 X126.44 Y127.43 E16.83042
G1 X127.11 Y127.61 E16.84981
G1 X127.84 Y127.62 E16.87027
G1 X128.55 Y127.44 E16.89079
G1 X128.58 Y127.43 E16.89186
G1 X129.22 Y127.06 E16.91238
G1 X129.73 Y126.54 E16.93285
G1 X130.06 Y125.98 E16.95106
G1 X128.79 Y128.53 E17.03093
G1 X126.31 Y131.33 E17.13568
G1 X123.19 Y133.39 E17.24030
G1 X119.64 Y134.57 E17.34524
G1 X115.91 Y134.80 E17.44985
G1 X112.25 Y134.04 E17.55468
G1 X108.90 Y132.37 E17.65937
G1 X106.11 Y129.89 E17.76411
G1 X104.05 Y126.78 E17.86874
G1 X102.82 Y123.10 E17.97740
G1 X102.67 Y122.99 E17.98284
G1 X102.33 Y122.99 E17.99209
G1 X102.18 Y123.10 E17.99753
G1 X100.95 Y126.78 E18.10618
G1 X98.89 Y129.89 E18.21082
G1 X96.10 Y132.37 E18.31556
G1 X92.75 Y134.04 E18.42025
G1 X89.09 Y134.80 E18.52510
G1 X85.36 Y134.57 E18.62969
G1 X81.81 Y133.39 E18.73463
G1 X78.69 Y131.33 E18.83927
G1 X76.21 Y128.53 E18.94401
G1 X74.54 Y125.19 E19.04870
G1 X73.79 Y121.53 E19.15354
G1 X74.01 Y117.80 E19.25813
G1 X75.21 Y114.21 E19.36427
G1 X76.49 Y110.01 E19.48703
G1 X77.96 Y105.89 E19.60977
G1 X79.62 Y101.82 E19.73289
G1 X81.47 Y97.86 E19.85523
G1 X83.52 Y93.97 E19.97838
G1 X85.74 Y90.20 E20.10112
G1 X88.13 Y86.54 E20.22343
G1 X90.70 Y83.00 E20.34619
G1 X91.40 Y82.12 E20.37773
G1 X93.73 Y79.22 E20.48189
G1 X93.86 Y79.51 E20.49065
G1 X93.88 Y79.54 E20.49174
G1 X94.08 Y79.78 E20.50055
G1 X94.34 Y79.96 E20.50931
G1 X94.64 Y80.06 E20.51811
G1 X94.91 Y80.09 E20.52585
G1 X94.96 Y80.09 E20.52703
G1 X95.28 Y80.02 E20.53618
G1 X95.51 Y79.92 E20.54334
G1 X95.54 Y79.89 E20.54443
G1 X95.78 Y79.69 E20.55322
G1 X95.96 Y79.43 E20.56200
G1 X96.06 Y79.14 E20.57080
G1 X96.09 Y78.86 E20.57848
G1 X96.09 Y78.82 E20.57960
G1 X96.03 Y78.52 E20.58835
G1 X95.91 Y78.27 E20.59604
G1 X95.89 Y78.23 E20.59714
G1 X95.69 Y78.00 E20.60592
G1 X95.43 Y77.82 E20.61472
G1 X95.17 Y77.72 E20.62238
G1 X95.14 Y77.71 E20.62348
G1 X95.07 Y77.71 E20.62539
G1 X96.32 Y76.28 E20.67856
G1 X99.37 Y73.12 E20.80167
G1 X102.36 Y70.31 E20.91655
G1 X105.38 Y73.13 E21.03213
G0 F1680 X105.10 Y73.41
G0 X103.14 Y71.59
G0 X103.27 Y71.45
;TYPE:FILL
G1 F1140 X108.73 Y76.91 E21.24838
G0 F1680 X108.59 Y77.03
G0 X107.29 Y77.75
G0 X107.15 Y77.88
G1 F1140 X117.73 Y88.46 E21.66761
G0 F1680 X117.57 Y88.56
G0 X118.81 Y90.43
G0 X118.97 Y90.33
G1 F1140 X118.90 Y90.57 E21.67274
G1 X119.48 Y91.19 E21.69655
G0 F1680 X119.27 Y90.84
G1 F1140 X113.37 Y84.94 E21.93034
G0 F1680 X113.51 Y84.82
G0 X113.26 Y82.55
G0 X113.41 Y82.43
G1 F1140 X101.95 Y70.98 E22.38418
G0 F1680 X101.52 Y71.39
G1 F1140 X115.90 Y85.78 E22.95418
G0 F1680 X115.75 Y85.89
G0 X119.73 Y91.89
G0 X119.59 Y92.01
G1 F1140 X120.20 Y92.63 E22.97855
G1 F2400 E18.47855
G0 F1680 X120.92 Y94.19
G1 F2400 E22.97855
G1 F1140 X121.63 Y94.90 E23.00676
G0 F1680 X121.37 Y95.49
G1 F1140 X122.59 Y96.71 E23.05506
G0 F1680 X121.83 Y96.80
G1 F1140 X123.49 Y98.46 E23.12080
G0 F1680 X122.75 Y99.41
G1 F1140 X125.01 Y101.68 E23.21061
G0 F1680 X123.66 Y102.03
G1 F1140 X126.24 Y104.61 E23.31284
G0 F1680 X126.07 Y104.68
G0 X126.66 Y106.11
G0 X126.84 Y106.05
G1 F1140 X124.12 Y103.33 E23.42048
G0 F1680 X124.58 Y104.64
G1 F1140 X127.32 Y107.38 E23.52899
G0 F1680 X127.80 Y108.71
G1 F1140 X125.04 Y105.94 E23.63840
G0 F1680 X125.32 Y107.08
G1 F1140 X128.28 Y110.03 E23.75557
G0 F1680 X128.66 Y111.26
G1 F1140 X125.28 Y107.89 E23.88930
G0 F1680 X125.24 Y108.70
G1 F1140 X129.04 Y112.49 E24.03956
G0 F1680 X129.41 Y113.72
G1 F1140 X125.21 Y109.51 E24.20634
G0 F1680 X125.17 Y110.32
G1 F1140 X129.82 Y114.97 E24.39059
G0 F1680 X130.24 Y116.24
G1 F1140 X125.13 Y111.13 E24.59311
G0 F1680 X125.09 Y111.94
G1 F1140 X130.67 Y117.51 E24.81398
G0 F1680 X130.82 Y118.51
G1 F1140 X125.05 Y112.75 E25.04232
G0 F1680 X125.02 Y113.56
G1 F1140 X130.87 Y119.42 E25.27430
G0 F1680 X130.93 Y120.32
G1 F1140 X124.98 Y114.37 E25.50993
G0 F1680 X124.94 Y115.18
G1 F1140 X130.98 Y121.22 E25.74922
G0 F1680 X130.90 Y121.99
G1 F1140 X124.86 Y115.95 E25.98852
G0 F1680 X124.74 Y116.68
G1 F1140 X130.75 Y122.69 E26.22680
G0 F1680 X130.61 Y123.39
G1 F1140 X124.62 Y117.41 E26.46401
G0 F1680 X124.50 Y118.14
G1 F1140 X128.33 Y121.97 E26.61573
G0 F1680 X127.37 Y121.85
G1 F1140 X124.39 Y118.87 E26.73386
G0 F1680 X124.27 Y119.60
G1 F1140 X126.65 Y121.98 E26.82824
G0 F1680 X126.05 Y122.23
G1 F1140 X124.15 Y120.33 E26.90361
G0 F1680 X124.03 Y121.06
G1 F1140 X125.55 Y122.58 E26.96372
G0 F1680 X125.12 Y123.00
G1 F1140 X123.91 Y121.79 E27.01166
G0 F1680 X123.79 Y122.52
G1 F1140 X124.81 Y123.54 E27.05198
G0 F1680 X124.59 Y124.17
G1 F1140 X123.68 Y123.25 E27.08834
G0 F1680 X123.35 Y123.78
G1 F1140 X124.52 Y124.94 E27.13456
G0 F1680 X124.73 Y126.01
G1 F1140 X122.98 Y124.25 E27.20398
G0 F1680 X122.61 Y124.73
G1 F1140 X127.52 Y129.64 E27.39856
G0 F1680 X127.12 Y130.09
G1 F1140 X122.24 Y125.21 E27.59199
G0 F1680 X121.87 Y125.69
G1 F1140 X126.72 Y130.54 E27.78435
G0 F1680 X126.32 Y130.99
G1 F1140 X121.50 Y126.17 E27.97557
G0 F1680 X121.13 Y126.64
G1 F1140 X125.86 Y131.37 E28.16296
G0 F1680 X125.35 Y131.71
G1 F1140 X120.76 Y127.12 E28.34484
G0 F1680 X120.39 Y127.60
G1 F1140 X124.83 Y132.05 E28.52113
G0 F1680 X124.32 Y132.38
G1 F1140 X120.01 Y128.08 E28.69187
G0 F1680 X119.39 Y128.30
G1 F1140 X123.81 Y132.72 E28.86715
G0 F1680 X123.30 Y133.06
G1 F1140 X118.64 Y128.40 E29.05184
G0 F1680 X117.89 Y128.50
G1 F1140 X122.71 Y133.32 E29.24281
G0 F1680 X122.08 Y133.53
G1 F1140 X117.15 Y128.60 E29.43816
G0 F1680 X116.40 Y128.71
G1 F1140 X121.44 Y133.74 E29.63789
G0 F1680 X120.81 Y133.96
G1 F1140 X115.65 Y128.81 E29.84195
G0 F1680 X114.91 Y128.91
G1 F1140 X120.17 Y134.17 E30.05040
G0 F1680 X119.52 Y134.37
G1 F1140 X114.12 Y128.97 E30.26419
G0 F1680 X112.88 Y128.58
G1 F1140 X118.72 Y134.42 E30.49540
G0 F1680 X117.92 Y134.46
G1 F1140 X111.64 Y128.19 E30.74399
G0 F1680 X110.40 Y127.80
G1 F1140 X117.12 Y134.51 E31.01001
G0 F1680 X116.32 Y134.56
G1 F1140 X108.23 Y126.47 E31.33051
G0 F1680 X108.12 Y126.63
G0 X106.12 Y129.19
G0 X105.96 Y129.30
G1 F1140 X107.63 Y130.96 E31.39647
G0 F1680 X107.75 Y130.82
G0 X110.49 Y132.72
G0 X110.40 Y132.89
G1 F1140 X104.32 Y126.80 E31.63751
G0 F1680 X103.84 Y125.47
G1 F1140 X112.10 Y133.74 E31.96483
G0 F1680 X113.25 Y134.03
G1 F1140 X103.41 Y124.20 E32.35446
G0 F1680 X104.22 Y123.31
G1 F1140 X115.38 Y134.47 E32.79659
G0 F1680 X114.31 Y134.25
G1 F1140 X102.16 Y122.10 E33.27811
G0 F1680 X101.74 Y122.52
G1 F1140 X101.97 Y123.18 E33.29257
G1 X101.10 Y123.16 E33.31324
G1 X101.62 Y124.11 E33.34359
G0 F1680 X101.41 Y124.74
G1 F1140 X100.46 Y123.79 E33.38121
G0 F1680 X100.03 Y124.21
G1 F1140 X101.19 Y125.38 E33.42734
G0 F1680 X100.98 Y126.01
G1 F1140 X99.60 Y124.64 E33.48194
G0 F1680 X99.15 Y125.03
G1 F1140 X100.77 Y126.65 E33.54607
G0 F1680 X100.44 Y127.17
G1 F1140 X98.65 Y125.38 E33.61688
G0 F1680 X98.15 Y125.73
G1 F1140 X100.10 Y127.68 E33.69409
G0 F1680 X99.76 Y128.19
G1 F1140 X97.66 Y126.08 E33.77766
G0 F1680 X97.16 Y126.43
G1 F1140 X99.43 Y128.70 E33.86763
G0 F1680 X99.09 Y129.21
G1 F1140 X96.66 Y126.78 E33.96397
G0 F1680 X96.16 Y127.13
G1 F1140 X98.75 Y129.73 E34.06672
G0 F1680 X98.31 Y130.13
G1 F1140 X95.66 Y127.48 E34.17165
G0 F1680 X95.08 Y127.75
G1 F1140 X97.86 Y130.53 E34.28182
G0 F1680 X97.41 Y130.93
G1 F1140 X94.43 Y127.95 E34.39994
G0 F1680 X93.78 Y128.14
G1 F1140 X96.96 Y131.32 E34.52605
G0 F1680 X96.51 Y131.72
G1 F1140 X93.13 Y128.34 E34.66014
G0 F1680 X92.48 Y128.54
G1 F1140 X96.06 Y132.12 E34.80219
G0 F1680 X95.52 Y132.43
G1 F1140 X91.82 Y128.74 E34.94849
G0 F1680 X91.17 Y128.93
G1 F1140 X94.95 Y132.71 E35.09841
G0 F1680 X94.39 Y132.99
G1 F1140 X90.22 Y128.83 E35.26344
G0 F1680 X89.25 Y128.71
G1 F1140 X93.82 Y133.28 E35.44431
G0 F1680 X93.25 Y133.56
G1 F1140 X88.29 Y128.60 E35.64099
G0 F1680 X87.32 Y128.48
G1 F1140 X92.69 Y133.84 E35.85348
G0 F1680 X91.98 Y133.99
G1 F1140 X86.36 Y128.36 E36.07632
G0 F1680 X86.34 Y128.55
G0 X85.20 Y128.39
G0 X82.42 Y124.69
G0 X82.57 Y124.57
G1 F1140 X74.62 Y116.63 E36.39100
G0 F1680 X74.41 Y117.26
G1 F1140 X91.28 Y134.13 E37.05935
G0 F1680 X90.58 Y134.27
G1 F1140 X74.22 Y117.92 E37.70761
G0 F1680 X74.17 Y118.72
G1 F1140 X89.87 Y134.42 E38.32984
G0 F1680 X89.17 Y134.56
G1 F1140 X74.12 Y119.52 E38.92607
G0 F1680 X74.07 Y120.32
G1 F1140 X88.29 Y134.54 E39.48953
G0 F1680 X87.39 Y134.48
G1 F1140 X74.02 Y121.12 E40.01912
G0 F1680 X74.11 Y122.06
G1 F1140 X86.49 Y134.43 E40.50939
G0 F1680 X85.58 Y134.37
G1 F1140 X74.33 Y123.12 E40.95525
G0 F1680 X74.55 Y124.19
G1 F1140 X84.38 Y134.02 E41.34484
G0 F1680 X83.11 Y133.60
G1 F1140 X74.85 Y125.34 E41.67216
G0 F1680 X75.02 Y125.25
G0 X75.87 Y126.95
G0 X75.70 Y127.03
G1 F1140 X81.78 Y133.12 E41.91316
G0 F1680 X81.89 Y132.96
G0 X79.39 Y131.31
G0 X79.28 Y131.46
G1 F1140 X77.62 Y129.81 E41.97877
G0 F1680 X77.77 Y129.68
G0 X81.32 Y122.69
G0 X81.50 Y122.66
G1 F1140 X74.84 Y115.99 E42.24297
G0 F1680 X75.05 Y115.35
G1 F1140 X81.35 Y121.65 E42.49257
G0 F1680 X81.19 Y120.65
G1 F1140 X75.26 Y114.72 E42.72756
G0 F1680 X75.47 Y114.08
G1 F1140 X81.04 Y119.64 E42.94811
G0 F1680 X80.88 Y118.64
G1 F1140 X75.67 Y113.43 E43.15468
G0 F1680 X75.86 Y112.78
G1 F1140 X80.72 Y117.63 E43.34721
G0 F1680 X80.57 Y116.63
G1 F1140 X76.06 Y112.12 E43.52570
G0 F1680 X76.26 Y111.47
G1 F1140 X80.41 Y115.62 E43.69020
G0 F1680 X80.37 Y114.74
G1 F1140 X76.46 Y110.82 E43.84533
G0 F1680 X76.66 Y110.17
G1 F1140 X80.35 Y113.87 E43.99177
G0 F1680 X80.33 Y113.00
G1 F1140 X76.87 Y109.54 E44.12867
G0 F1680 X77.10 Y108.92
G1 F1140 X80.31 Y112.13 E44.25586
G0 F1680 X80.28 Y111.26
G1 F1140 X77.32 Y108.29 E44.37333
G0 F1680 X77.54 Y107.67
G1 F1140 X80.26 Y110.39 E44.48111
G0 F1680 X80.24 Y109.51
G1 F1140 X77.76 Y107.04 E44.57922
G0 F1680 X77.99 Y106.41
G1 F1140 X80.22 Y108.64 E44.66762
G0 F1680 X80.20 Y107.77
G1 F1140 X78.22 Y105.79 E44.74600
G0 F1680 X78.46 Y105.19
G1 F1140 X80.21 Y106.94 E44.81511
G0 F1680 X80.43 Y106.31
G1 F1140 X78.71 Y104.59 E44.88326
G0 F1680 X78.96 Y103.99
G1 F1140 X80.66 Y105.69 E44.95051
G0 F1680 X80.88 Y105.06
G1 F1140 X79.21 Y103.39 E45.01680
G0 F1680 X79.45 Y102.79
G1 F1140 X81.10 Y104.44 E45.08220
G0 F1680 X81.33 Y103.81
G1 F1140 X79.70 Y102.19 E45.14667
