;Generated with Cura_SteamEngine 13.12
<<<<<<< HEAD
M109 T0 S235.000000
T0
;Sliced at: Thu 23-01-2014 18:27:44
=======
M109 T0 S220.000000
T0
;Sliced ?filename? at: Wed 22-01-2014 09:15:20
>>>>>>> bb7b4dddc7b8463be3805eee7cf230a40900b4ee
;Basic settings: Layer height: 0.1 Walls: 0.4 Fill: 15
;Print time: #P_TIME#
;Filament used: #F_AMNT#m #F_WGHT#g
;Filament cost: #F_COST#
<<<<<<< HEAD
;M190 S70 ;Uncomment to add your own bed temperature line
;M109 S235 ;Uncomment to add your own temperature line
=======
>>>>>>> bb7b4dddc7b8463be3805eee7cf230a40900b4ee
G21        ;metric values
G90        ;absolute positioning
M107       ;start with the fan off
G28 X0 Y0  ;move X/Y to min endstops
G28 Z0     ;move Z to min endstops
G1 Z15.0 F?max_z_speed? ;move the platform down 15mm
G92 E0                  ;zero the extruded length
G1 F200 E3              ;extrude 3mm of feed stock
G92 E0                  ;zero the extruded length again
G1 F9000
M117 Printing...

;Layer count: 42
;LAYER:0
M107
<<<<<<< HEAD
G0 F3000 X124.13 Y92.17 Z0.30
;TYPE:SKIRT
G1 F2400 E0.00000
G1 F1140 X124.56 Y91.62 E0.01306
G1 X124.62 Y91.54 E0.01488
G1 X141.46 Y72.65 E0.48748
G1 X141.47 Y72.64 E0.48789
G1 X143.54 Y70.37 E0.54522
G1 X145.49 Y69.93 E0.58244
G1 X146.97 Y70.52 E0.61230
G1 X147.50 Y70.86 E0.62409
G1 X148.54 Y71.87 E0.65104
G1 X148.60 Y71.93 E0.65284
G1 X154.58 Y78.49 E0.81849
G1 X154.60 Y78.52 E0.81923
G1 X166.81 Y92.59 E1.16722
G1 X167.12 Y93.11 E1.17844
G1 X172.50 Y108.32 E1.47979
G1 X172.59 Y108.90 E1.49081
G1 X172.38 Y116.33 E1.62967
G1 X172.38 Y116.38 E1.63066
G1 X172.21 Y119.11 E1.68170
G1 X172.19 Y119.26 E1.68442
G1 X171.12 Y126.24 E1.81641
G1 X171.09 Y126.39 E1.81921
G1 X170.75 Y127.76 E1.84565
G1 X170.45 Y128.36 E1.85821
G1 X166.53 Y133.37 E1.97696
G1 X166.33 Y133.58 E1.98250
G1 X165.55 Y134.27 E2.00182
G1 X164.80 Y134.64 E2.01735
G1 X163.68 Y134.87 E2.03876
G1 X163.56 Y134.89 E2.04101
G1 X160.14 Y135.33 E2.10557
G1 X160.08 Y135.34 E2.10670
G1 X157.70 Y135.56 E2.15124
G1 X157.09 Y135.49 E2.16282
G1 X152.40 Y134.07 E2.25425
G1 X151.96 Y133.87 E2.26333
G1 X147.60 Y130.89 E2.36202
G1 X147.37 Y130.70 E2.36763
G1 X145.53 Y128.86 E2.41620
G1 X143.85 Y130.38 E2.45841
G1 X143.72 Y130.49 E2.46158
G1 X140.01 Y133.20 E2.54737
G1 X139.89 Y133.28 E2.55013
G1 X138.86 Y133.89 E2.57249
G1 X138.57 Y134.03 E2.57856
G1 X136.95 Y134.59 E2.61055
G1 X136.88 Y134.62 E2.61198
G1 X134.11 Y135.43 E2.66581
G1 X133.62 Y135.50 E2.67515
G1 X131.89 Y135.46 E2.70740
G1 X131.72 Y135.45 E2.71053
G1 X128.26 Y135.00 E2.77577
G1 X128.17 Y134.99 E2.77741
G1 X126.12 Y134.60 E2.81644
G1 X125.21 Y134.10 E2.83576
G1 X124.06 Y132.86 E2.86752
G1 X123.98 Y132.76 E2.86984
G1 X120.37 Y128.20 E2.97844
G1 X120.04 Y127.45 E2.99369
G1 X118.66 Y118.93 E3.15501
G1 X118.64 Y118.75 E3.15845
G1 X118.24 Y110.07 E3.32067
G1 X118.25 Y109.82 E3.32541
G1 X118.48 Y107.76 E3.36408
G1 X118.56 Y107.42 E3.37067
G1 X121.70 Y98.32 E3.55048
G1 X121.71 Y98.30 E3.55077
G1 X123.51 Y93.23 E3.65138
G1 X123.65 Y92.95 E3.65720
G1 X124.01 Y92.34 E3.67046
G1 X124.13 Y92.17 E3.67436
G0 F3000 X130.59 Y96.53
G1 F1140 X126.30 Y108.81 E3.91728
G1 X126.18 Y109.85 E3.93675
G1 X126.53 Y117.33 E4.07660
G1 X127.59 Y123.85 E4.19997
G1 X130.02 Y126.92 E4.27319
G1 X130.28 Y126.97 E4.27817
G1 X133.15 Y127.34 E4.33227
G1 X133.78 Y127.35 E4.34405
G1 X135.55 Y126.83 E4.37845
G1 X136.51 Y126.50 E4.39754
G1 X136.88 Y126.28 E4.40551
G1 X139.98 Y124.02 E4.47712
G1 X144.42 Y119.99 E4.58914
G1 X146.98 Y120.05 E4.63695
G1 X151.31 Y124.38 E4.75140
G1 X154.44 Y126.51 E4.82212
G1 X157.26 Y127.37 E4.87722
G1 X158.51 Y127.25 E4.90052
G1 X160.95 Y126.94 E4.94646
G1 X163.37 Y123.85 E5.01977
G1 X163.40 Y123.72 E5.02220
G1 X163.92 Y120.46 E5.08396
G1 X164.32 Y117.68 E5.13644
G1 X164.61 Y110.89 E5.26324
G1 X164.64 Y109.38 E5.29160
G1 X160.19 Y96.79 E5.54103
G1 X148.70 Y83.58 E5.86803
G1 X145.39 Y79.95 E5.95978
G1 X130.67 Y96.43 E6.37252
G1 X130.59 Y96.53 E6.37497
G1 F2400 E1.87497
G0 F3000 X128.06 Y94.25
;TYPE:WALL-OUTER
G1 F2400 E6.37497
G1 F1140 X127.74 Y94.66 E6.38473
G1 X127.50 Y95.06 E6.39349
G1 X122.96 Y108.06 E6.65074
G1 X122.77 Y109.74 E6.68232
G1 X123.14 Y117.68 E6.83081
G1 X124.37 Y125.23 E6.97369
G1 X124.39 Y125.28 E6.97462
G1 X127.51 Y129.23 E7.06876
G1 X128.25 Y130.03 E7.08904
G1 X128.31 Y130.06 E7.09028
G1 X129.75 Y130.33 E7.11763
G1 X132.90 Y130.73 E7.17690
G1 X134.22 Y130.76 E7.20164
G1 X134.25 Y130.76 E7.20224
G1 X136.60 Y130.06 E7.24803
G1 X137.97 Y129.59 E7.27510
G1 X138.76 Y129.11 E7.29235
G1 X142.13 Y126.65 E7.37028
G1 X145.62 Y123.49 E7.45814
G1 X149.14 Y127.01 E7.55122
G1 X152.97 Y129.62 E7.63773
G1 X156.90 Y130.81 E7.71432
G1 X156.93 Y130.81 E7.71503
G1 X158.86 Y130.63 E7.75118
G1 X162.00 Y130.23 E7.81038
G1 X162.65 Y130.09 E7.82266
G1 X162.69 Y130.07 E7.82364
G1 X163.06 Y129.74 E7.83286
G1 X166.47 Y125.39 E7.93613
G1 X166.49 Y125.35 E7.93691
G1 X166.73 Y124.41 E7.95511
G1 X167.28 Y121.00 E8.01965
G1 X167.71 Y117.98 E8.07651
G1 X168.01 Y111.01 E8.20694
G1 X168.05 Y108.84 E8.24742
G1 X168.05 Y108.81 E8.24808
G1 X163.18 Y95.06 E8.52046
G1 X163.17 Y95.03 E8.52115
G1 X151.24 Y81.32 E8.86064
G1 X146.36 Y75.97 E8.99573
G1 X145.59 Y75.23 E9.01584
G1 X145.26 Y75.10 E9.02241
G1 X145.14 Y75.13 E9.02478
G1 X128.06 Y94.25 E9.50356
G0 F3000 X127.20 Y93.76
G1 F1140 X145.28 Y73.51 E10.01071
G1 X145.39 Y73.55 E10.01280
G1 X146.12 Y74.26 E10.03194
G1 X152.05 Y80.77 E10.19632
G1 X164.02 Y94.56 E10.53749
G1 X169.18 Y109.14 E10.82636
G1 X168.98 Y116.20 E10.95836
G1 X168.82 Y118.82 E11.00739
G1 X167.77 Y125.64 E11.13626
G1 X167.54 Y126.57 E11.15407
G1 X163.96 Y131.14 E11.26256
G1 X163.66 Y131.40 E11.27003
G1 X163.05 Y131.53 E11.28157
G1 X159.74 Y131.96 E11.34405
G1 X157.74 Y132.14 E11.38153
G1 X153.65 Y130.90 E11.46131
G1 X149.65 Y128.18 E11.55178
G1 X145.72 Y124.25 E11.65557
G1 X145.56 Y124.24 E11.65854
G1 X141.65 Y127.79 E11.75724
G1 X138.07 Y130.40 E11.83982
G1 X137.27 Y130.88 E11.85727
G1 X135.87 Y131.37 E11.88493
G1 X133.42 Y132.09 E11.93280
G1 X132.06 Y132.06 E11.95810
G1 X128.75 Y131.63 E12.02047
G1 X127.31 Y131.37 E12.04778
G1 X126.60 Y130.60 E12.06737
G1 X123.33 Y126.45 E12.16603
G1 X122.03 Y118.49 E12.31670
G1 X121.64 Y110.06 E12.47441
G1 X121.84 Y108.34 E12.50676
G1 X126.66 Y94.54 E12.77979
G1 X126.87 Y94.18 E12.78759
G1 X127.20 Y93.76 E12.79758
G0 F3000 X127.40 Y93.74
;TYPE:FILL
G1 F1140 X128.02 Y94.08 E12.81055
G1 X127.80 Y93.29 E12.82338
G1 X128.55 Y93.48 E12.83622
G1 X128.33 Y92.69 E12.84907
G1 X129.09 Y92.88 E12.86195
G1 X128.87 Y92.10 E12.87476
G1 X129.62 Y92.29 E12.88759
G1 X129.40 Y91.50 E12.90043
G1 X130.15 Y91.69 E12.91328
G1 X129.93 Y90.90 E12.92611
G1 X130.69 Y91.09 E12.93896
G1 X130.47 Y90.31 E12.95180
G1 X131.22 Y90.49 E12.96465
G1 X131.00 Y89.71 E12.97750
G1 X131.76 Y89.89 E12.99034
G1 X131.54 Y89.11 E13.00317
G1 X132.29 Y89.30 E13.01602
G1 X132.07 Y88.51 E13.02888
G1 X132.82 Y88.70 E13.04175
G1 X132.60 Y87.91 E13.05460
G1 X133.36 Y88.10 E13.06746
G1 X133.14 Y87.32 E13.08033
G1 X133.89 Y87.50 E13.09318
G1 X133.67 Y86.72 E13.10604
G1 X134.43 Y86.91 E13.11891
G1 X134.20 Y86.12 E13.13178
G1 X134.96 Y86.31 E13.14464
G1 X134.74 Y85.52 E13.15747
G1 X135.49 Y85.71 E13.17034
G1 X135.27 Y84.93 E13.18323
G1 X136.03 Y85.11 E13.19609
G1 X135.80 Y84.33 E13.20896
G1 X136.56 Y84.52 E13.22182
G1 X136.34 Y83.73 E13.23469
G1 X137.09 Y83.92 E13.24755
G1 X136.87 Y83.13 E13.26042
G1 X137.63 Y83.32 E13.27331
G1 X137.41 Y82.53 E13.28619
G1 X138.16 Y82.72 E13.29906
G1 X137.94 Y81.94 E13.31193
G1 X138.70 Y82.13 E13.32479
G1 X138.47 Y81.34 E13.33766
G1 X139.23 Y81.53 E13.35056
G1 X139.01 Y80.74 E13.36343
G1 X139.76 Y80.93 E13.37631
G1 X139.54 Y80.14 E13.38918
G1 X140.30 Y80.33 E13.40209
G1 X140.07 Y79.55 E13.41497
G1 X140.83 Y79.74 E13.42788
G1 X140.61 Y78.95 E13.44076
G1 X141.36 Y79.14 E13.45365
G1 X141.14 Y78.35 E13.46655
G1 X141.90 Y78.54 E13.47947
G1 X141.68 Y77.75 E13.49236
G1 X142.43 Y77.94 E13.50525
G1 X142.21 Y77.15 E13.51813
G1 X142.96 Y77.35 E13.53106
G1 X142.74 Y76.56 E13.54394
G1 X143.50 Y76.75 E13.55683
G1 X143.28 Y75.96 E13.56976
G1 X144.03 Y76.15 E13.58266
G1 X143.81 Y75.36 E13.59558
G1 X144.57 Y75.55 E13.60847
G1 X144.34 Y74.76 E13.62140
G1 X144.97 Y75.11 E13.63465
G0 F3000 X145.45 Y75.02
G1 F1140 X144.74 Y74.32 E13.65328
G0 F3000 X145.01 Y74.02
G1 F1140 X152.54 Y81.55 E13.85218
G0 F3000 X152.42 Y81.65
G0 X153.15 Y83.07
G0 X153.03 Y83.17
G1 F1140 X159.98 Y90.12 E14.03561
G0 F3000 X159.86 Y90.22
G0 X160.75 Y91.79
G0 X160.62 Y91.89
G1 F1140 X164.19 Y95.46 E14.12980
G0 F3000 X163.70 Y96.10
G1 F1140 X164.81 Y97.21 E14.15909
G0 F3000 X164.32 Y97.85
G1 F1140 X165.43 Y98.96 E14.18837
G0 F3000 X164.94 Y99.60
G1 F1140 X166.05 Y100.71 E14.21768
G0 F3000 X165.56 Y101.35
G1 F1140 X166.67 Y102.46 E14.24699
G0 F3000 X166.18 Y103.10
G1 F1140 X167.29 Y104.21 E14.27628
G0 F3000 X166.80 Y104.85
G1 F1140 X167.91 Y105.96 E14.30559
G0 F3000 X167.42 Y106.61
G1 F1140 X168.53 Y107.71 E14.33490
G0 F3000 X168.04 Y108.36
G1 F1140 X169.03 Y109.35 E14.36125
G0 F3000 X169.02 Y109.90
G1 F1140 X168.19 Y109.07 E14.38320
G0 F3000 X168.18 Y109.63
G1 F1140 X169.00 Y110.45 E14.40505
G0 F3000 X168.99 Y111.00
G1 F1140 X168.16 Y110.18 E14.42679
G0 F3000 X168.15 Y110.74
G1 F1140 X168.97 Y111.55 E14.44842
G0 F3000 X168.96 Y112.10
G1 F1140 X168.14 Y111.29 E14.47006
G0 F3000 X168.11 Y111.83
G1 F1140 X168.94 Y112.65 E14.49189
G0 F3000 X168.92 Y113.20
G1 F1140 X168.09 Y112.37 E14.51390
G0 F3000 X168.07 Y112.91
G1 F1140 X168.91 Y113.75 E14.53611
G0 F3000 X168.89 Y114.30
G1 F1140 X168.04 Y113.46 E14.55854
G0 F3000 X168.02 Y114.00
G1 F1140 X168.88 Y114.85 E14.58113
G0 F3000 X168.86 Y115.40
G1 F1140 X168.00 Y114.54 E14.60394
G0 F3000 X167.98 Y115.08
G1 F1140 X168.85 Y115.95 E14.62695
G0 F3000 X168.82 Y116.50
G1 F1140 X167.95 Y115.63 E14.64993
G0 F3000 X167.93 Y116.17
G1 F1140 X168.79 Y117.03 E14.67265
G0 F3000 X168.76 Y117.56
G1 F1140 X167.91 Y116.71 E14.69513
G0 F3000 X167.88 Y117.25
G1 F1140 X168.72 Y118.10 E14.71734
G0 F3000 X168.69 Y118.63
G1 F1140 X167.86 Y117.80 E14.73931
G0 F3000 X167.81 Y118.31
G1 F1140 X168.63 Y119.13 E14.76106
G0 F3000 X168.55 Y119.62
G1 F1140 X167.74 Y118.80 E14.78272
G0 F3000 X167.66 Y119.30
G1 F1140 X168.48 Y120.11 E14.80428
G0 F3000 X168.40 Y120.60
G1 F1140 X167.59 Y119.79 E14.82570
G0 F3000 X167.52 Y120.29
G1 F1140 X168.33 Y121.09 E14.84701
G0 F3000 X168.25 Y121.58
G1 F1140 X167.45 Y120.78 E14.86822
G0 F3000 X167.38 Y121.27
G1 F1140 X168.18 Y122.07 E14.88942
G0 F3000 X168.10 Y122.56
G1 F1140 X167.30 Y121.76 E14.91071
G0 F3000 X167.22 Y122.25
G1 F1140 X168.03 Y123.05 E14.93206
G0 F3000 X167.95 Y123.54
G1 F1140 X167.14 Y122.73 E14.95352
G0 F3000 X167.06 Y123.22
G1 F1140 X167.88 Y124.04 E14.97508
G0 F3000 X167.80 Y124.53
G1 F1140 X166.98 Y123.71 E14.99671
G0 F3000 X166.90 Y124.19
G1 F1140 X167.73 Y125.02 E15.01845
G0 F3000 X167.65 Y125.51
G1 F1140 X166.81 Y124.66 E15.04071
G0 F3000 X166.69 Y125.12
G1 F1140 X167.54 Y125.97 E15.06319
G0 F3000 X167.43 Y126.42
G1 F1140 X166.54 Y125.53 E15.08678
G0 F3000 X166.29 Y125.84
G1 F1140 X167.21 Y126.76 E15.11104
G0 F3000 X166.96 Y127.08
G1 F1140 X166.04 Y126.16 E15.13529
G0 F3000 X165.79 Y126.48
G1 F1140 X166.71 Y127.40 E15.15954
G0 F3000 X166.46 Y127.71
G1 F1140 X165.55 Y126.80 E15.18379
G0 F3000 X165.30 Y127.11
G1 F1140 X166.21 Y128.03 E15.20804
G0 F3000 X165.97 Y128.35
G1 F1140 X165.05 Y127.43 E15.23229
G0 F3000 X164.80 Y127.75
G1 F1140 X165.72 Y128.66 E15.25652
G0 F3000 X165.47 Y128.98
G1 F1140 X164.55 Y128.07 E15.28075
G0 F3000 X164.30 Y128.38
G1 F1140 X165.22 Y129.30 E15.30498
G0 F3000 X164.97 Y129.62
G1 F1140 X164.05 Y128.70 E15.32920
G0 F3000 X163.81 Y129.02
G1 F1140 X164.72 Y129.93 E15.35343
G0 F3000 X164.48 Y130.25
G1 F1140 X163.56 Y129.34 E15.37762
G0 F3000 X163.31 Y129.65
G1 F1140 X164.23 Y130.57 E15.40182
G0 F3000 X163.98 Y130.89
G1 F1140 X163.04 Y129.95 E15.42661
G0 F3000 X162.73 Y130.21
G1 F1140 X163.70 Y131.18 E15.45221
G0 F3000 X163.29 Y131.33
G1 F1140 X162.27 Y130.31 E15.47918
G0 F3000 X161.79 Y130.39
G1 F1140 X162.81 Y131.42 E15.50621
G0 F3000 X162.31 Y131.48
G1 F1140 X161.29 Y130.46 E15.53324
G0 F3000 X160.79 Y130.52
G1 F1140 X161.81 Y131.55 E15.56027
G0 F3000 X161.31 Y131.61
G1 F1140 X160.29 Y130.59 E15.58729
G0 F3000 X159.79 Y130.65
G1 F1140 X160.81 Y131.68 E15.61431
G0 F3000 X160.31 Y131.74
G1 F1140 X159.29 Y130.72 E15.64134
G0 F3000 X158.78 Y130.78
G1 F1140 X159.81 Y131.81 E15.66847
G0 F3000 X159.29 Y131.86
G1 F1140 X158.26 Y130.83 E15.69566
G0 F3000 X157.74 Y130.87
G1 F1140 X158.77 Y131.90 E15.72290
G0 F3000 X158.26 Y131.95
G1 F1140 X157.23 Y130.92 E15.75009
G0 F3000 X156.60 Y130.86
G1 F1140 X157.73 Y131.99 E15.77991
G0 F3000 X156.92 Y131.75
G1 F1140 X155.79 Y130.62 E15.80973
G0 F3000 X155.29 Y131.25
G1 F1140 X154.17 Y130.13 E15.83951
G0 F3000 X153.63 Y130.72
G1 F1140 X152.11 Y129.20 E15.87961
G0 F3000 X151.85 Y129.51
G1 F1140 X150.34 Y128.00 E15.91950
G0 F3000 X150.08 Y128.30
G1 F1140 X145.53 Y123.75 E16.03957
G0 F3000 X145.24 Y124.02
G1 F1140 X145.26 Y124.32 E16.04399
G1 X144.79 Y124.43 E16.04843
G1 X144.66 Y124.86 E16.05286
G1 X144.20 Y124.96 E16.05730
G1 X144.07 Y125.40 E16.06170
G1 X143.60 Y125.50 E16.06611
G1 X143.48 Y125.94 E16.07051
G1 X143.01 Y126.04 E16.07490
G1 X142.88 Y126.48 E16.07929
G1 X142.42 Y126.58 E16.08371
G1 X142.29 Y127.01 E16.08810
G1 X141.79 Y127.08 E16.09318
G1 X141.70 Y127.55 E16.09902
G1 X141.13 Y127.55 E16.10565
G1 X141.05 Y128.04 E16.11229
G1 X140.48 Y128.03 E16.11893
G1 X140.40 Y128.52 E16.12557
G1 X139.82 Y128.51 E16.13215
G1 X139.75 Y129.00 E16.13878
G1 X139.17 Y128.99 E16.14536
G1 X139.09 Y129.48 E16.15199
G1 X138.49 Y129.44 E16.15895
G1 X138.44 Y129.95 E16.16661
G1 X137.74 Y129.82 E16.17536
G1 X137.77 Y130.41 E16.18650
G1 X136.90 Y130.11 E16.19935
G1 X137.24 Y130.73 E16.21267
G0 F3000 X136.82 Y130.88
G1 F1140 X136.25 Y130.31 E16.22774
G0 F3000 X135.82 Y130.44
G1 F1140 X136.40 Y131.03 E16.24327
G0 F3000 X135.99 Y131.18
G1 F1140 X135.38 Y130.57 E16.25926
G0 F3000 X134.94 Y130.70
G1 F1140 X135.55 Y131.31 E16.27541
G0 F3000 X135.12 Y131.44
G1 F1140 X134.51 Y130.83 E16.29154
G0 F3000 X134.01 Y130.90
G1 F1140 X134.68 Y131.57 E16.30929
G0 F3000 X134.25 Y131.70
G1 F1140 X133.43 Y130.88 E16.33082
G0 F3000 X132.85 Y130.87
G1 F1140 X133.81 Y131.83 E16.35627
G0 F3000 X133.37 Y131.95
G1 F1140 X132.20 Y130.78 E16.38714
G0 F3000 X131.55 Y130.70
G1 F1140 X132.79 Y131.94 E16.41987
G0 F3000 X132.21 Y131.92
G1 F1140 X130.90 Y130.62 E16.45445
G0 F3000 X130.25 Y130.53
G1 F1140 X131.57 Y131.86 E16.48948
G0 F3000 X130.93 Y131.77
G1 F1140 X129.59 Y130.44 E16.52468
G0 F3000 X128.90 Y130.31
G1 F1140 X130.27 Y131.69 E16.56102
G0 F3000 X129.62 Y131.60
G1 F1140 X123.27 Y125.25 E16.72882
G0 F3000 X123.38 Y125.93
G1 F1140 X128.98 Y131.52 E16.87656
G0 F3000 X128.29 Y131.41
G1 F1140 X124.12 Y127.24 E16.98673
G0 F3000 X125.51 Y126.93
G1 F1140 X123.16 Y124.58 E17.04879
G0 F3000 X123.05 Y123.90
G1 F1140 X124.20 Y125.04 E17.07897
G0 F3000 X124.09 Y124.37
G1 F1140 X122.94 Y123.23 E17.10917
G0 F3000 X122.83 Y122.55
G1 F1140 X123.98 Y123.69 E17.13940
G0 F3000 X123.87 Y123.02
G1 F1140 X122.72 Y121.87 E17.16961
G0 F3000 X122.61 Y121.20
G1 F1140 X123.76 Y122.34 E17.19983
G0 F3000 X123.65 Y121.67
G1 F1140 X122.50 Y120.52 E17.23005
G0 F3000 X122.39 Y119.85
G1 F1140 X123.54 Y120.99 E17.26028
G0 F3000 X123.43 Y120.32
G1 F1140 X122.28 Y119.17 E17.29053
G0 F3000 X122.17 Y118.50
G1 F1140 X123.32 Y119.64 E17.32077
G0 F3000 X123.21 Y118.97
G1 F1140 X122.14 Y117.90 E17.34888
G0 F3000 X122.12 Y117.31
G1 F1140 X123.10 Y118.29 E17.37481
G0 F3000 X123.00 Y117.62
G1 F1140 X122.09 Y116.72 E17.39882
G0 F3000 X122.06 Y116.12
G1 F1140 X122.97 Y117.03 E17.42282
G0 F3000 X122.94 Y116.44
G1 F1140 X122.04 Y115.53 E17.44682
G0 F3000 X122.01 Y114.94
G1 F1140 X122.92 Y115.85 E17.47083
G0 F3000 X122.89 Y115.25
G1 F1140 X121.98 Y114.34 E17.49482
G0 F3000 X121.95 Y113.75
G1 F1140 X122.86 Y114.66 E17.51881
G0 F3000 X122.83 Y114.06
G1 F1140 X121.93 Y113.16 E17.54278
G0 F3000 X121.90 Y112.56
G1 F1140 X122.81 Y113.47 E17.56676
G0 F3000 X122.78 Y112.88
G1 F1140 X121.87 Y111.97 E17.59075
G0 F3000 X121.84 Y111.38
G1 F1140 X122.75 Y112.29 E17.61474
G0 F3000 X122.72 Y111.69
