;Generated with Cura_SteamEngine 13.12
M109 T0 S230.000000
T0
;Sliced ?filename? at: Sun 02-02-2014 22:03:39
;Basic settings: Layer height: 0.05 Walls: 0.6 Fill: 15
;Print time: #P_TIME#
;Filament used: #F_AMNT#m #F_WGHT#g
;Filament cost: #F_COST#
G21        ;metric values
G90        ;absolute positioning
M107       ;start with the fan off
G28 X0 Y0  ;move X/Y to min endstops
G28 Z0     ;move Z to min endstops
G1 Z15.0 F?max_z_speed? ;move the platform down 15mm
G92 E0                  ;zero the extruded length
G1 F200 E3              ;extrude 3mm of feed stock
G92 E0                  ;zero the extruded length again
G1 F9000
M117 Printing...

;Layer count: 298
;LAYER:0
M107
G0 F3600 X80.01 Y81.38 Z0.30
;TYPE:SKIRT
G1 F2400 E0.00000
G1 F1200 X82.84 Y78.73 E0.10857
G1 X85.75 Y76.62 E0.20925
G1 X85.95 Y76.47 E0.21635
G1 X89.17 Y74.69 E0.31944
G1 X89.39 Y74.58 E0.32623
G1 X92.97 Y73.16 E0.43420
G1 X96.72 Y72.20 E0.54273
G1 X100.56 Y71.71 E0.65126
G1 X104.43 Y71.71 E0.75950
G1 X108.28 Y72.20 E0.86826
G1 X111.94 Y73.14 E0.97427
G1 X115.63 Y74.58 E1.08530
G1 X119.01 Y76.44 E1.19327
G1 X122.16 Y78.73 E1.30244
G1 X124.99 Y81.38 E1.41104
G1 X127.46 Y84.37 E1.51960
G1 X129.53 Y87.64 E1.62815
G1 X131.18 Y91.14 E1.73668
G1 X132.38 Y94.83 E1.84525
G1 X133.10 Y98.63 E1.95378
G1 X133.35 Y102.50 E2.06237
G1 X133.10 Y106.40 E2.17190
G1 X132.37 Y110.21 E2.28037
G1 X131.18 Y113.86 E2.38796
G1 X129.53 Y117.36 E2.49647
G1 X127.46 Y120.63 E2.60508
G1 X124.96 Y123.64 E2.71462
G1 X122.14 Y126.29 E2.82311
G1 X119.01 Y128.56 E2.93124
G1 X118.78 Y128.68 E2.93858
G1 X115.63 Y130.41 E3.03926
G1 X112.00 Y131.85 E3.14873
G1 X108.28 Y132.80 E3.25629
G1 X104.43 Y133.29 E3.36488
G1 X100.53 Y133.28 E3.47443
G1 X96.68 Y132.79 E3.58290
G1 X92.97 Y131.84 E3.69045
G1 X89.39 Y130.42 E3.79839
G1 X89.17 Y130.31 E3.80525
G1 X85.94 Y128.52 E3.90858
G1 X82.81 Y126.25 E4.01705
G1 X80.01 Y123.62 E4.12462
G1 X77.54 Y120.63 E4.23316
G1 X75.47 Y117.36 E4.34178
G1 X73.81 Y113.82 E4.45128
G1 X72.61 Y110.14 E4.55979
G1 X71.89 Y106.37 E4.66733
G1 X71.65 Y102.50 E4.77586
G1 X71.89 Y98.63 E4.88440
G1 X72.62 Y94.83 E4.99293
G1 X73.82 Y91.14 E5.10150
G1 X75.47 Y87.64 E5.21003
G1 X77.54 Y84.37 E5.31858
G1 X80.01 Y81.38 E5.42714
G0 F3600 X87.00 Y87.99
G1 F1200 X85.31 Y90.04 E5.50171
G1 X83.88 Y92.29 E5.57636
G1 X82.75 Y94.71 E5.65119
G1 X81.93 Y97.25 E5.72599
G1 X81.43 Y99.83 E5.79970
G1 X81.26 Y102.50 E5.87458
G1 X81.43 Y105.17 E5.94951
G1 X81.93 Y107.78 E6.02384
G1 X82.75 Y110.32 E6.09867
G1 X83.89 Y112.74 E6.17365
G1 X85.32 Y114.98 E6.24798
G1 X87.03 Y117.04 E6.32312
G1 X88.96 Y118.86 E6.39743
G1 X91.12 Y120.43 E6.47245
G1 X93.46 Y121.71 E6.54704
G1 X95.94 Y122.70 E6.62184
G1 X98.52 Y123.36 E6.69638
G1 X101.17 Y123.69 E6.77125
G1 X103.83 Y123.69 E6.84589
G1 X106.48 Y123.36 E6.92077
G1 X109.06 Y122.70 E6.99531
G1 X111.54 Y121.71 E7.07011
G1 X113.88 Y120.43 E7.14469
G1 X116.04 Y118.86 E7.21971
G1 X117.97 Y117.04 E7.29403
G1 X119.68 Y114.98 E7.36917
G1 X121.11 Y112.74 E7.44350
G1 X122.25 Y110.32 E7.51847
G1 X123.07 Y107.78 E7.59330
G1 X123.57 Y105.17 E7.66764
G1 X123.74 Y102.50 E7.74271
G1 X123.57 Y99.82 E7.81789
G1 X123.06 Y97.19 E7.89279
G1 X122.23 Y94.66 E7.96742
G1 X121.10 Y92.25 E8.04212
G1 X119.66 Y90.00 E8.11684
G1 X117.96 Y87.94 E8.19179
G1 X116.04 Y86.14 E8.26531
G1 X113.85 Y84.56 E8.34113
G1 X111.54 Y83.29 E8.41498
G1 X109.03 Y82.29 E8.49065
G1 X106.48 Y81.64 E8.56433
G1 X103.83 Y81.31 E8.63914
G1 X101.14 Y81.31 E8.71465
G1 X98.49 Y81.65 E8.78939
G1 X95.94 Y82.30 E8.86316
G1 X93.44 Y83.30 E8.93875
G1 X91.12 Y84.57 E9.01279
G1 X88.95 Y86.15 E9.08810
G1 X87.00 Y87.99 E9.16302
G1 F2400 E4.66302
G0 F3600 X84.37 Y85.52
;TYPE:WALL-OUTER
G1 F2400 E9.16302
G1 F1200 X82.39 Y87.93 E9.25046
G1 X80.72 Y90.56 E9.33783
G1 X79.39 Y93.39 E9.42528
G1 X78.43 Y96.35 E9.51265
G1 X77.85 Y99.39 E9.59920
G1 X77.66 Y102.50 E9.68662
G1 X77.85 Y105.61 E9.77404
G1 X78.44 Y108.68 E9.86144
G1 X79.40 Y111.64 E9.94885
G1 X80.73 Y114.47 E10.03628
G1 X82.40 Y117.10 E10.12368
G1 X84.39 Y119.51 E10.21110
G1 X86.66 Y121.64 E10.29849
G1 X89.19 Y123.48 E10.38594
G1 X91.92 Y124.98 E10.47334
G1 X94.82 Y126.13 E10.56074
G1 X97.85 Y126.90 E10.64818
G1 X100.94 Y127.29 E10.73556
G1 X104.06 Y127.29 E10.82298
G1 X107.15 Y126.90 E10.91036
G1 X110.18 Y126.13 E10.99780
G1 X113.08 Y124.98 E11.08520
G1 X115.81 Y123.48 E11.17261
G1 X118.34 Y121.64 E11.26005
G1 X120.61 Y119.51 E11.34744
G1 X122.60 Y117.10 E11.43486
G1 X124.27 Y114.47 E11.52226
G1 X125.60 Y111.64 E11.60969
G1 X126.56 Y108.68 E11.69710
G1 X127.15 Y105.61 E11.78450
G1 X127.34 Y102.50 E11.87192
G1 X127.14 Y99.36 E11.96019
G1 X126.55 Y96.29 E12.04759
G1 X125.58 Y93.33 E12.13498
G1 X124.25 Y90.51 E12.22241
G1 X122.58 Y87.88 E12.30979
G1 X120.59 Y85.47 E12.39722
G1 X118.33 Y83.36 E12.48378
G1 X115.78 Y81.51 E12.57204
G1 X113.08 Y80.02 E12.65860
G1 X110.15 Y78.87 E12.74682
G1 X107.15 Y78.10 E12.83343
G1 X104.06 Y77.71 E12.92081
G1 X100.91 Y77.71 E13.00907
G1 X97.82 Y78.11 E13.09647
G1 X94.82 Y78.87 E13.18304
G1 X91.90 Y80.04 E13.27129
G1 X89.19 Y81.52 E13.35784
G1 X86.64 Y83.38 E13.44614
G1 X84.37 Y85.52 E13.53352
G0 F3600 X84.10 Y85.23
G0 X82.93 Y84.13
G0 X82.64 Y83.85
G1 F1200 X85.14 Y81.51 E13.62940
G1 X87.90 Y79.50 E13.72520
G1 X90.90 Y77.85 E13.82111
G1 X94.08 Y76.59 E13.91681
G1 X97.40 Y75.74 E14.01285
G1 X100.79 Y75.31 E14.10876
G1 X104.20 Y75.31 E14.20414
G1 X107.60 Y75.74 E14.30027
G1 X110.84 Y76.57 E14.39390
G1 X114.10 Y77.85 E14.49196
G1 X117.08 Y79.49 E14.58732
G1 X119.86 Y81.51 E14.68376
G1 X122.36 Y83.85 E14.77964
G1 X124.54 Y86.49 E14.87542
G1 X126.37 Y89.38 E14.97135
G1 X127.83 Y92.47 E15.06714
G1 X128.88 Y95.72 E15.16292
G1 X129.53 Y99.09 E15.25902
G1 X129.74 Y102.50 E15.35472
G1 X129.52 Y105.94 E15.45130
G1 X128.87 Y109.31 E15.54748
G1 X127.83 Y112.53 E15.64228
G1 X126.37 Y115.62 E15.73808
G1 X124.54 Y118.51 E15.83387
G1 X122.33 Y121.17 E15.93085
G1 X119.84 Y123.51 E16.02659
G1 X117.08 Y125.51 E16.12187
G1 X114.10 Y127.15 E16.21745
G1 X110.89 Y128.41 E16.31401
G1 X107.60 Y129.26 E16.40909
G1 X104.21 Y129.69 E16.50501
G1 X100.76 Y129.68 E16.60159
G1 X97.36 Y129.25 E16.69751
G1 X94.08 Y128.41 E16.79260
G1 X90.88 Y127.14 E16.88884
G1 X87.88 Y125.48 E16.98501
G1 X85.11 Y123.46 E17.08107
G1 X82.64 Y121.15 E17.17588
G1 X80.46 Y118.51 E17.27166
G1 X78.63 Y115.62 E17.36748
G1 X77.16 Y112.49 E17.46449
G1 X76.11 Y109.25 E17.55999
G1 X75.47 Y105.91 E17.65523
G1 X75.26 Y102.50 E17.75094
G1 X75.47 Y99.09 E17.84664
G1 X76.11 Y95.72 E17.94274
G1 X77.17 Y92.47 E18.03852
G1 X78.63 Y89.38 E18.13431
G1 X80.46 Y86.49 E18.23024
G1 X82.64 Y83.85 E18.32602
G0 F3600 X82.76 Y84.03
;TYPE:FILL
G1 F1200 X84.17 Y85.44 E18.38169
G0 F3600 X84.60 Y85.02
G1 F1200 X83.20 Y83.62 E18.43713
G0 F3600 X83.63 Y83.21
G1 F1200 X85.03 Y84.61 E18.49258
G0 F3600 X85.47 Y84.20
G1 F1200 X84.07 Y82.80 E18.54802
G0 F3600 X84.51 Y82.39
G1 F1200 X85.91 Y83.79 E18.60341
G0 F3600 X86.34 Y83.37
G1 F1200 X84.95 Y81.98 E18.65877
G0 F3600 X85.40 Y81.58
G1 F1200 X86.81 Y83.00 E18.71488
G0 F3600 X87.30 Y82.64
G1 F1200 X85.89 Y81.22 E18.77095
G0 F3600 X86.38 Y80.86
G1 F1200 X87.79 Y82.28 E18.82700
G0 F3600 X88.29 Y81.92
G1 F1200 X86.87 Y80.51 E18.88299
G0 F3600 X87.36 Y80.15
G1 F1200 X88.78 Y81.56 E18.93898
G0 F3600 X89.29 Y81.23
G1 F1200 X87.86 Y79.79 E18.99580
G0 F3600 X88.38 Y79.47
G1 F1200 X89.84 Y80.93 E19.05331
G0 F3600 X90.38 Y80.63
G1 F1200 X88.93 Y79.17 E19.11085
G0 F3600 X89.48 Y78.87
G1 F1200 X90.93 Y80.32 E19.16836
G0 F3600 X91.48 Y80.02
G1 F1200 X90.03 Y78.57 E19.22590
G0 F3600 X90.57 Y78.27
G1 F1200 X92.05 Y79.75 E19.28442
G0 F3600 X92.66 Y79.51
G1 F1200 X91.14 Y77.98 E19.34475
G0 F3600 X91.74 Y77.74
G1 F1200 X93.26 Y79.26 E19.40504
G0 F3600 X93.87 Y79.02
G1 F1200 X92.35 Y77.50 E19.46531
G0 F3600 X92.96 Y77.26
G1 F1200 X94.48 Y78.78 E19.52558
G0 F3600 X95.12 Y78.58
G1 F1200 X93.57 Y77.02 E19.58728
G0 F3600 X94.18 Y76.79
G1 F1200 X95.80 Y78.40 E19.65143
G0 F3600 X96.47 Y78.23
G1 F1200 X94.85 Y76.61 E19.71562
G0 F3600 X95.53 Y76.44
G1 F1200 X97.15 Y78.06 E19.77981
G0 F3600 X97.83 Y77.89
G1 F1200 X96.21 Y76.26 E19.84422
G0 F3600 X96.88 Y76.09
G1 F1200 X98.58 Y77.79 E19.91170
G0 F3600 X99.33 Y77.70
G1 F1200 X97.57 Y75.93 E19.98166
G0 F3600 X98.32 Y75.84
G1 F1200 X100.09 Y77.60 E20.05156
G0 F3600 X100.84 Y77.50
G1 F1200 X99.08 Y75.74 E20.12144
G0 F3600 X99.83 Y75.65
G1 F1200 X101.68 Y77.50 E20.19482
G0 F3600 X102.53 Y77.50
G1 F1200 X100.58 Y75.55 E20.27193
G0 F3600 X101.40 Y75.52
G1 F1200 X103.38 Y77.50 E20.35015
G0 F3600 X104.25 Y77.52
G1 F1200 X102.25 Y75.52 E20.42918
G0 F3600 X103.10 Y75.52
G1 F1200 X105.22 Y77.64 E20.51315
G0 F3600 X106.19 Y77.76
G1 F1200 X103.95 Y75.52 E20.60196
G0 F3600 X104.89 Y75.61
G1 F1200 X107.16 Y77.89 E20.69215
G0 F3600 X108.30 Y78.17
G1 F1200 X105.86 Y75.73 E20.78883
G0 F3600 X106.83 Y75.86
G1 F1200 X109.44 Y78.47 E20.89225
G0 F3600 X110.67 Y78.85
G1 F1200 X107.84 Y76.02 E21.00417
G0 F3600 X108.98 Y76.31
G1 F1200 X112.07 Y79.40 E21.12640
G0 F3600 X112.14 Y79.22
G0 X113.66 Y79.89
G0 X113.57 Y80.05
G1 F1200 X110.12 Y76.61 E21.26298
G0 F3600 X111.37 Y77.01
G1 F1200 X115.45 Y81.09 E21.42467
G0 F3600 X115.55 Y80.92
G0 X116.02 Y79.36
G0 X116.11 Y79.20
G1 F1200 X125.83 Y88.92 E21.80994
G0 F3600 X125.67 Y89.02
G0 X126.59 Y90.78
G0 X126.76 Y90.70
G1 F1200 X114.22 Y78.16 E22.30678
G0 F3600 X114.13 Y78.32
G0 X112.70 Y77.73
G0 X112.77 Y77.56
G1 F1200 X118.25 Y83.04 E22.52416
G0 F3600 X118.37 Y82.89
G0 X118.54 Y81.04
G0 X118.65 Y80.89
G1 F1200 X124.35 Y86.59 E22.75023
G0 F3600 X124.21 Y86.71
G0 X121.85 Y86.36
G0 X121.70 Y86.49
G1 F1200 X127.52 Y92.31 E22.98083
G0 F3600 X127.98 Y93.61
G1 F1200 X123.85 Y89.49 E23.14434
G0 F3600 X124.01 Y89.39
G0 X125.07 Y91.30
G0 X124.90 Y91.38
G1 F1200 X128.39 Y94.87 E23.28263
G0 F3600 X128.74 Y96.07
G1 F1200 X125.65 Y92.99 E23.40472
G0 F3600 X126.12 Y94.30
G1 F1200 X128.94 Y97.12 E23.51622
G0 F3600 X129.14 Y98.17
G1 F1200 X126.53 Y95.56 E23.61936
G0 F3600 X126.85 Y96.73
G1 F1200 X129.32 Y99.20 E23.71743
G0 F3600 X129.38 Y100.11
G1 F1200 X127.05 Y97.78 E23.80976
G0 F3600 X127.25 Y98.83
G1 F1200 X129.44 Y101.01 E23.89632
G0 F3600 X129.49 Y101.92
G1 F1200 X127.38 Y99.80 E23.98016
G0 F3600 X127.44 Y100.71
G1 F1200 X129.51 Y102.79 E24.06244
G0 F3600 X129.46 Y103.58
G1 F1200 X127.50 Y101.61 E24.14037
G0 F3600 X127.55 Y102.52
G1 F1200 X129.41 Y104.38 E24.21407
G0 F3600 X129.36 Y105.18
G1 F1200 X127.50 Y103.32 E24.28777
G0 F3600 X127.45 Y104.11
G1 F1200 X129.30 Y105.97 E24.36114
G0 F3600 X129.16 Y106.68
G1 F1200 X127.40 Y104.91 E24.43103
G0 F3600 X127.34 Y105.70
G1 F1200 X129.03 Y107.39 E24.49782
G0 F3600 X128.89 Y108.10
G1 F1200 X127.21 Y106.42 E24.56455
G0 F3600 X127.07 Y107.13
G1 F1200 X128.75 Y108.81 E24.63130
G0 F3600 X128.59 Y109.50
G1 F1200 X126.93 Y107.84 E24.69693
G0 F3600 X126.80 Y108.55
G1 F1200 X128.38 Y110.14 E24.75978
G0 F3600 X128.18 Y110.78
G1 F1200 X126.61 Y109.21 E24.82197
G0 F3600 X126.40 Y109.85
G1 F1200 X127.97 Y111.42 E24.88414
G0 F3600 X127.76 Y112.06
G1 F1200 X126.19 Y110.49 E24.94633
G0 F3600 X125.98 Y111.13
G1 F1200 X127.53 Y112.68 E25.00753
G0 F3600 X127.25 Y113.25
G1 F1200 X125.77 Y111.77 E25.06638
G0 F3600 X125.50 Y112.35
G1 F1200 X126.98 Y113.83 E25.12522
G0 F3600 X126.71 Y114.41
G1 F1200 X125.23 Y112.92 E25.18402
G0 F3600 X124.96 Y113.50
G1 F1200 X126.44 Y114.98 E25.24282
G0 F3600 X126.16 Y115.56
G1 F1200 X124.68 Y114.08 E25.30143
G0 F3600 X124.40 Y114.64
G1 F1200 X125.83 Y116.08 E25.35813
G0 F3600 X125.50 Y116.60
G1 F1200 X124.07 Y115.17 E25.41481
G0 F3600 X123.75 Y115.68
G1 F1200 X125.18 Y117.11 E25.47152
G0 F3600 X124.85 Y117.63
G1 F1200 X123.42 Y116.20 E25.52822
G0 F3600 X123.09 Y116.72
G1 F1200 X124.52 Y118.15 E25.58492
G0 F3600 X124.16 Y118.64
G1 F1200 X122.75 Y117.24 E25.64046
G0 F3600 X122.37 Y117.70
G1 F1200 X123.77 Y119.11 E25.69597
G0 F3600 X123.39 Y119.57
G1 F1200 X121.99 Y118.17 E25.75149
G0 F3600 X121.60 Y118.63
G1 F1200 X123.00 Y120.03 E25.80700
G0 F3600 X122.62 Y120.50
G1 F1200 X121.22 Y119.10 E25.86247
G0 F3600 X120.83 Y119.56
G1 F1200 X122.23 Y120.96 E25.91797
G0 F3600 X121.80 Y121.38
G1 F1200 X120.41 Y119.98 E25.97332
G0 F3600 X119.97 Y120.39
G1 F1200 X121.36 Y121.79 E26.02860
G0 F3600 X120.93 Y122.20
G1 F1200 X119.53 Y120.80 E26.08390
G0 F3600 X119.10 Y121.22
G1 F1200 X120.49 Y122.61 E26.13911
G0 F3600 X120.05 Y123.02
G1 F1200 X118.66 Y121.63 E26.19431
G0 F3600 X118.19 Y122.01
G1 F1200 X119.60 Y123.42 E26.25026
G0 F3600 X119.11 Y123.78
G1 F1200 X117.70 Y122.36 E26.30623
G0 F3600 X117.21 Y122.72
G1 F1200 X118.62 Y124.13 E26.36216
G0 F3600 X118.13 Y124.49
G1 F1200 X116.71 Y123.08 E26.41807
G0 F3600 X116.22 Y123.44
G1 F1200 X117.63 Y124.85 E26.47396
G0 F3600 X117.14 Y125.20
G1 F1200 X115.71 Y123.77 E26.53070
G0 F3600 X115.16 Y124.07
G1 F1200 X116.61 Y125.52 E26.58822
G0 F3600 X116.07 Y125.82
G1 F1200 X114.61 Y124.37 E26.64574
G0 F3600 X114.07 Y124.67
G1 F1200 X115.52 Y126.12 E26.70329
G0 F3600 X114.97 Y126.43
G1 F1200 X113.52 Y124.97 E26.76086
G0 F3600 X112.95 Y125.25
G1 F1200 X114.42 Y126.73 E26.81927
G0 F3600 X113.86 Y127.01
G1 F1200 X112.34 Y125.49 E26.87954
G0 F3600 X111.73 Y125.73
G1 F1200 X113.25 Y127.25 E26.93979
G0 F3600 X112.64 Y127.49
G1 F1200 X111.13 Y125.98 E26.99996
G0 F3600 X110.52 Y126.22
G1 F1200 X112.04 Y127.74 E27.06015
G0 F3600 X111.43 Y127.97
G1 F1200 X109.87 Y126.42 E27.12175
G0 F3600 X109.20 Y126.59
G1 F1200 X110.82 Y128.21 E27.18594
G0 F3600 X110.14 Y128.39
G1 F1200 X108.52 Y126.77 E27.25013
G0 F3600 X107.85 Y126.94
G1 F1200 X109.47 Y128.56 E27.31432
G0 F3600 X108.79 Y128.73
G1 F1200 X107.17 Y127.11 E27.37859
G0 F3600 X106.42 Y127.21
G1 F1200 X108.12 Y128.91 E27.44596
G0 F3600 X107.43 Y129.07
G1 F1200 X105.67 Y127.30 E27.51585
G0 F3600 X104.91 Y127.40
G1 F1200 X106.68 Y129.16 E27.58575
G0 F3600 X105.92 Y129.26
G1 F1200 X104.16 Y127.49 E27.65567
G0 F3600 X103.32 Y127.50
G1 F1200 X105.17 Y129.35 E27.72893
G0 F3600 X104.42 Y129.45
G1 F1200 X102.47 Y127.50 E27.80598
G0 F3600 X101.62 Y127.50
G1 F1200 X103.60 Y129.48 E27.88416
G0 F3600 X102.75 Y129.47
G1 F1200 X100.75 Y127.48 E27.96316
G0 F3600 X99.78 Y127.36
G1 F1200 X101.90 Y129.47 E28.04698
G0 F3600 X101.05 Y129.47
G1 F1200 X98.81 Y127.24 E28.13566
G0 F3600 X97.84 Y127.11
G1 F1200 X100.11 Y129.39 E28.22585
G0 F3600 X99.14 Y129.26
G1 F1200 X96.70 Y126.82 E28.32249
G0 F3600 X95.56 Y126.53
G1 F1200 X98.17 Y129.14 E28.42583
G0 F3600 X97.16 Y128.98
G1 F1200 X94.34 Y126.16 E28.53756
G0 F3600 X94.27 Y126.34
G0 X92.87 Y125.78
G0 X92.94 Y125.60
G1 F1200 X96.02 Y128.69 E28.65968
G0 F3600 X94.88 Y128.39
G1 F1200 X91.43 Y124.94 E28.79628
G0 F3600 X91.33 Y125.11
G0 X90.87 Y126.68
G0 X90.78 Y126.84
G1 F1200 X78.24 Y114.31 E29.29300
G0 F3600 X78.41 Y114.23
G0 X77.66 Y112.62
G0 X77.49 Y112.70
G1 F1200 X83.28 Y118.50 E29.52258
G0 F3600 X83.14 Y118.62
G0 X80.79 Y118.29
G0 X80.65 Y118.40
G1 F1200 X86.34 Y124.10 E29.74823
G0 F3600 X86.45 Y123.95
G0 X86.64 Y122.11
G0 X86.75 Y121.96
G1 F1200 X92.24 Y127.45 E29.96559
G0 F3600 X92.30 Y127.28
G0 X93.71 Y127.83
G0 X93.64 Y128.01
G1 F1200 X89.54 Y123.91 E30.12785
G0 F3600 X89.45 Y124.08
G0 X88.97 Y125.63
G0 X88.88 Y125.79
G1 F1200 X79.17 Y116.08 E30.51288
G0 F3600 X79.32 Y115.97
G0 X80.98 Y115.61
G0 X81.14 Y115.51
G1 F1200 X77.02 Y111.39 E30.67620
G0 F3600 X76.62 Y110.13
G1 F1200 X80.10 Y113.61 E30.81405
G0 F3600 X79.92 Y113.69
G0 X79.17 Y112.09
G0 X79.34 Y112.01
G1 F1200 X76.26 Y108.93 E30.93598
G0 F3600 X76.06 Y107.88
G1 F1200 X78.87 Y110.69 E31.04726
G0 F3600 X78.46 Y109.43
G1 F1200 X75.86 Y106.83 E31.15033
G0 F3600 X75.68 Y105.80
G1 F1200 X78.14 Y108.27 E31.24820
G0 F3600 X77.95 Y107.22
G1 F1200 X75.62 Y104.89 E31.34046
G0 F3600 X75.56 Y103.99
G1 F1200 X77.75 Y106.17 E31.42704
G0 F3600 X77.62 Y105.19
G1 F1200 X75.50 Y103.08 E31.51075
G0 F3600 X75.49 Y102.21
G1 F1200 X77.56 Y104.29 E31.59293
G0 F3600 X77.50 Y103.38
G1 F1200 X75.54 Y101.42 E31.67086
G0 F3600 X75.59 Y100.62
G1 F1200 X77.45 Y102.48 E31.74462
G0 F3600 X77.50 Y101.68
G1 F1200 X75.64 Y99.82 E31.81840
G0 F3600 X75.70 Y99.03
G1 F1200 X77.55 Y100.88 E31.89178
G0 F3600 X77.60 Y100.08
G1 F1200 X75.83 Y98.32 E31.96180
G0 F3600 X75.97 Y97.61
G1 F1200 X77.66 Y99.29 E32.02869
G0 F3600 X77.79 Y98.58
