;Generated with Cura_SteamEngine 13.12
M109 T0 S220.000000
T0
;Sliced ?filename? at: Sat 04-01-2014 10:30:19
;Basic settings: Layer height: 0.1 Walls: 0.5 Fill: 25
;Print time: #P_TIME#
;Filament used: #F_AMNT#m #F_WGHT#g
;Filament cost: #F_COST#
G21        ;metric values
G90        ;absolute positioning
M107       ;start with the fan off
G28 X0 Y0  ;move X/Y to min endstops
G28 Z0     ;move Z to min endstops
G1 Z15.0 F?max_z_speed? ;move the platform down 15mm
G92 E0                  ;zero the extruded length
G1 F200 E3              ;extrude 3mm of feed stock
G92 E0                  ;zero the extruded length again
G1 F9000
M117 Printing...

;Layer count: 587
;LAYER:0
M107
G0 F1800 X88.22 Y87.79 Z0.30
;TYPE:SKIRT
G1 F2400 E0.00000
G1 F1200 X88.36 Y87.67 E0.00448
G1 X90.29 Y86.04 E0.06640
G1 X90.47 Y85.91 E0.07197
G1 X92.11 Y84.83 E0.12009
G1 X92.35 Y84.70 E0.12690
G1 X95.55 Y83.22 E0.21326
G1 X95.81 Y83.13 E0.21995
G1 X97.62 Y82.60 E0.26616
G1 X97.86 Y82.54 E0.27224
G1 X100.85 Y82.08 E0.34635
G1 X101.07 Y82.05 E0.35199
G1 X102.59 Y82.01 E0.38905
G1 X102.77 Y82.01 E0.39351
G1 X104.90 Y82.15 E0.44599
G1 X105.11 Y82.18 E0.45115
G1 X107.14 Y82.54 E0.50162
G1 X107.33 Y82.58 E0.50633
G1 X109.02 Y83.07 E0.54960
G1 X109.27 Y83.16 E0.55601
G1 X112.34 Y84.53 E0.63850
G1 X112.57 Y84.65 E0.64493
G1 X114.14 Y85.64 E0.69043
G1 X114.31 Y85.75 E0.69525
G1 X115.94 Y87.04 E0.74629
G1 X116.14 Y87.21 E0.75253
G1 X118.18 Y89.31 E0.82431
G1 X118.31 Y89.46 E0.82931
G1 X118.99 Y90.33 E0.85639
G1 X119.07 Y90.45 E0.86004
G1 X120.11 Y92.03 E0.90637
G1 X120.22 Y92.21 E0.91143
G1 X121.23 Y94.19 E0.96592
G1 X121.32 Y94.40 E0.97153
G1 X122.12 Y96.57 E1.02828
G1 X122.18 Y96.78 E1.03373
G1 X122.66 Y98.80 E1.08457
G1 X122.69 Y99.01 E1.08978
G1 X122.95 Y101.13 E1.14212
G1 X122.96 Y101.30 E1.14625
G1 X123.00 Y102.55 E1.17688
G1 X122.99 Y102.73 E1.18137
G1 X122.83 Y105.10 E1.23956
G1 X122.80 Y105.31 E1.24477
G1 X122.47 Y107.10 E1.28940
G1 X122.43 Y107.27 E1.29370
G1 X121.96 Y108.95 E1.33644
G1 X121.88 Y109.16 E1.34207
G1 X120.79 Y111.74 E1.41071
G1 X120.67 Y111.98 E1.41723
G1 X119.43 Y114.06 E1.47663
G1 X119.30 Y114.24 E1.48215
G1 X118.02 Y115.89 E1.53315
G1 X117.88 Y116.05 E1.53855
G1 X116.26 Y117.69 E1.59503
G1 X116.11 Y117.83 E1.60012
G1 X114.67 Y118.99 E1.64533
G1 X114.49 Y119.13 E1.65095
G1 X112.21 Y120.55 E1.71675
G1 X112.03 Y120.65 E1.72175
G1 X110.82 Y121.24 E1.75471
G1 X110.68 Y121.30 E1.75867
G1 X108.90 Y121.98 E1.80530
G1 X108.69 Y122.04 E1.81069
G1 X106.33 Y122.64 E1.87042
G1 X106.15 Y122.68 E1.87492
G1 X104.99 Y122.85 E1.90350
G1 X104.88 Y122.86 E1.90629
G1 X103.70 Y122.97 E1.93541
G1 X103.58 Y122.97 E1.93826
G1 X102.51 Y123.00 E1.96450
G1 X102.34 Y123.00 E1.96862
G1 X100.08 Y122.86 E2.02426
G1 X99.89 Y122.84 E2.02900
G1 X98.33 Y122.58 E2.06767
G1 X98.16 Y122.54 E2.07202
G1 X96.33 Y122.05 E2.11844
G1 X96.15 Y122.00 E2.12299
G1 X94.45 Y121.36 E2.16751
G1 X94.27 Y121.28 E2.17230
G1 X92.43 Y120.36 E2.22278
G1 X92.25 Y120.26 E2.22785
G1 X90.53 Y119.14 E2.27817
G1 X90.38 Y119.04 E2.28265
G1 X89.15 Y118.06 E2.32111
G1 X89.02 Y117.95 E2.32528
G1 X87.72 Y116.71 E2.36945
G1 X87.59 Y116.57 E2.37392
G1 X86.41 Y115.21 E2.41814
G1 X86.30 Y115.07 E2.42242
G1 X85.28 Y113.63 E2.46577
G1 X85.13 Y113.39 E2.47272
G1 X83.44 Y110.04 E2.56485
G1 X83.33 Y109.78 E2.57154
G1 X82.82 Y108.25 E2.61127
G1 X82.77 Y108.07 E2.61572
G1 X82.31 Y106.07 E2.66603
G1 X82.28 Y105.87 E2.67113
G1 X82.04 Y103.84 E2.72120
G1 X82.03 Y103.67 E2.72521
G1 X82.00 Y102.50 E2.75405
G1 X82.00 Y102.34 E2.75792
G1 X82.12 Y100.31 E2.80790
G1 X82.14 Y100.10 E2.81288
G1 X82.46 Y98.17 E2.86102
G1 X82.50 Y97.99 E2.86549
G1 X82.93 Y96.39 E2.90606
G1 X82.98 Y96.23 E2.91023
G1 X83.58 Y94.60 E2.95274
G1 X83.67 Y94.40 E2.95817
G1 X84.86 Y92.06 E3.02249
G1 X84.97 Y91.88 E3.02771
G1 X85.85 Y90.54 E3.06683
G1 X85.96 Y90.39 E3.07148
G1 X87.34 Y88.71 E3.12491
G1 X87.45 Y88.58 E3.12896
G1 X88.22 Y87.79 E3.15599
G0 F1800 X88.57 Y88.15
G1 F1200 X88.69 Y88.04 E3.15987
G1 X90.60 Y86.43 E3.22114
G1 X90.75 Y86.32 E3.22595
G1 X92.37 Y85.26 E3.27326
G1 X92.58 Y85.14 E3.27912
G1 X95.75 Y83.68 E3.36460
G1 X95.97 Y83.60 E3.37039
G1 X97.74 Y83.08 E3.41576
G1 X97.95 Y83.03 E3.42101
G1 X100.91 Y82.57 E3.49435
G1 X101.11 Y82.55 E3.49927
G1 X102.59 Y82.51 E3.53565
G1 X102.75 Y82.51 E3.53950
G1 X104.86 Y82.65 E3.59134
G1 X105.04 Y82.67 E3.59583
G1 X107.04 Y83.03 E3.64565
G1 X107.20 Y83.07 E3.64971
G1 X108.87 Y83.55 E3.69226
G1 X109.08 Y83.62 E3.69779
G1 X112.12 Y84.98 E3.77942
G1 X112.32 Y85.09 E3.78501
G1 X113.87 Y86.06 E3.82976
G1 X114.01 Y86.15 E3.83392
G1 X115.62 Y87.42 E3.88423
G1 X115.79 Y87.57 E3.88964
G1 X117.81 Y89.64 E3.96068
G1 X117.92 Y89.78 E3.96500
G1 X118.59 Y90.63 E3.99152
G1 X118.66 Y90.73 E3.99466
G1 X119.69 Y92.29 E4.04041
G1 X119.78 Y92.45 E4.04484
G1 X120.78 Y94.40 E4.09859
G1 X120.86 Y94.58 E4.10343
G1 X121.64 Y96.73 E4.15945
G1 X121.70 Y96.91 E4.16418
G1 X122.17 Y98.90 E4.21431
G1 X122.20 Y99.08 E4.21884
G1 X122.45 Y101.18 E4.27057
G1 X122.46 Y101.32 E4.27413
G1 X122.50 Y102.55 E4.30418
G1 X122.49 Y102.71 E4.30808
G1 X122.33 Y105.05 E4.36563
G1 X122.31 Y105.23 E4.37013
G1 X121.98 Y107.00 E4.41410
G1 X121.95 Y107.15 E4.41788
G1 X121.48 Y108.80 E4.45992
G1 X121.41 Y108.98 E4.46481
G1 X120.34 Y111.53 E4.53264
G1 X120.24 Y111.74 E4.53830
G1 X119.01 Y113.79 E4.59687
G1 X118.90 Y113.95 E4.60165
G1 X117.64 Y115.57 E4.65193
G1 X117.51 Y115.71 E4.65664
G1 X115.91 Y117.33 E4.71241
G1 X115.78 Y117.45 E4.71682
G1 X114.37 Y118.60 E4.76130
G1 X114.21 Y118.71 E4.76616
G1 X111.96 Y120.12 E4.83124
G1 X111.80 Y120.21 E4.83560
G1 X110.62 Y120.78 E4.86796
G1 X110.49 Y120.84 E4.87141
G1 X108.73 Y121.50 E4.91740
G1 X108.55 Y121.56 E4.92205
G1 X106.22 Y122.15 E4.98112
G1 X106.06 Y122.18 E4.98505
G1 X104.93 Y122.35 E5.01316
G1 X104.83 Y122.36 E5.01556
G1 X103.66 Y122.47 E5.04428
G1 X103.56 Y122.47 E5.04674
G1 X102.51 Y122.50 E5.07251
G1 X102.36 Y122.50 E5.07612
G1 X100.12 Y122.36 E5.13117
G1 X99.96 Y122.34 E5.13529
G1 X98.42 Y122.08 E5.17337
G1 X98.28 Y122.05 E5.17711
G1 X96.47 Y121.57 E5.22292
G1 X96.32 Y121.52 E5.22688
G1 X94.64 Y120.89 E5.27080
G1 X94.48 Y120.83 E5.27494
G1 X92.67 Y119.92 E5.32477
G1 X92.51 Y119.83 E5.32917
G1 X90.81 Y118.73 E5.37884
G1 X90.68 Y118.64 E5.38272
G1 X89.47 Y117.68 E5.42061
G1 X89.36 Y117.58 E5.42422
G1 X88.07 Y116.35 E5.46783
G1 X87.96 Y116.24 E5.47170
G1 X86.80 Y114.89 E5.51533
G1 X86.70 Y114.77 E5.51904
G1 X85.70 Y113.36 E5.56164
G1 X85.57 Y113.15 E5.56765
G1 X83.89 Y109.83 E5.65885
G1 X83.80 Y109.61 E5.66469
G1 X83.30 Y108.10 E5.70369
G1 X83.25 Y107.95 E5.70754
G1 X82.80 Y105.97 E5.75719
G1 X82.77 Y105.79 E5.76162
G1 X82.54 Y103.79 E5.81110
G1 X82.53 Y103.65 E5.81454
G1 X82.50 Y102.50 E5.84284
G1 X82.50 Y102.36 E5.84625
G1 X82.62 Y100.35 E5.89563
G1 X82.64 Y100.17 E5.89995
G1 X82.95 Y98.26 E5.94745
G1 X82.99 Y98.11 E5.95129
G1 X83.41 Y96.53 E5.99133
G1 X83.46 Y96.39 E5.99495
G1 X84.05 Y94.79 E6.03681
G1 X84.12 Y94.61 E6.04150
G1 X85.30 Y92.30 E6.10512
G1 X85.39 Y92.14 E6.10966
G1 X86.26 Y90.83 E6.14811
G1 X86.36 Y90.70 E6.15214
G1 X87.72 Y89.03 E6.20502
G1 X87.82 Y88.92 E6.20851
G1 X88.57 Y88.15 E6.23496
G0 F1800 X98.50 Y92.16
G1 F1200 X98.32 Y92.71 E6.24931
G1 X98.26 Y93.04 E6.25752
G1 X98.22 Y93.48 E6.26822
G1 X98.26 Y94.04 E6.28211
G1 X98.42 Y94.68 E6.29822
G1 X98.56 Y95.06 E6.30805
G1 X98.70 Y95.32 E6.31546
G1 X98.96 Y95.70 E6.32670
G1 X99.18 Y95.96 E6.33493
G1 X99.60 Y96.35 E6.34898
G1 X99.88 Y96.55 E6.35759
G1 X100.19 Y96.72 E6.36619
G1 X100.72 Y96.94 E6.38037
G1 X101.04 Y97.03 E6.38832
G1 X101.56 Y97.10 E6.40130
G1 X101.81 Y97.11 E6.40738
G1 X102.08 Y97.09 E6.41403
G1 X102.90 Y96.93 E6.43441
G1 X103.11 Y96.85 E6.44005
G1 X103.62 Y96.60 E6.45395
G1 X103.94 Y96.39 E6.46329
G1 X104.37 Y96.01 E6.47745
G1 X104.84 Y95.39 E6.49648
G1 X105.00 Y95.11 E6.50433
G1 X105.14 Y94.79 E6.51304
G1 X105.29 Y94.25 E6.52663
G1 X105.36 Y93.77 E6.53872
G1 X105.37 Y93.56 E6.54377
G1 X105.33 Y93.03 E6.55688
G1 X105.15 Y92.30 E6.57534
G1 X105.13 Y92.23 E6.57703
G1 X104.94 Y91.84 E6.58760
G1 X104.56 Y91.28 E6.60437
G1 X104.11 Y90.82 E6.61995
G1 X103.56 Y90.43 E6.63646
G1 X103.20 Y90.25 E6.64652
G1 X102.59 Y90.05 E6.66216
G1 X102.43 Y90.01 E6.66608
G1 X102.00 Y89.96 E6.67690
G1 X101.83 Y89.96 E6.68090
G1 X101.28 Y90.00 E6.69440
G1 X100.71 Y90.14 E6.70891
G1 X99.98 Y90.46 E6.72846
G1 X99.90 Y90.50 E6.73073
G1 X99.42 Y90.87 E6.74555
G1 X99.21 Y91.08 E6.75280
G1 X98.78 Y91.63 E6.77001
G1 X98.50 Y92.16 E6.78455
G0 F1800 X98.96 Y92.36
G1 F1200 X98.80 Y92.84 E6.79713
G1 X98.75 Y93.11 E6.80387
G1 X98.72 Y93.47 E6.81273
G1 X98.76 Y93.97 E6.82487
G1 X98.89 Y94.53 E6.83913
G1 X99.02 Y94.84 E6.84725
G1 X99.14 Y95.07 E6.85361
G1 X99.35 Y95.40 E6.86320
G1 X99.54 Y95.61 E6.87013
G1 X99.91 Y95.96 E6.88264
G1 X100.16 Y96.13 E6.89006
G1 X100.41 Y96.27 E6.89701
G1 X100.88 Y96.46 E6.90958
G1 X101.14 Y96.53 E6.91615
G1 X101.60 Y96.60 E6.92764
G1 X101.80 Y96.61 E6.93245
G1 X102.03 Y96.60 E6.93800
G1 X102.76 Y96.45 E6.95642
G1 X102.91 Y96.39 E6.96032
G1 X103.38 Y96.17 E6.97301
G1 X103.63 Y96.00 E6.98056
G1 X104.00 Y95.67 E6.99265
G1 X104.43 Y95.12 E7.00966
G1 X104.55 Y94.90 E7.01591
G1 X104.67 Y94.61 E7.02345
G1 X104.80 Y94.15 E7.03513
G1 X104.86 Y93.72 E7.04578
G1 X104.87 Y93.57 E7.04946
G1 X104.83 Y93.10 E7.06105
G1 X104.67 Y92.44 E7.07775
G1 X104.66 Y92.42 E7.07835
G1 X104.51 Y92.10 E7.08716
G1 X104.17 Y91.60 E7.10197
G1 X103.79 Y91.20 E7.11541
G1 X103.31 Y90.86 E7.12973
G1 X103.00 Y90.71 E7.13820
G1 X102.47 Y90.53 E7.15197
G1 X102.35 Y90.51 E7.15482
G1 X101.96 Y90.46 E7.16465
G1 X101.85 Y90.46 E7.16730
G1 X101.36 Y90.50 E7.17925
G1 X100.86 Y90.61 E7.19178
G1 X100.21 Y90.90 E7.20921
G1 X100.17 Y90.92 E7.21039
G1 X99.75 Y91.25 E7.22350
G1 X99.58 Y91.41 E7.22915
G1 X99.21 Y91.90 E7.24429
G1 X98.96 Y92.36 E7.25697
G1 F2400 E2.75697
G0 F1800 X95.27 Y90.80
;TYPE:WALL-OUTER
G1 F2400 E7.25697
G1 F1200 X94.93 Y91.83 E7.28363
G1 X94.78 Y92.58 E7.30222
G1 X94.72 Y93.32 E7.32043
G1 X94.72 Y93.58 E7.32685
G1 X94.80 Y94.60 E7.35186
G1 X95.07 Y95.74 E7.38069
G1 X95.38 Y96.52 E7.40126
G1 X95.69 Y97.12 E7.41791
G1 X96.15 Y97.81 E7.43808
G1 X96.16 Y97.82 E7.43844
G1 X96.65 Y98.40 E7.45709
G1 X97.39 Y99.08 E7.48176
G1 X98.01 Y99.52 E7.50039
G1 X98.68 Y99.89 E7.51902
G1 X99.61 Y100.26 E7.54366
G1 X100.35 Y100.46 E7.56234
G1 X101.26 Y100.59 E7.58500
G1 X101.85 Y100.61 E7.59940
G1 X102.53 Y100.57 E7.61619
G1 X103.84 Y100.31 E7.64880
G1 X104.48 Y100.08 E7.66560
G1 X105.38 Y99.64 E7.69025
G1 X106.08 Y99.17 E7.71089
G1 X106.83 Y98.51 E7.73540
G1 X107.02 Y98.31 E7.74199
G1 X107.77 Y97.33 E7.77223
G1 X107.78 Y97.32 E7.77267
G1 X108.15 Y96.65 E7.79131
G1 X108.45 Y95.95 E7.80995
G1 X108.72 Y94.98 E7.83468
G1 X108.85 Y94.07 E7.85737
G1 X108.87 Y93.49 E7.87155
G1 X108.79 Y92.47 E7.89668
G1 X108.50 Y91.25 E7.92732
G1 X108.34 Y90.85 E7.93795
G1 X107.98 Y90.09 E7.95860
G1 X107.27 Y89.05 E7.98950
G1 X106.40 Y88.16 E8.01987
G1 X106.39 Y88.14 E8.02041
G1 X105.36 Y87.42 E8.05128
G1 X104.53 Y87.00 E8.07414
G1 X103.50 Y86.66 E8.10067
G1 X103.01 Y86.56 E8.11297
G1 X102.25 Y86.47 E8.13163
G1 X101.75 Y86.45 E8.14387
G1 X100.73 Y86.53 E8.16898
G1 X99.58 Y86.81 E8.19797
G1 X98.36 Y87.34 E8.23059
G1 X97.92 Y87.61 E8.24325
G1 X97.12 Y88.22 E8.26788
G1 X96.59 Y88.74 E8.28622
G1 X95.81 Y89.75 E8.31751
G1 X95.27 Y90.80 E8.34642
G0 F1800 X94.94 Y90.69
G0 X94.34 Y88.57
G0 X94.17 Y88.26
G1 F1200 X97.09 Y86.92 E8.42516
G1 X98.62 Y86.47 E8.46426
G1 X101.33 Y86.05 E8.53160
G1 X102.62 Y86.01 E8.56314
G1 X104.52 Y86.13 E8.60992
G1 X106.33 Y86.46 E8.65494
G1 X107.78 Y86.87 E8.69187
G1 X110.57 Y88.12 E8.76698
G1 X111.93 Y88.97 E8.80623
G1 X113.37 Y90.10 E8.85104
G1 X115.22 Y92.01 E8.91630
G1 X115.78 Y92.72 E8.93834
G1 X116.71 Y94.13 E8.97995
G1 X117.61 Y95.89 E9.02841
G1 X118.32 Y97.83 E9.07897
G1 X118.74 Y99.60 E9.12361
G1 X118.96 Y101.51 E9.17062
G1 X119.00 Y102.56 E9.19657
G1 X118.85 Y104.70 E9.24904
G1 X118.56 Y106.27 E9.28827
G1 X118.14 Y107.74 E9.32558
G1 X117.17 Y110.05 E9.38714
G1 X116.06 Y111.89 E9.43983
G1 X114.95 Y113.33 E9.48435
G1 X113.49 Y114.80 E9.53509
G1 X112.26 Y115.81 E9.57419
G1 X110.19 Y117.10 E9.63403
G1 X109.17 Y117.59 E9.66178
G1 X107.58 Y118.20 E9.70336
G1 X105.45 Y118.74 E9.75725
G1 X104.47 Y118.88 E9.78167
G1 X103.41 Y118.98 E9.80764
G1 X102.50 Y119.00 E9.82988
G1 X100.44 Y118.87 E9.88066
G1 X99.09 Y118.65 E9.91419
G1 X97.46 Y118.21 E9.95565
G1 X95.96 Y117.65 E9.99469
G1 X94.32 Y116.83 E10.03974
G1 X92.78 Y115.84 E10.08465
G1 X91.71 Y114.99 E10.11819
G1 X90.55 Y113.88 E10.15747
G1 X89.51 Y112.68 E10.19653
G1 X88.63 Y111.44 E10.23370
G1 X87.08 Y108.37 E10.31808
G1 X86.65 Y107.08 E10.35132
G1 X86.24 Y105.29 E10.39650
G1 X86.03 Y103.48 E10.44116
G1 X86.00 Y102.48 E10.46557
G1 X86.11 Y100.65 E10.51058
G1 X86.39 Y98.92 E10.55368
G1 X86.77 Y97.53 E10.58882
G1 X87.29 Y96.10 E10.62623
G1 X88.37 Y93.99 E10.68437
G1 X89.13 Y92.84 E10.71804
G1 X90.38 Y91.31 E10.76648
G1 X91.02 Y90.66 E10.78884
G1 X92.77 Y89.18 E10.84495
G1 X94.17 Y88.26 E10.88606
G0 F1800 X94.37 Y88.36
;TYPE:FILL
G1 F1200 X95.67 Y89.65 E10.93082
G0 F1800 X95.97 Y89.25
G1 F1200 X94.86 Y88.14 E10.96946
G0 F1800 X95.34 Y87.92
G1 F1200 X96.28 Y88.85 E11.00191
G0 F1800 X96.61 Y88.47
G1 F1200 X95.82 Y87.69 E11.02896
G0 F1800 X96.31 Y87.47
G1 F1200 X97.16 Y87.97 E11.05157
G1 X97.04 Y87.14 E11.07120
G1 X97.98 Y87.37 E11.08739
G1 X98.11 Y86.80 E11.09972
G1 X98.82 Y86.80 E11.10977
G1 X99.17 Y86.80 E11.11833
G1 F2400 E6.61833
G0 F1800 X102.81 Y86.19
G1 F2400 E11.11833
G1 F1200 X103.28 Y86.31 E11.12477
G1 X103.95 Y86.62 E11.14281
G0 F1800 X104.33 Y86.29
G1 F1200 X105.15 Y87.11 E11.17124
G0 F1800 X105.17 Y86.43
G1 F1200 X118.59 Y99.85 E11.63665
G0 F1800 X118.68 Y100.65
G1 F1200 X108.22 Y90.18 E11.99960
G0 F1800 X108.71 Y91.38
G1 F1200 X118.78 Y101.46 E12.34884
G0 F1800 X118.81 Y102.19
G1 F1200 X108.94 Y92.32 E12.69112
G0 F1800 X109.02 Y93.11
G1 F1200 X118.80 Y102.89 E13.03021
G0 F1800 X118.75 Y103.55
G1 F1200 X109.04 Y93.83 E13.36704
G0 F1800 X108.97 Y94.47
G1 F1200 X118.70 Y104.21 E13.70455
G0 F1800 X118.64 Y104.85
G1 F1200 X108.87 Y95.08 E14.04319
G0 F1800 X108.71 Y95.63
G1 F1200 X118.53 Y105.45 E14.38349
G0 F1800 X118.42 Y106.05
G1 F1200 X108.54 Y96.17 E14.72598
G0 F1800 X108.33 Y96.67
G1 F1200 X118.28 Y106.61 E15.07082
G0 F1800 X118.12 Y107.16
G1 F1200 X108.08 Y97.12 E15.41889
G0 F1800 X107.81 Y97.56
G1 F1200 X117.96 Y107.71 E15.77095
G0 F1800 X117.75 Y108.21
G1 F1200 X107.50 Y97.96 E16.12633
G0 F1800 X107.20 Y98.36
G1 F1200 X117.54 Y108.71 E16.48508
G0 F1800 X117.33 Y109.20
G1 F1200 X106.85 Y98.72 E16.84850
G0 F1800 X106.48 Y99.05
G1 F1200 X117.12 Y109.70 E17.21770
G0 F1800 X116.89 Y110.17
G1 F1200 X106.09 Y99.37 E17.59221
G0 F1800 X105.67 Y99.65
G1 F1200 X116.62 Y110.61 E17.97219
G0 F1800 X116.36 Y111.06
G1 F1200 X105.22 Y99.91 E18.35855
G0 F1800 X104.74 Y100.15
G1 F1200 X116.09 Y111.50 E18.75213
G0 F1800 X115.81 Y111.93
G1 F1200 X104.24 Y100.35 E19.15342
G0 F1800 X103.70 Y100.51
G1 F1200 X115.50 Y112.32 E19.56279
G0 F1800 X115.19 Y112.72
G1 F1200 X103.11 Y100.63 E19.98184
G0 F1800 X102.51 Y100.75
G1 F1200 X114.89 Y113.12 E20.41073
G0 F1800 X114.54 Y113.48
G1 F1200 X101.85 Y100.79 E20.85099
G0 F1800 X101.10 Y100.74
G1 F1200 X114.19 Y113.84 E21.30508
G0 F1800 X113.84 Y114.20
G1 F1200 X100.26 Y100.62 E21.77582
G0 F1800 X99.24 Y100.30
G1 F1200 X113.49 Y114.55 E22.26984
G0 F1800 X113.11 Y114.88
G1 F1200 X97.83 Y99.60 E22.79962
G1 F2400 E18.29962
G0 F1800 X95.75 Y97.52
G1 F2400 E22.79962
G1 F1200 X90.12 Y91.89 E22.99463
G0 F1800 X89.81 Y92.28
G1 F1200 X112.72 Y115.20 E23.78916
G0 F1800 X112.33 Y115.51
G1 F1200 X89.49 Y92.67 E24.58120
G0 F1800 X89.18 Y93.07
G1 F1200 X111.92 Y115.81 E25.36949
G0 F1800 X111.48 Y116.08
G1 F1200 X88.90 Y93.50 E26.15248
G0 F1800 X88.62 Y93.92
G1 F1200 X111.05 Y116.35 E26.93015
G0 F1800 X110.61 Y116.62
G1 F1200 X88.37 Y94.38 E27.70154
G0 F1800 X88.13 Y94.85
G1 F1200 X110.18 Y116.90 E28.46610
G0 F1800 X109.71 Y117.14
G1 F1200 X87.89 Y95.31 E29.22270
G0 F1800 X87.65 Y95.78
G1 F1200 X109.23 Y117.37 E29.97107
G0 F1800 X108.73 Y117.57
G1 F1200 X87.42 Y96.26 E30.70996
G0 F1800 X87.23 Y96.78
G1 F1200 X108.22 Y117.76 E31.43768
G0 F1800 X107.71 Y117.96
