;Generated with Cura_SteamEngine 13.12
M109 T0 S230.000000
T0
;Sliced ?filename? at: Sun 26-01-2014 21:37:39
;Basic settings: Layer height: 0.05 Walls: 0.6 Fill: 15
;Print time: #P_TIME#
;Filament used: #F_AMNT#m #F_WGHT#g
;Filament cost: #F_COST#
G21        ;metric values
G90        ;absolute positioning
M107       ;start with the fan off
G28 X0 Y0  ;move X/Y to min endstops
G28 Z0     ;move Z to min endstops
G1 Z15.0 F?max_z_speed? ;move the platform down 15mm
G92 E0                  ;zero the extruded length
G1 F200 E3              ;extrude 3mm of feed stock
G92 E0                  ;zero the extruded length again
G1 F9000
M117 Printing...

;Layer count: 304
;LAYER:0
M107
G0 F3600 X66.70 Y96.99 Z0.30
;TYPE:SKIRT
G1 F2400 E0.00000
G1 F1200 X138.30 Y96.99 E2.00615
G1 X138.30 Y108.01 E2.31486
G1 X66.70 Y108.01 E4.32101
G1 X66.70 Y96.99 E4.62973
G1 F2400 E0.12973
G0 F3600 X70.30 Y100.59
;TYPE:WALL-OUTER
G1 F2400 E4.62973
G1 F1200 X134.70 Y100.59 E6.43414
G1 X134.70 Y104.41 E6.54112
G1 X70.30 Y104.41 E8.34553
G1 X70.30 Y100.59 E8.45251
G0 F3600 X70.68 Y100.80
;TYPE:FILL
G1 F1200 X74.08 Y104.20 E8.58717
G0 F3600 X73.23 Y104.20
G1 F1200 X70.51 Y101.48 E8.69487
G0 F3600 X70.51 Y102.33
G1 F1200 X72.38 Y104.20 E8.76897
G0 F3600 X71.53 Y104.20
G1 F1200 X70.51 Y103.18 E8.80943
G0 F3600 X70.51 Y104.03
G1 F1200 X70.68 Y104.20 E8.81628
G0 F3600 X70.68 Y104.01
G0 X71.53 Y100.99
G0 X71.53 Y100.80
G1 F1200 X74.93 Y104.20 E8.95097
G0 F3600 X75.77 Y104.20
G1 F1200 X72.38 Y100.80 E9.08563
G0 F3600 X73.22 Y100.80
G1 F1200 X76.62 Y104.20 E9.22031
G0 F3600 X77.47 Y104.20
G1 F1200 X74.07 Y100.80 E9.35498
G0 F3600 X74.92 Y100.80
G1 F1200 X78.32 Y104.20 E9.48966
G0 F3600 X79.17 Y104.20
G1 F1200 X75.77 Y100.80 E9.62433
G0 F3600 X76.62 Y100.80
G1 F1200 X80.02 Y104.20 E9.75901
G0 F3600 X80.86 Y104.20
G1 F1200 X77.47 Y100.80 E9.89368
G0 F3600 X78.31 Y100.80
G1 F1200 X81.71 Y104.20 E10.02836
G0 F3600 X82.56 Y104.20
G1 F1200 X79.16 Y100.80 E10.16302
G0 F3600 X80.01 Y100.80
G1 F1200 X83.41 Y104.20 E10.29771
G0 F3600 X84.26 Y104.20
G1 F1200 X80.86 Y100.80 E10.43237
G0 F3600 X81.71 Y100.80
G1 F1200 X85.11 Y104.20 E10.56704
G0 F3600 X85.96 Y104.20
G1 F1200 X82.56 Y100.80 E10.70170
G0 F3600 X83.41 Y100.80
G1 F1200 X86.80 Y104.20 E10.83637
G0 F3600 X87.65 Y104.20
G1 F1200 X84.25 Y100.80 E10.97103
G0 F3600 X85.10 Y100.80
G1 F1200 X88.50 Y104.20 E11.10570
G0 F3600 X89.35 Y104.20
G1 F1200 X85.95 Y100.80 E11.24038
G0 F3600 X86.80 Y100.80
G1 F1200 X90.20 Y104.20 E11.37504
G0 F3600 X91.05 Y104.20
G1 F1200 X87.65 Y100.80 E11.50973
G0 F3600 X88.50 Y100.80
G1 F1200 X91.89 Y104.20 E11.64439
G0 F3600 X92.74 Y104.20
G1 F1200 X89.35 Y100.80 E11.77908
G0 F3600 X90.19 Y100.80
G1 F1200 X93.59 Y104.20 E11.91374
G0 F3600 X94.44 Y104.20
G1 F1200 X91.04 Y100.80 E12.04843
G0 F3600 X91.89 Y100.80
G1 F1200 X95.29 Y104.20 E12.18309
G0 F3600 X96.14 Y104.20
G1 F1200 X92.74 Y100.80 E12.31777
G0 F3600 X93.59 Y100.80
G1 F1200 X96.99 Y104.20 E12.45244
G0 F3600 X97.83 Y104.20
G1 F1200 X94.44 Y100.80 E12.58712
G0 F3600 X95.29 Y100.80
G1 F1200 X98.68 Y104.20 E12.72179
G0 F3600 X99.53 Y104.20
G1 F1200 X96.13 Y100.80 E12.85647
G0 F3600 X96.98 Y100.80
G1 F1200 X100.38 Y104.20 E12.99114
G0 F3600 X101.23 Y104.20
G1 F1200 X97.83 Y100.80 E13.12580
G0 F3600 X98.68 Y100.80
G1 F1200 X102.08 Y104.20 E13.26046
G0 F3600 X102.93 Y104.20
G1 F1200 X99.53 Y100.80 E13.39513
G0 F3600 X100.38 Y100.80
G1 F1200 X103.77 Y104.20 E13.52979
G0 F3600 X104.62 Y104.20
G1 F1200 X101.22 Y100.80 E13.66446
G0 F3600 X102.07 Y100.80
G1 F1200 X105.47 Y104.20 E13.79914
G0 F3600 X106.32 Y104.20
G1 F1200 X102.92 Y100.80 E13.93381
G0 F3600 X103.77 Y100.80
G1 F1200 X107.17 Y104.20 E14.06849
G0 F3600 X108.02 Y104.20
G1 F1200 X104.62 Y100.80 E14.20316
G0 F3600 X105.47 Y100.80
G1 F1200 X108.87 Y104.20 E14.33784
G0 F3600 X109.71 Y104.20
G1 F1200 X106.32 Y100.80 E14.47250
G0 F3600 X107.16 Y100.80
G1 F1200 X110.56 Y104.20 E14.60719
G0 F3600 X111.41 Y104.20
G1 F1200 X108.01 Y100.80 E14.74185
G0 F3600 X108.86 Y100.80
G1 F1200 X112.26 Y104.20 E14.87654
G0 F3600 X113.11 Y104.20
G1 F1200 X109.71 Y100.80 E15.01120
G0 F3600 X110.56 Y100.80
G1 F1200 X113.96 Y104.20 E15.14589
G0 F3600 X114.81 Y104.20
G1 F1200 X111.41 Y100.80 E15.28055
G0 F3600 X112.26 Y100.80
G1 F1200 X115.65 Y104.20 E15.41521
G0 F3600 X116.50 Y104.20
G1 F1200 X113.10 Y100.80 E15.54988
G0 F3600 X113.95 Y100.80
G1 F1200 X117.35 Y104.20 E15.68454
G0 F3600 X118.20 Y104.20
G1 F1200 X114.80 Y100.80 E15.81921
G0 F3600 X115.65 Y100.80
G1 F1200 X119.05 Y104.20 E15.95387
G0 F3600 X119.90 Y104.20
G1 F1200 X116.50 Y100.80 E16.08856
G0 F3600 X117.35 Y100.80
G1 F1200 X120.75 Y104.20 E16.22322
G0 F3600 X121.59 Y104.20
G1 F1200 X118.19 Y100.80 E16.35790
G0 F3600 X119.04 Y100.80
G1 F1200 X122.44 Y104.20 E16.49257
G0 F3600 X123.29 Y104.20
G1 F1200 X119.89 Y100.80 E16.62725
G0 F3600 X120.74 Y100.80
G1 F1200 X124.14 Y104.20 E16.76192
G0 F3600 X124.99 Y104.20
G1 F1200 X121.59 Y100.80 E16.89660
G0 F3600 X122.44 Y100.80
G1 F1200 X125.84 Y104.20 E17.03127
G0 F3600 X126.68 Y104.20
G1 F1200 X123.29 Y100.80 E17.16595
G0 F3600 X124.14 Y100.80
G1 F1200 X127.53 Y104.20 E17.30061
G0 F3600 X128.38 Y104.20
G1 F1200 X124.98 Y100.80 E17.43530
G0 F3600 X125.83 Y100.80
G1 F1200 X129.23 Y104.20 E17.56996
G0 F3600 X130.08 Y104.20
G1 F1200 X126.68 Y100.80 E17.70463
G0 F3600 X127.53 Y100.80
G1 F1200 X130.93 Y104.20 E17.83929
G0 F3600 X131.78 Y104.20
G1 F1200 X128.38 Y100.80 E17.97396
G0 F3600 X129.23 Y100.80
G1 F1200 X132.62 Y104.20 E18.10862
G0 F3600 X133.47 Y104.20
G1 F1200 X130.07 Y100.80 E18.24329
G0 F3600 X130.92 Y100.80
G1 F1200 X134.32 Y104.20 E18.37797
G0 F3600 X134.49 Y103.52
G1 F1200 X131.77 Y100.80 E18.48561
G0 F3600 X132.62 Y100.80
G1 F1200 X134.49 Y102.67 E18.55965
G0 F3600 X134.49 Y101.82
G1 F1200 X133.47 Y100.80 E18.60005
G0 F3600 X134.32 Y100.80
G1 F1200 X134.49 Y100.97 E18.60684
G0 F3600 X134.30 Y100.97
G0 X133.20 Y102.09
;LAYER:1
M106 S63
G0 F9000 X134.30 Y100.86 Z0.35
G0 X134.70 Y100.55
;TYPE:WALL-OUTER
G1 F1620 X134.70 Y104.45 E18.62506
G1 X70.30 Y104.45 E18.92580
G1 X70.30 Y100.55 E18.94402
G1 X134.70 Y100.55 E19.24476
G0 F9000 X134.49 Y100.98
;TYPE:FILL
G1 F1620 X131.22 Y104.24 E19.26632
G0 F9000 X130.38 Y104.24
G1 F1620 X133.86 Y100.76 E19.28931
G0 F9000 X133.01 Y100.76
G1 F1620 X129.53 Y104.24 E19.31231
G0 F9000 X128.68 Y104.24
G1 F1620 X132.16 Y100.76 E19.33531
G0 F9000 X131.31 Y100.76
G1 F1620 X127.83 Y104.24 E19.35831
G0 F9000 X126.98 Y104.24
G1 F1620 X130.46 Y100.76 E19.38130
G0 F9000 X129.62 Y100.76
G1 F1620 X126.13 Y104.24 E19.40430
G0 F9000 X125.29 Y104.24
G1 F1620 X128.77 Y100.76 E19.42730
G0 F9000 X127.92 Y100.76
G1 F1620 X124.44 Y104.24 E19.45030
G0 F9000 X123.59 Y104.24
G1 F1620 X127.07 Y100.76 E19.47329
G0 F9000 X126.22 Y100.76
G1 F1620 X122.74 Y104.24 E19.49629
G0 F9000 X121.89 Y104.24
G1 F1620 X125.37 Y100.76 E19.51929
G0 F9000 X124.53 Y100.76
G1 F1620 X121.04 Y104.24 E19.54229
G0 F9000 X120.19 Y104.24
G1 F1620 X123.68 Y100.76 E19.56528
G0 F9000 X122.83 Y100.76
G1 F1620 X119.35 Y104.24 E19.58828
G0 F9000 X118.50 Y104.24
G1 F1620 X121.98 Y100.76 E19.61127
G0 F9000 X121.13 Y100.76
G1 F1620 X117.65 Y104.24 E19.63427
G0 F9000 X116.80 Y104.24
G1 F1620 X120.28 Y100.76 E19.65727
G0 F9000 X119.43 Y100.76
G1 F1620 X115.95 Y104.24 E19.68026
G0 F9000 X115.10 Y104.24
G1 F1620 X118.58 Y100.76 E19.70326
G0 F9000 X117.74 Y100.76
G1 F1620 X114.25 Y104.24 E19.72626
G0 F9000 X113.40 Y104.24
G1 F1620 X116.89 Y100.76 E19.74926
G0 F9000 X116.04 Y100.76
G1 F1620 X112.56 Y104.24 E19.77225
G0 F9000 X111.71 Y104.24
G1 F1620 X115.19 Y100.76 E19.79525
G0 F9000 X114.34 Y100.76
G1 F1620 X110.86 Y104.24 E19.81825
G0 F9000 X110.01 Y104.24
G1 F1620 X113.49 Y100.76 E19.84125
G0 F9000 X112.64 Y100.76
G1 F1620 X109.16 Y104.24 E19.86424
G0 F9000 X108.31 Y104.24
G1 F1620 X111.80 Y100.76 E19.88724
G0 F9000 X110.95 Y100.76
G1 F1620 X107.47 Y104.24 E19.91024
G0 F9000 X106.62 Y104.24
G1 F1620 X110.10 Y100.76 E19.93324
G0 F9000 X109.25 Y100.76
G1 F1620 X105.77 Y104.24 E19.95623
G0 F9000 X104.92 Y104.24
G1 F1620 X108.40 Y100.76 E19.97923
G0 F9000 X107.55 Y100.76
G1 F1620 X104.07 Y104.24 E20.00223
G0 F9000 X103.22 Y104.24
G1 F1620 X106.71 Y100.76 E20.02522
G0 F9000 X105.86 Y100.76
G1 F1620 X102.37 Y104.24 E20.04822
G0 F9000 X101.53 Y104.24
G1 F1620 X105.01 Y100.76 E20.07122
G0 F9000 X104.16 Y100.76
G1 F1620 X100.68 Y104.24 E20.09422
G0 F9000 X99.83 Y104.24
G1 F1620 X103.31 Y100.76 E20.11721
G0 F9000 X102.46 Y100.76
G1 F1620 X98.98 Y104.24 E20.14021
G0 F9000 X98.13 Y104.24
G1 F1620 X101.61 Y100.76 E20.16321
G0 F9000 X100.77 Y100.76
G1 F1620 X97.28 Y104.24 E20.18621
G0 F9000 X96.43 Y104.24
G1 F1620 X99.92 Y100.76 E20.20920
G0 F9000 X99.07 Y100.76
G1 F1620 X95.59 Y104.24 E20.23220
G0 F9000 X94.74 Y104.24
G1 F1620 X98.22 Y100.76 E20.25520
G0 F9000 X97.37 Y100.76
G1 F1620 X93.89 Y104.24 E20.27819
G0 F9000 X93.04 Y104.24
G1 F1620 X96.52 Y100.76 E20.30119
G0 F9000 X95.68 Y100.76
G1 F1620 X92.19 Y104.24 E20.32419
G0 F9000 X91.34 Y104.24
G1 F1620 X94.83 Y100.76 E20.34718
G0 F9000 X93.98 Y100.76
G1 F1620 X90.50 Y104.24 E20.37018
G0 F9000 X89.65 Y104.24
G1 F1620 X93.13 Y100.76 E20.39318
G0 F9000 X92.28 Y100.76
G1 F1620 X88.80 Y104.24 E20.41618
G0 F9000 X87.95 Y104.24
G1 F1620 X91.43 Y100.76 E20.43918
G0 F9000 X90.58 Y100.76
G1 F1620 X87.10 Y104.24 E20.46217
G0 F9000 X86.25 Y104.24
G1 F1620 X89.74 Y100.76 E20.48517
G0 F9000 X88.89 Y100.76
G1 F1620 X85.40 Y104.24 E20.50817
G0 F9000 X84.56 Y104.24
G1 F1620 X88.04 Y100.76 E20.53116
G0 F9000 X87.19 Y100.76
G1 F1620 X83.71 Y104.24 E20.55416
G0 F9000 X82.86 Y104.24
G1 F1620 X86.34 Y100.76 E20.57716
G0 F9000 X85.49 Y100.76
G1 F1620 X82.01 Y104.24 E20.60015
G0 F9000 X81.16 Y104.24
G1 F1620 X84.64 Y100.76 E20.62315
G0 F9000 X83.79 Y100.76
G1 F1620 X80.31 Y104.24 E20.64615
G0 F9000 X79.46 Y104.24
G1 F1620 X82.95 Y100.76 E20.66915
G0 F9000 X82.10 Y100.76
G1 F1620 X78.62 Y104.24 E20.69214
G0 F9000 X77.77 Y104.24
G1 F1620 X81.25 Y100.76 E20.71514
G0 F9000 X80.40 Y100.76
G1 F1620 X76.92 Y104.24 E20.73814
G0 F9000 X76.07 Y104.24
G1 F1620 X79.55 Y100.76 E20.76114
G0 F9000 X78.70 Y100.76
G1 F1620 X75.22 Y104.24 E20.78413
G0 F9000 X74.37 Y104.24
G1 F1620 X77.86 Y100.76 E20.80713
G0 F9000 X77.01 Y100.76
G1 F1620 X73.52 Y104.24 E20.83013
G0 F9000 X72.68 Y104.24
G1 F1620 X76.16 Y100.76 E20.85312
G0 F9000 X75.31 Y100.76
G1 F1620 X71.83 Y104.24 E20.87612
G0 F9000 X70.98 Y104.24
G1 F1620 X74.46 Y100.76 E20.89912
G0 F9000 X73.61 Y100.76
G1 F1620 X70.51 Y103.86 E20.91961
G0 F9000 X70.51 Y103.01
G1 F1620 X72.76 Y100.76 E20.93449
G0 F9000 X71.92 Y100.76
G1 F1620 X70.51 Y102.16 E20.94377
G0 F9000 X70.51 Y101.32
G1 F1620 X71.07 Y100.76 E20.94745
G0 F9000 X71.07 Y100.95
G0 X132.07 Y104.05
G0 X132.07 Y104.24
G1 F1620 X134.49 Y101.82 E20.96341
G0 F9000 X134.49 Y102.67
G1 F1620 X132.92 Y104.24 E20.97376
G0 F9000 X133.77 Y104.24
G1 F1620 X134.49 Y103.52 E20.97851
G0 F9000 X133.20 Y102.95
;LAYER:2
M106 S127
G0 X134.30 Y104.18 Z0.40
G0 X134.70 Y104.49
;TYPE:WALL-OUTER
G1 F2100 X70.30 Y104.50 E21.27924
G1 X70.30 Y100.51 E21.29787
G1 X134.70 Y100.51 E21.59860
G1 X134.70 Y104.49 E21.61723
G0 F9000 X134.41 Y104.28
;TYPE:FILL
G1 F2100 X130.84 Y100.72 E21.64079
G0 F9000 X129.99 Y100.72
G1 F2100 X133.56 Y104.28 E21.66435
G0 F9000 X132.71 Y104.28
G1 F2100 X129.14 Y100.72 E21.68792
G0 F9000 X128.29 Y100.72
G1 F2100 X131.86 Y104.28 E21.71148
G0 F9000 X131.01 Y104.28
G1 F2100 X127.44 Y100.72 E21.73504
G0 F9000 X126.60 Y100.72
G1 F2100 X130.16 Y104.28 E21.75861
G0 F9000 X129.32 Y104.28
G1 F2100 X125.75 Y100.72 E21.78217
G0 F9000 X124.90 Y100.72
G1 F2100 X128.47 Y104.28 E21.80573
G0 F9000 X127.62 Y104.28
G1 F2100 X124.05 Y100.72 E21.82930
G0 F9000 X123.20 Y100.72
G1 F2100 X126.77 Y104.28 E21.85286
G0 F9000 X125.92 Y104.28
G1 F2100 X122.35 Y100.72 E21.87642
G0 F9000 X121.50 Y100.72
G1 F2100 X125.07 Y104.28 E21.89999
G0 F9000 X124.22 Y104.28
G1 F2100 X120.66 Y100.72 E21.92355
G0 F9000 X119.81 Y100.72
G1 F2100 X123.38 Y104.28 E21.94712
G0 F9000 X122.53 Y104.28
G1 F2100 X118.96 Y100.72 E21.97068
G0 F9000 X118.11 Y100.72
G1 F2100 X121.68 Y104.28 E21.99424
G0 F9000 X120.83 Y104.28
G1 F2100 X117.26 Y100.72 E22.01781
G0 F9000 X116.41 Y100.72
G1 F2100 X119.98 Y104.28 E22.04137
G0 F9000 X119.13 Y104.28
G1 F2100 X115.57 Y100.72 E22.06493
G0 F9000 X114.72 Y100.72
G1 F2100 X118.28 Y104.28 E22.08850
G0 F9000 X117.44 Y104.28
G1 F2100 X113.87 Y100.72 E22.11206
G0 F9000 X113.02 Y100.72
G1 F2100 X116.59 Y104.28 E22.13562
G0 F9000 X115.74 Y104.28
G1 F2100 X112.17 Y100.72 E22.15919
G0 F9000 X111.32 Y100.72
G1 F2100 X114.89 Y104.28 E22.18275
G0 F9000 X114.04 Y104.28
G1 F2100 X110.47 Y100.72 E22.20632
G0 F9000 X109.62 Y100.72
G1 F2100 X113.19 Y104.28 E22.22988
G0 F9000 X112.35 Y104.28
G1 F2100 X108.78 Y100.72 E22.25344
G0 F9000 X107.93 Y100.72
G1 F2100 X111.50 Y104.28 E22.27701
G0 F9000 X110.65 Y104.28
G1 F2100 X107.08 Y100.72 E22.30057
G0 F9000 X106.23 Y100.72
G1 F2100 X109.80 Y104.28 E22.32413
G0 F9000 X108.95 Y104.28
G1 F2100 X105.38 Y100.72 E22.34770
G0 F9000 X104.53 Y100.72
G1 F2100 X108.10 Y104.28 E22.37126
G0 F9000 X107.25 Y104.28
G1 F2100 X103.68 Y100.72 E22.39483
G0 F9000 X102.84 Y100.72
G1 F2100 X106.40 Y104.28 E22.41839
G0 F9000 X105.56 Y104.28
G1 F2100 X101.99 Y100.72 E22.44195
G0 F9000 X101.14 Y100.72
G1 F2100 X104.71 Y104.28 E22.46552
G0 F9000 X103.86 Y104.28
G1 F2100 X100.29 Y100.72 E22.48908
G0 F9000 X99.44 Y100.72
G1 F2100 X103.01 Y104.28 E22.51264
G0 F9000 X102.16 Y104.28
G1 F2100 X98.59 Y100.72 E22.53621
G0 F9000 X97.75 Y100.72
G1 F2100 X101.31 Y104.28 E22.55977
G0 F9000 X100.46 Y104.28
G1 F2100 X96.90 Y100.72 E22.58333
G0 F9000 X96.05 Y100.72
G1 F2100 X99.62 Y104.28 E22.60690
G0 F9000 X98.77 Y104.28
G1 F2100 X95.20 Y100.72 E22.63046
G0 F9000 X94.35 Y100.72
G1 F2100 X97.92 Y104.28 E22.65402
G0 F9000 X97.07 Y104.28
G1 F2100 X93.50 Y100.72 E22.67759
G0 F9000 X92.65 Y100.72
G1 F2100 X96.22 Y104.28 E22.70115
G0 F9000 X95.37 Y104.28
G1 F2100 X91.81 Y100.72 E22.72471
G0 F9000 X90.96 Y100.72
G1 F2100 X94.53 Y104.28 E22.74828
G0 F9000 X93.68 Y104.28
G1 F2100 X90.11 Y100.72 E22.77185
G0 F9000 X89.26 Y100.72
G1 F2100 X92.83 Y104.28 E22.79541
G0 F9000 X91.98 Y104.28
G1 F2100 X88.41 Y100.72 E22.81897
G0 F9000 X87.56 Y100.72
G1 F2100 X91.13 Y104.28 E22.84254
G0 F9000 X90.28 Y104.28
G1 F2100 X86.71 Y100.72 E22.86610
G0 F9000 X85.87 Y100.72
G1 F2100 X89.43 Y104.28 E22.88966
G0 F9000 X88.59 Y104.28
G1 F2100 X85.02 Y100.72 E22.91323
G0 F9000 X84.17 Y100.72
G1 F2100 X87.74 Y104.28 E22.93679
G0 F9000 X86.89 Y104.28
G1 F2100 X83.32 Y100.72 E22.96035
G0 F9000 X82.47 Y100.72
G1 F2100 X86.04 Y104.28 E22.98392
G0 F9000 X85.19 Y104.28
G1 F2100 X81.62 Y100.72 E23.00748
G0 F9000 X80.78 Y100.72
G1 F2100 X84.34 Y104.28 E23.03104
G0 F9000 X83.50 Y104.28
G1 F2100 X79.93 Y100.72 E23.05461
G0 F9000 X79.08 Y100.72
G1 F2100 X82.65 Y104.28 E23.07817
G0 F9000 X81.80 Y104.28
G1 F2100 X78.23 Y100.72 E23.10173
G0 F9000 X77.38 Y100.72
G1 F2100 X80.95 Y104.28 E23.12530
G0 F9000 X80.10 Y104.28
G1 F2100 X76.53 Y100.72 E23.14886
G0 F9000 X75.68 Y100.72
G1 F2100 X79.25 Y104.28 E23.17243
G0 F9000 X78.40 Y104.28
G1 F2100 X74.83 Y100.72 E23.19599
G0 F9000 X73.99 Y100.72
G1 F2100 X77.56 Y104.28 E23.21955
G0 F9000 X76.71 Y104.28
G1 F2100 X73.14 Y100.72 E23.24312
G0 F9000 X72.29 Y100.72
G1 F2100 X75.86 Y104.28 E23.26668
G0 F9000 X75.01 Y104.28
G1 F2100 X71.44 Y100.72 E23.29024
G0 F9000 X70.59 Y100.72
G1 F2100 X74.16 Y104.28 E23.31381
G0 F9000 X73.31 Y104.28
G1 F2100 X70.51 Y101.48 E23.33232
G0 F9000 X70.51 Y102.33
G1 F2100 X72.46 Y104.28 E23.34523
G0 F9000 X71.61 Y104.28
G1 F2100 X70.51 Y103.18 E23.35253
G0 F9000 X70.51 Y104.03
G1 F2100 X70.77 Y104.28 E23.35424
G0 F9000 X70.77 Y104.09
G0 X131.69 Y100.91
G0 X131.69 Y100.72
G1 F2100 X134.49 Y103.52 E23.37274
G0 F9000 X134.49 Y102.67
G1 F2100 X132.54 Y100.72 E23.38563
G0 F9000 X133.38 Y100.72
G1 F2100 X134.49 Y101.82 E23.39293
G0 F9000 X134.49 Y100.97
G1 F2100 X134.23 Y100.72 E23.39462
G0 F9000 X134.23 Y100.91
G0 X133.20 Y102.01
;LAYER:3
M106 S191
G0 X134.30 Y100.77 Z0.45
G0 X134.70 Y100.46
;TYPE:WALL-OUTER
G1 F2520 X134.70 Y104.54 E23.41364
G1 X70.30 Y104.54 E23.71438
G1 X70.30 Y100.46 E23.73340
