;Generated with Cura_SteamEngine 13.11.2
M109 T0 S220.000000
T0
;Sliced at: Tue 17-12-2013 17:45:08
;Basic settings: Layer height: 0.1 Walls: 0.9 Fill: 15
;Print time: #P_TIME#
;Filament used: #F_AMNT#m #F_WGHT#g
;Filament cost: #F_COST#
;M190 S70 ;Uncomment to add your own bed temperature line
;M109 S220 ;Uncomment to add your own temperature line
G21        ;metric values
G90        ;absolute positioning
M107       ;start with the fan off
G28 X0 Y0  ;move X/Y to min endstops
G28 Z0     ;move Z to min endstops
G1 Z15.0 F6000 ;move the platform down 15mm
G92 E0                  ;zero the extruded length
G1 F200 E3              ;extrude 3mm of feed stock
G92 E0                  ;zero the extruded length again
G1 F6000
;Put printing message on LCD screen
M117 Printing...

;Layer count: 83
;LAYER:0
M107
G0 F1200 X50.87 Y87.73 Z0.30
;TYPE:SKIRT
G1 F2400 E0.00000
G1 F1200 X154.13 Y87.72 E2.18537
G1 X159.27 Y92.87 E2.33922
G1 X159.27 Y112.13 E2.74697
G1 X154.13 Y117.28 E2.90083
G1 X50.87 Y117.27 E5.08619
G1 X45.72 Y112.13 E5.24002
G1 X45.72 Y92.87 E5.64772
G1 X50.87 Y87.73 E5.80155
G0 X51.05 Y88.18
G1 X153.95 Y88.18 E7.97904
G1 X158.82 Y93.05 E8.12500
G1 X158.82 Y111.95 E8.52488
G1 X153.95 Y116.82 E8.67083
G1 X51.05 Y116.82 E10.84832
G1 X46.17 Y111.95 E10.99425
G1 X46.17 Y93.05 E11.39408
G1 X51.05 Y88.18 E11.54001
G0 X51.24 Y88.63
G1 X153.76 Y88.62 E13.70959
G1 X158.38 Y93.24 E13.84767
G1 X158.38 Y111.76 E14.23963
G1 X153.76 Y116.38 E14.37772
G1 X51.24 Y116.37 E16.54730
G1 X46.62 Y111.76 E16.68535
G1 X46.62 Y93.24 E17.07727
G1 X51.24 Y88.63 E17.21533
G0 X51.42 Y89.08
G1 X153.57 Y89.07 E19.37703
G1 X157.93 Y93.43 E19.50722
G1 X157.93 Y111.57 E19.89131
G1 X153.57 Y115.93 E20.02149
G1 X51.42 Y115.92 E22.18320
G1 X47.08 Y111.57 E22.31335
G1 X47.08 Y93.43 E22.69740
G1 X51.42 Y89.08 E22.82755
G0 X51.61 Y89.53
G1 X153.39 Y89.53 E24.98139
G1 X157.48 Y93.61 E25.10367
G1 X157.48 Y111.39 E25.47988
G1 X153.39 Y115.47 E25.60217
G1 X51.61 Y115.47 E27.75600
G1 X47.53 Y111.39 E27.87826
G1 X47.53 Y93.61 E28.25443
G1 X51.61 Y89.53 E28.37668
G0 X51.80 Y89.98
G1 X153.20 Y89.97 E30.52260
G1 X157.02 Y93.80 E30.63702
G1 X157.02 Y111.20 E31.00532
G1 X153.20 Y115.03 E31.11973
G1 X51.80 Y115.02 E33.26565
G1 X47.97 Y111.20 E33.38003
G1 X47.97 Y93.80 E33.74829
G1 X51.80 Y89.98 E33.86267
G0 X51.98 Y90.43
G1 X153.02 Y90.43 E36.00072
G1 X156.57 Y93.98 E36.10723
G1 X156.57 Y111.02 E36.46766
G1 X153.02 Y114.57 E36.57417
G1 X51.98 Y114.57 E38.71222
G1 X48.42 Y111.01 E38.81870
G1 X48.42 Y93.99 E39.17909
G1 X51.98 Y90.43 E39.28557
G0 X52.17 Y90.88
G1 X152.83 Y90.88 E41.41570
G1 X156.12 Y94.17 E41.51435
G1 X156.12 Y110.83 E41.86686
G1 X152.83 Y114.12 E41.96550
G1 X52.17 Y114.12 E44.09563
G1 X48.88 Y110.83 E44.19424
G1 X48.88 Y94.17 E44.54672
G1 X52.17 Y90.88 E44.64533
G0 X52.36 Y91.33
G1 X152.64 Y91.32 E46.76759
G1 X155.68 Y94.36 E46.85833
G1 X155.68 Y110.64 E47.20297
G1 X152.64 Y113.68 E47.29371
G1 X52.36 Y113.67 E49.41597
G1 X49.33 Y110.64 E49.50668
G1 X49.33 Y94.36 E49.85128
G1 X52.36 Y91.33 E49.94199
G0 X52.54 Y91.78
G1 X152.46 Y91.78 E52.05638
G1 X155.23 Y94.54 E52.13922
G1 X155.23 Y110.46 E52.47599
G1 X152.46 Y113.22 E52.55883
G1 X52.54 Y113.22 E54.67322
G1 X49.78 Y110.46 E54.75603
G1 X49.78 Y94.54 E55.09276
G1 X52.54 Y91.78 E55.17556
G0 X52.73 Y92.23
G1 X152.27 Y92.22 E57.28204
G1 X154.77 Y94.73 E57.35701
G1 X154.77 Y110.27 E57.68586
G1 X152.27 Y112.78 E57.76083
G1 X52.73 Y112.77 E59.86730
G1 X50.22 Y110.27 E59.94224
G1 X50.22 Y94.73 E60.27106
G1 X52.73 Y92.23 E60.34599
G0 X52.92 Y92.68
G1 X152.08 Y92.68 E62.44460
G1 X154.32 Y94.92 E62.51166
G1 X154.32 Y110.08 E62.83265
G1 X152.08 Y112.32 E62.89971
G1 X52.92 Y112.32 E64.99832
G1 X50.67 Y110.08 E65.06535
G1 X50.67 Y94.92 E65.38630
G1 X52.92 Y92.68 E65.45333
G0 X53.10 Y93.13
G1 X151.90 Y93.12 E67.54402
G1 X153.88 Y95.10 E67.60322
G1 X153.88 Y109.90 E67.91629
G1 X151.90 Y111.88 E67.97548
G1 X53.10 Y111.87 E70.06617
G1 X51.12 Y109.90 E70.12534
G1 X51.12 Y95.10 E70.43836
G1 X53.10 Y93.13 E70.49753
G0 X53.29 Y93.58
G1 X151.71 Y93.57 E72.58034
G1 X153.43 Y95.29 E72.63164
G1 X153.43 Y109.71 E72.93684
G1 X151.71 Y111.43 E72.98813
G1 X53.29 Y111.42 E75.07095
G1 X51.58 Y109.71 E75.12221
G1 X51.58 Y95.29 E75.42737
G1 X53.29 Y93.58 E75.47863
G0 X53.47 Y94.03
G1 X151.52 Y94.03 E77.55358
G1 X152.98 Y95.47 E77.59697
G1 X152.98 Y109.53 E77.89429
G1 X151.52 Y110.97 E77.93769
G1 X53.47 Y110.97 E80.01263
G1 X52.03 Y109.52 E80.05600
G1 X52.03 Y95.48 E80.35328
G1 X53.47 Y94.03 E80.39664
G0 X53.66 Y94.48
G1 X151.34 Y94.47 E82.46367
G1 X152.52 Y95.66 E82.49920
G1 X152.52 Y109.34 E82.78861
G1 X151.34 Y110.53 E82.82413
G1 X53.66 Y110.52 E84.89116
G1 X52.47 Y109.34 E84.92665
G1 X52.47 Y95.66 E85.21602
G1 X53.66 Y94.48 E85.25151
G0 X53.85 Y94.93
G1 X151.15 Y94.93 E87.31067
G1 X152.07 Y95.85 E87.33829
G1 X152.07 Y109.15 E87.61983
G1 X151.15 Y110.07 E87.64745
G1 X53.85 Y110.07 E89.70661
G1 X52.92 Y109.15 E89.73420
G1 X52.92 Y95.85 E90.01570
G1 X53.85 Y94.93 E90.04329
G0 X54.03 Y95.38
G1 X150.96 Y95.38 E92.09453
G1 X151.62 Y96.04 E92.11429
G1 X151.62 Y108.96 E92.38791
G1 X150.96 Y109.62 E92.40766
G1 X54.03 Y109.62 E94.45890
G1 X53.38 Y108.96 E94.47863
G1 X53.38 Y96.04 E94.75221
G1 X54.03 Y95.38 E94.77193
G0 X54.22 Y95.83
G1 X150.78 Y95.82 E96.81530
G1 X151.18 Y96.22 E96.82715
G1 X151.18 Y108.78 E97.09290
G1 X150.78 Y109.18 E97.10475
G1 X54.22 Y109.17 E99.14812
G1 X53.83 Y108.78 E99.15994
G1 X53.83 Y96.22 E99.42565
G1 X54.22 Y95.83 E99.43747
G0 X54.41 Y96.28
G1 X150.59 Y96.28 E101.47297
G1 X150.73 Y96.41 E101.47692
G1 X150.73 Y108.59 E101.73480
G1 X150.59 Y108.72 E101.73875
G1 X54.41 Y108.72 E103.77425
G1 X54.28 Y108.59 E103.77817
G1 X54.28 Y96.41 E104.03600
G1 X54.41 Y96.28 E104.03992
G0 X55.17 Y97.18
;TYPE:WALL-INNER
G1 X149.82 Y97.18 E106.04289
G1 X149.82 Y107.82 E106.26825
G1 X55.17 Y107.82 E108.27122
G1 X55.17 Y97.18 E108.49653
G0 X54.72 Y96.73
;TYPE:WALL-OUTER
G1 X150.27 Y96.73 E110.51855
G1 X150.27 Y108.28 E110.76295
G1 X54.72 Y108.27 E112.78496
G1 X54.72 Y96.73 E113.02932
G0 X55.65 Y97.33
;TYPE:FILL
G1 X65.98 Y107.66 E113.33847
G0 X66.62 Y107.66
G1 X56.29 Y97.33 E113.64760
G0 X56.92 Y97.33
G1 X67.25 Y107.66 E113.95674
G0 X67.89 Y107.66
G1 X57.56 Y97.33 E114.26589
G0 X58.20 Y97.33
G1 X68.53 Y107.66 E114.57502
G0 X69.16 Y107.66
G1 X58.83 Y97.33 E114.88417
G0 X59.47 Y97.33
G1 X69.80 Y107.66 E115.19331
G0 X70.43 Y107.66
G1 X60.10 Y97.33 E115.50245
G0 X60.74 Y97.33
G1 X71.07 Y107.66 E115.81160
G0 X71.71 Y107.66
G1 X61.38 Y97.33 E116.12073
G0 X62.01 Y97.33
G1 X72.34 Y107.66 E116.42988
G0 X72.98 Y107.66
G1 X62.65 Y97.33 E116.73902
G0 X63.29 Y97.33
G1 X73.62 Y107.66 E117.04815
G0 X74.25 Y107.66
G1 X63.92 Y97.33 E117.35730
G0 X64.56 Y97.33
G1 X74.89 Y107.66 E117.66644
G0 X75.53 Y107.66
G1 X65.20 Y97.33 E117.97559
G0 X65.83 Y97.33
G1 X76.16 Y107.66 E118.28472
G0 X76.80 Y107.66
G1 X66.47 Y97.33 E118.59386
G0 X67.11 Y97.33
G1 X77.43 Y107.66 E118.90301
G0 X78.07 Y107.66
G1 X67.74 Y97.33 E119.21214
G0 X68.38 Y97.33
G1 X78.71 Y107.66 E119.52129
G0 X79.35 Y107.66
G1 X69.01 Y97.33 E119.83044
G0 X69.65 Y97.33
G1 X79.98 Y107.66 E120.13959
G0 X80.62 Y107.66
G1 X70.29 Y97.33 E120.44874
G0 X70.92 Y97.33
G1 X81.25 Y107.66 E120.75789
G0 X81.89 Y107.66
G1 X71.56 Y97.33 E121.06704
G0 X72.20 Y97.33
G1 X82.53 Y107.66 E121.37619
G0 X83.16 Y107.66
G1 X72.83 Y97.33 E121.68534
G0 X73.47 Y97.33
G1 X83.80 Y107.66 E121.99449
G0 X84.44 Y107.66
G1 X74.11 Y97.33 E122.30364
G0 X74.74 Y97.33
G1 X85.07 Y107.66 E122.61279
G0 X85.71 Y107.66
G1 X75.38 Y97.33 E122.92196
G0 X76.01 Y97.33
G1 X86.35 Y107.66 E123.23111
G0 X86.98 Y107.66
G1 X76.65 Y97.33 E123.54026
G0 X77.29 Y97.33
G1 X87.62 Y107.66 E123.84941
G0 X88.25 Y107.66
G1 X77.92 Y97.33 E124.15856
G0 X78.56 Y97.33
G1 X88.89 Y107.66 E124.46773
G0 X89.53 Y107.66
G1 X79.20 Y97.33 E124.77688
G0 X79.83 Y97.33
G1 X90.16 Y107.66 E125.08603
G0 X90.80 Y107.66
G1 X80.47 Y97.33 E125.39518
G0 X81.11 Y97.33
G1 X91.44 Y107.66 E125.70433
G0 X92.07 Y107.66
G1 X81.74 Y97.33 E126.01349
G0 X82.38 Y97.33
G1 X92.71 Y107.66 E126.32264
G0 X93.35 Y107.66
G1 X83.01 Y97.33 E126.63179
G0 X83.65 Y97.33
G1 X93.98 Y107.66 E126.94094
G0 X94.62 Y107.66
G1 X84.29 Y97.33 E127.25009
G0 X84.92 Y97.33
G1 X95.25 Y107.66 E127.55926
G0 X95.89 Y107.66
G1 X85.56 Y97.33 E127.86841
G0 X86.20 Y97.33
G1 X96.53 Y107.66 E128.17756
G0 X97.16 Y107.66
G1 X86.83 Y97.33 E128.48671
G0 X87.47 Y97.33
G1 X97.80 Y107.66 E128.79586
G0 X98.44 Y107.66
G1 X88.11 Y97.33 E129.10502
G0 X88.74 Y97.33
G1 X99.07 Y107.66 E129.41417
G0 X99.71 Y107.66
G1 X89.38 Y97.33 E129.72332
G0 X90.02 Y97.33
G1 X100.35 Y107.66 E130.03247
G0 X100.98 Y107.66
G1 X90.65 Y97.33 E130.34162
G0 X91.29 Y97.33
G1 X101.62 Y107.66 E130.65079
G0 X102.25 Y107.66
G1 X91.93 Y97.33 E130.95994
G0 X92.56 Y97.33
G1 X102.89 Y107.67 E131.26912
G0 X103.53 Y107.67
G1 X93.20 Y97.33 E131.57828
G0 X93.83 Y97.33
G1 X104.17 Y107.67 E131.88746
G0 X104.80 Y107.67
G1 X94.47 Y97.33 E132.19664
G0 X95.11 Y97.33
G1 X105.44 Y107.67 E132.50582
G0 X106.07 Y107.67
G1 X95.74 Y97.33 E132.81500
G0 X96.38 Y97.33
G1 X106.71 Y107.67 E133.12417
G0 X107.35 Y107.67
G1 X97.02 Y97.33 E133.43335
G0 X97.65 Y97.33
G1 X107.98 Y107.67 E133.74253
G0 X108.62 Y107.67
G1 X98.29 Y97.33 E134.05171
G0 X98.93 Y97.33
G1 X109.26 Y107.67 E134.36089
G0 X109.89 Y107.67
G1 X99.56 Y97.33 E134.67006
G0 X100.20 Y97.33
G1 X110.53 Y107.67 E134.97924
G0 X111.17 Y107.67
G1 X100.83 Y97.33 E135.28842
G0 X101.47 Y97.33
G1 X111.80 Y107.67 E135.59760
G0 X112.44 Y107.67
G1 X102.11 Y97.33 E135.90678
G0 X102.74 Y97.33
G1 X113.07 Y107.67 E136.21597
G0 X113.71 Y107.67
G1 X103.38 Y97.33 E136.52518
G0 X104.02 Y97.33
G1 X114.35 Y107.67 E136.83438
G0 X114.98 Y107.67
G1 X104.65 Y97.33 E137.14359
G0 X105.29 Y97.33
G1 X115.62 Y107.67 E137.45280
G0 X116.26 Y107.67
G1 X105.93 Y97.33 E137.76199
G0 X106.56 Y97.33
G1 X116.89 Y107.67 E138.07120
G0 X117.53 Y107.67
G1 X107.20 Y97.33 E138.38040
G0 X107.83 Y97.33
G1 X118.17 Y107.67 E138.68961
G0 X118.80 Y107.67
G1 X108.47 Y97.33 E138.99882
G0 X109.11 Y97.33
G1 X119.44 Y107.67 E139.30801
G0 X120.07 Y107.67
G1 X109.74 Y97.33 E139.61722
G0 X110.38 Y97.33
G1 X120.71 Y107.67 E139.92642
G0 X121.35 Y107.67
G1 X111.02 Y97.33 E140.23563
G0 X111.65 Y97.33
G1 X121.98 Y107.67 E140.54484
G0 X122.62 Y107.67
G1 X112.29 Y97.33 E140.85403
G0 X112.93 Y97.33
G1 X123.26 Y107.67 E141.16324
G0 X123.89 Y107.67
G1 X113.56 Y97.33 E141.47244
G0 X114.20 Y97.33
G1 X124.53 Y107.67 E141.78163
G0 X125.17 Y107.67
G1 X114.83 Y97.33 E142.09084
G0 X115.47 Y97.33
G1 X125.80 Y107.67 E142.40004
G0 X126.44 Y107.67
G1 X116.11 Y97.33 E142.70926
G0 X116.74 Y97.33
G1 X127.08 Y107.67 E143.01849
G0 X127.71 Y107.67
G1 X117.38 Y97.33 E143.32771
G0 X118.02 Y97.33
G1 X128.35 Y107.67 E143.63695
G0 X128.99 Y107.67
G1 X118.65 Y97.33 E143.94618
G0 X119.29 Y97.33
G1 X129.62 Y107.67 E144.25540
G0 X130.26 Y107.67
G1 X119.93 Y97.33 E144.56463
G0 X120.56 Y97.33
G1 X130.89 Y107.67 E144.87385
G0 X131.53 Y107.67
G1 X121.20 Y97.33 E145.18309
G0 X121.83 Y97.33
G1 X132.17 Y107.67 E145.49232
G0 X132.80 Y107.67
G1 X122.47 Y97.33 E145.80154
G0 X123.11 Y97.33
G1 X133.44 Y107.67 E146.11078
G0 X134.08 Y107.67
G1 X123.74 Y97.33 E146.42001
G0 X124.38 Y97.33
G1 X134.71 Y107.67 E146.72925
G0 X135.35 Y107.67
G1 X125.02 Y97.33 E147.03847
G0 X125.65 Y97.33
G1 X135.99 Y107.67 E147.34770
G0 X136.62 Y107.67
G1 X126.29 Y97.33 E147.65694
G0 X126.93 Y97.33
G1 X137.26 Y107.67 E147.96616
G0 X137.90 Y107.67
G1 X127.56 Y97.33 E148.27540
G0 X128.20 Y97.33
G1 X138.53 Y107.67 E148.58463
G0 X139.17 Y107.67
G1 X128.84 Y97.33 E148.89385
G0 X129.47 Y97.33
G1 X139.80 Y107.67 E149.20309
G0 X140.44 Y107.67
G1 X130.11 Y97.33 E149.51232
G0 X130.74 Y97.33
G1 X141.08 Y107.67 E149.82154
G0 X141.71 Y107.67
G1 X131.38 Y97.33 E150.13077
G0 X132.02 Y97.33
G1 X142.35 Y107.67 E150.43999
G0 X142.99 Y107.67
G1 X132.65 Y97.33 E150.74923
G0 X133.29 Y97.33
G1 X143.62 Y107.67 E151.05846
G0 X144.26 Y107.67
G1 X133.93 Y97.33 E151.36768
G0 X134.56 Y97.33
G1 X144.90 Y107.67 E151.67691
G0 X145.53 Y107.67
G1 X135.20 Y97.33 E151.98613
G0 X135.84 Y97.33
G1 X146.17 Y107.67 E152.29537
G0 X146.80 Y107.67
G1 X136.47 Y97.33 E152.60460
G0 X137.11 Y97.33
G1 X147.44 Y107.67 E152.91382
G0 X148.08 Y107.67
G1 X137.74 Y97.33 E153.22305
G0 X138.38 Y97.33
G1 X148.71 Y107.67 E153.53227
G0 X149.35 Y107.67
G1 X139.02 Y97.33 E153.84151
G0 X139.65 Y97.33
G1 X149.67 Y107.35 E154.14114
G0 X149.67 Y106.71
G1 X140.29 Y97.33 E154.42174
G0 X140.93 Y97.33
G1 X149.67 Y106.07 E154.68329
G0 X149.67 Y105.44
G1 X141.56 Y97.33 E154.92580
G0 X142.20 Y97.33
G1 X149.67 Y104.80 E155.14926
G0 X149.67 Y104.16
G1 X142.84 Y97.33 E155.35367
G0 X143.47 Y97.33
G1 X149.67 Y103.53 E155.53904
G0 X149.67 Y102.89
G1 X144.11 Y97.33 E155.70536
G0 X144.74 Y97.33
G1 X149.67 Y102.25 E155.85263
G0 X149.67 Y101.62
G1 X145.38 Y97.33 E155.98087
G0 X146.02 Y97.33
G1 X149.67 Y100.98 E156.09005
G0 X149.67 Y100.35
G1 X146.65 Y97.33 E156.18019
G0 X147.29 Y97.33
G1 X149.67 Y99.71 E156.25128
G0 X149.67 Y99.07
G1 X147.93 Y97.33 E156.30332
G0 X148.56 Y97.33
G1 X149.67 Y98.44 E156.33633
G0 X149.67 Y97.80
G1 X149.20 Y97.33 E156.35028
G0 X65.34 Y107.66
G1 X55.33 Y97.65 E156.64987
G0 X55.33 Y98.29
G1 X64.71 Y107.66 E156.93042
G0 X64.07 Y107.66
G1 X55.33 Y98.93 E157.19191
G0 X55.33 Y99.56
G1 X63.43 Y107.66 E157.43437
G0 X62.80 Y107.66
G1 X55.33 Y100.20 E157.65778
G0 X55.33 Y100.83
G1 X62.16 Y107.66 E157.86214
G0 X61.53 Y107.66
G1 X55.33 Y101.47 E158.04746
G0 X55.33 Y102.11
G1 X60.89 Y107.66 E158.21373
G0 X60.25 Y107.66
G1 X55.33 Y102.74 E158.36095
G0 X55.33 Y103.38
G1 X59.62 Y107.66 E158.48913
G0 X58.98 Y107.66
G1 X55.33 Y104.02 E158.59826
G0 X55.33 Y104.65
G1 X58.34 Y107.66 E158.68836
G0 X57.71 Y107.66
G1 X55.33 Y105.29 E158.75939
G0 X55.33 Y105.93
G1 X57.07 Y107.66 E158.81139
G0 X56.43 Y107.66
G1 X55.33 Y106.56 E158.84434
G0 X55.33 Y107.20
G1 X55.80 Y107.66 E158.85824
;LAYER:1
M106 S127
G0 F6000 X55.17 Y107.82 Z0.40
;TYPE:WALL-INNER
G1 F2400 X55.17 Y97.18 E158.93333
G1 X149.82 Y97.18 E159.60099
G1 X149.82 Y107.82 E159.67609
G1 X55.17 Y107.82 E160.34375
G0 F6000 X54.72 Y108.27
;TYPE:WALL-OUTER
G1 F2400 X54.72 Y96.73 E160.42519
G1 X150.27 Y96.73 E161.09919
G1 X150.27 Y108.27 E161.18065
G1 X54.72 Y108.27 E161.85465
G0 F6000 X55.57 Y107.66
;TYPE:FILL
G1 F2400 X65.90 Y97.33 E161.95770
G0 F6000 X65.26 Y97.33
G1 F2400 X55.33 Y107.27 E162.05678
G0 F6000 X55.33 Y106.63
G1 F2400 X64.63 Y97.33 E162.14951
G0 F6000 X63.99 Y97.33
G1 F2400 X55.33 Y105.99 E162.23589
G0 F6000 X55.33 Y105.36
G1 F2400 X63.35 Y97.33 E162.31593
G0 F6000 X62.72 Y97.33
G1 F2400 X55.33 Y104.72 E162.38961
G0 F6000 X55.33 Y104.08
G1 F2400 X62.08 Y97.33 E162.45695
G0 F6000 X61.45 Y97.33
G1 F2400 X55.33 Y103.45 E162.51794
G0 F6000 X55.33 Y102.81
G1 F2400 X60.81 Y97.33 E162.57258
G0 F6000 X60.17 Y97.33
G1 F2400 X55.33 Y102.18 E162.62087
G0 F6000 X55.33 Y101.54
G1 F2400 X59.54 Y97.33 E162.66282
G0 F6000 X58.90 Y97.33
G1 F2400 X55.33 Y100.90 E162.69841
G0 F6000 X55.33 Y100.27
G1 F2400 X58.26 Y97.33 E162.72766
G0 F6000 X57.63 Y97.33
G1 F2400 X55.33 Y99.63 E162.75055
G0 F6000 X55.33 Y98.99
G1 F2400 X56.99 Y97.33 E162.76710
G0 F6000 X56.35 Y97.33
G1 F2400 X55.33 Y98.36 E162.77730
G0 F6000 X55.33 Y97.72
G1 F2400 X55.72 Y97.33 E162.78115
G0 F6000 X56.21 Y107.66
G1 F2400 X66.54 Y97.33 E162.88420
G0 F6000 X67.17 Y97.33
G1 F2400 X56.84 Y107.66 E162.98725
G0 F6000 X57.48 Y107.66
G1 F2400 X67.81 Y97.33 E163.09030
G0 F6000 X68.45 Y97.33
G1 F2400 X58.12 Y107.66 E163.19334
G0 F6000 X58.75 Y107.66
G1 F2400 X69.08 Y97.33 E163.29639
G0 F6000 X69.72 Y97.33
G1 F2400 X59.39 Y107.66 E163.39944
G0 F6000 X60.03 Y107.66
G1 F2400 X70.36 Y97.33 E163.50248
G0 F6000 X70.99 Y97.33
G1 F2400 X60.66 Y107.66 E163.60553
G0 F6000 X61.30 Y107.66
G1 F2400 X71.63 Y97.33 E163.70858
G0 F6000 X72.26 Y97.33
G1 F2400 X61.94 Y107.66 E163.81162
G0 F6000 X62.57 Y107.66
G1 F2400 X72.90 Y97.33 E163.91467
G0 F6000 X73.54 Y97.33
G1 F2400 X63.21 Y107.66 E164.01772
G0 F6000 X63.84 Y107.66
G1 F2400 X74.17 Y97.33 E164.12077
G0 F6000 X74.81 Y97.33
G1 F2400 X64.48 Y107.66 E164.22382
G0 F6000 X65.12 Y107.66
G1 F2400 X75.45 Y97.33 E164.32686
G0 F6000 X76.08 Y97.33
G1 F2400 X65.75 Y107.66 E164.42991
