;Generated with Cura_SteamEngine 13.11.2
M109 T0 S220.000000
T0
;Sliced at: Tue 17-12-2013 17:42:40
;Basic settings: Layer height: 0.1 Walls: 0.9 Fill: 35
;Print time: #P_TIME#
;Filament used: #F_AMNT#m #F_WGHT#g
;Filament cost: #F_COST#
;M190 S70 ;Uncomment to add your own bed temperature line
;M109 S220 ;Uncomment to add your own temperature line
G21        ;metric values
G90        ;absolute positioning
M107       ;start with the fan off
G28 X0 Y0  ;move X/Y to min endstops
G28 Z0     ;move Z to min endstops
G1 Z15.0 F6000 ;move the platform down 15mm
G92 E0                  ;zero the extruded length
G1 F200 E3              ;extrude 3mm of feed stock
G92 E0                  ;zero the extruded length again
G1 F6000
;Put printing message on LCD screen
M117 Printing...

;Layer count: 99
;LAYER:0
M107
G0 F1200 X62.83 Y59.13 Z0.30
;TYPE:SKIRT
G1 F2400 E0.00000
G1 F1200 X63.51 Y58.51 E0.01950
G1 X72.71 Y51.83 E0.26015
G1 X73.51 Y51.37 E0.27960
G1 X83.90 Y46.74 E0.52027
G1 X84.77 Y46.46 E0.53974
G1 X95.90 Y44.10 E0.78044
G1 X96.82 Y44.00 E0.79991
G1 X108.18 Y44.00 E1.04050
G1 X109.10 Y44.10 E1.05997
G1 X120.22 Y46.46 E1.30067
G1 X121.10 Y46.74 E1.32014
G1 X131.49 Y51.37 E1.56081
G1 X132.29 Y51.83 E1.58027
G1 X141.49 Y58.51 E1.82092
G1 X142.17 Y59.13 E1.84041
G1 X149.78 Y67.58 E2.08109
G1 X150.32 Y68.33 E2.10056
G1 X156.01 Y78.17 E2.34118
G1 X156.38 Y79.01 E2.36065
G1 X159.89 Y89.83 E2.60131
G1 X160.09 Y90.73 E2.62076
G1 X161.27 Y102.04 E2.86142
G1 X161.27 Y102.96 E2.88091
G1 X160.09 Y114.27 E3.12157
G1 X159.89 Y115.17 E3.14102
G1 X156.38 Y125.98 E3.38168
G1 X156.01 Y126.82 E3.40115
G1 X150.32 Y136.67 E3.64177
G1 X149.78 Y137.42 E3.66124
G1 X142.17 Y145.87 E3.90191
G1 X141.49 Y146.49 E3.92141
G1 X132.29 Y153.17 E4.16206
G1 X131.49 Y153.63 E4.18152
G1 X121.10 Y158.26 E4.42219
G1 X120.22 Y158.54 E4.44165
G1 X109.10 Y160.90 E4.68236
G1 X108.18 Y161.00 E4.70183
G1 X96.82 Y161.00 E4.94242
G1 X95.90 Y160.90 E4.96189
G1 X84.77 Y158.54 E5.20259
G1 X83.90 Y158.26 E5.22206
G1 X73.51 Y153.63 E5.46273
G1 X72.71 Y153.17 E5.48218
G1 X63.51 Y146.49 E5.72284
G1 X62.83 Y145.87 E5.74233
G1 X55.22 Y137.42 E5.98301
G1 X54.68 Y136.67 E6.00248
G1 X48.99 Y126.82 E6.24310
G1 X48.62 Y125.98 E6.26257
G1 X45.10 Y115.17 E6.50323
G1 X44.91 Y114.27 E6.52268
G1 X43.72 Y102.96 E6.76334
G1 X43.72 Y102.04 E6.78283
G1 X44.91 Y90.73 E7.02349
G1 X45.10 Y89.83 E7.04294
G1 X48.62 Y79.01 E7.28360
G1 X48.99 Y78.17 E7.30306
G1 X54.68 Y68.33 E7.54369
G1 X55.22 Y67.58 E7.56315
G1 X62.83 Y59.13 E7.80383
G0 X63.15 Y59.45
G1 X63.80 Y58.86 E7.82231
G1 X72.96 Y52.21 E8.06197
G1 X73.71 Y51.77 E8.08041
G1 X84.06 Y47.16 E8.32009
G1 X84.89 Y46.89 E8.33858
G1 X95.97 Y44.54 E8.57828
G1 X96.84 Y44.45 E8.59673
G1 X108.16 Y44.45 E8.83635
G1 X109.03 Y44.54 E8.85480
G1 X120.11 Y46.89 E9.09450
G1 X120.94 Y47.16 E9.11299
G1 X131.29 Y51.77 E9.35267
G1 X132.04 Y52.21 E9.37111
G1 X141.20 Y58.86 E9.61077
G1 X141.85 Y59.45 E9.62925
G1 X149.43 Y67.87 E9.86894
G1 X149.94 Y68.57 E9.88740
G1 X155.60 Y78.38 E10.12703
G1 X155.96 Y79.18 E10.14550
G1 X159.46 Y89.95 E10.38516
G1 X159.64 Y90.80 E10.40362
G1 X160.82 Y102.06 E10.64328
G1 X160.82 Y102.94 E10.66175
G1 X159.64 Y114.20 E10.90141
G1 X159.46 Y115.05 E10.91987
G1 X155.96 Y125.82 E11.15954
G1 X155.60 Y126.62 E11.17800
G1 X149.94 Y136.43 E11.41763
G1 X149.43 Y137.13 E11.43610
G1 X141.85 Y145.55 E11.67579
G1 X141.20 Y146.14 E11.69426
G1 X132.04 Y152.79 E11.93393
G1 X131.29 Y153.23 E11.95237
G1 X120.94 Y157.84 E12.19204
G1 X120.11 Y158.10 E12.21053
G1 X109.03 Y160.46 E12.45024
G1 X108.16 Y160.55 E12.46869
G1 X96.84 Y160.55 E12.70831
G1 X95.97 Y160.46 E12.72676
G1 X84.89 Y158.10 E12.96646
G1 X84.06 Y157.84 E12.98495
G1 X73.71 Y153.23 E13.22463
G1 X72.96 Y152.79 E13.24307
G1 X63.80 Y146.14 E13.48273
G1 X63.15 Y145.55 E13.50121
G1 X55.57 Y137.13 E13.74090
G1 X55.06 Y136.43 E13.75936
G1 X49.40 Y126.62 E13.99899
G1 X49.04 Y125.82 E14.01746
G1 X45.54 Y115.05 E14.25712
G1 X45.36 Y114.20 E14.27558
G1 X44.17 Y102.94 E14.51524
G1 X44.17 Y102.06 E14.53371
G1 X45.36 Y90.80 E14.77337
G1 X45.54 Y89.95 E14.79183
G1 X49.04 Y79.18 E15.03150
G1 X49.40 Y78.38 E15.04996
G1 X55.06 Y68.57 E15.28959
G1 X55.57 Y67.87 E15.30806
G1 X63.15 Y59.45 E15.54775
G0 X63.47 Y59.77
G1 X64.08 Y59.21 E15.56522
G1 X73.21 Y52.59 E15.80389
G1 X73.92 Y52.17 E15.82134
G1 X84.22 Y47.58 E16.06002
G1 X85.01 Y47.33 E16.07749
G1 X96.04 Y44.99 E16.31620
G1 X96.86 Y44.90 E16.33367
G1 X108.14 Y44.90 E16.57227
G1 X108.96 Y44.99 E16.58974
G1 X119.99 Y47.33 E16.82845
G1 X120.78 Y47.58 E16.84591
G1 X131.08 Y52.17 E17.08459
G1 X131.79 Y52.59 E17.10205
G1 X140.92 Y59.21 E17.34071
G1 X141.53 Y59.77 E17.35819
G1 X149.08 Y68.15 E17.59689
G1 X149.56 Y68.82 E17.61434
G1 X155.20 Y78.58 E17.85300
G1 X155.54 Y79.34 E17.87044
G1 X159.02 Y90.06 E18.10911
G1 X159.20 Y90.87 E18.12659
G1 X160.38 Y102.09 E18.36525
G1 X160.38 Y102.91 E18.38271
G1 X159.20 Y114.13 E18.62137
G1 X159.02 Y114.94 E18.63885
G1 X155.54 Y125.66 E18.87752
G1 X155.20 Y126.42 E18.89496
G1 X149.56 Y136.18 E19.13361
G1 X149.08 Y136.85 E19.15107
G1 X141.53 Y145.23 E19.38977
G1 X140.92 Y145.79 E19.40724
G1 X131.79 Y152.41 E19.64591
G1 X131.08 Y152.83 E19.66336
G1 X120.78 Y157.41 E19.90204
G1 X119.99 Y157.67 E19.91951
G1 X108.96 Y160.01 E20.15822
G1 X108.14 Y160.10 E20.17569
G1 X96.86 Y160.10 E20.41429
G1 X96.04 Y160.01 E20.43176
G1 X85.01 Y157.67 E20.67047
G1 X84.22 Y157.41 E20.68794
G1 X73.92 Y152.83 E20.92662
G1 X73.21 Y152.41 E20.94408
G1 X64.08 Y145.79 E21.18274
G1 X63.47 Y145.23 E21.20021
G1 X55.92 Y136.85 E21.43891
G1 X55.44 Y136.18 E21.45637
G1 X49.80 Y126.42 E21.69502
G1 X49.46 Y125.66 E21.71246
G1 X45.98 Y114.94 E21.95113
G1 X45.80 Y114.13 E21.96862
G1 X44.62 Y102.91 E22.20728
G1 X44.62 Y102.09 E22.22474
G1 X45.80 Y90.87 E22.46340
G1 X45.98 Y90.06 E22.48088
G1 X49.46 Y79.34 E22.71955
G1 X49.80 Y78.58 E22.73699
G1 X55.44 Y68.82 E22.97564
G1 X55.92 Y68.15 E22.99310
G1 X63.47 Y59.77 E23.23180
G0 X63.78 Y60.08
G1 X64.36 Y59.56 E23.24827
G1 X73.45 Y52.96 E23.48593
G1 X74.12 Y52.58 E23.50238
G1 X84.38 Y48.01 E23.74007
G1 X85.12 Y47.76 E23.75658
G1 X96.11 Y45.43 E23.99427
G1 X96.89 Y45.35 E24.01072
G1 X108.11 Y45.35 E24.24835
G1 X108.89 Y45.43 E24.26479
G1 X119.87 Y47.76 E24.50249
G1 X120.62 Y48.01 E24.51900
G1 X130.88 Y52.58 E24.75668
G1 X131.55 Y52.96 E24.77313
G1 X140.64 Y59.56 E25.01080
G1 X141.21 Y60.08 E25.02727
G1 X148.73 Y68.43 E25.26496
G1 X149.19 Y69.06 E25.28143
G1 X154.80 Y78.79 E25.51908
G1 X155.12 Y79.50 E25.53553
G1 X158.59 Y90.18 E25.77320
G1 X158.75 Y90.94 E25.78967
G1 X159.92 Y102.11 E26.02735
G1 X159.92 Y102.89 E26.04379
G1 X158.75 Y114.06 E26.28147
G1 X158.59 Y114.82 E26.29794
G1 X155.12 Y125.50 E26.53561
G1 X154.80 Y126.21 E26.55207
G1 X149.19 Y135.94 E26.78971
G1 X148.73 Y136.57 E26.80618
G1 X141.21 Y144.91 E27.04387
G1 X140.64 Y145.43 E27.06034
G1 X131.55 Y152.04 E27.29801
G1 X130.88 Y152.42 E27.31446
G1 X120.62 Y156.99 E27.55214
G1 X119.87 Y157.24 E27.56865
G1 X108.89 Y159.57 E27.80635
G1 X108.11 Y159.65 E27.82280
G1 X96.89 Y159.65 E28.06042
G1 X96.11 Y159.57 E28.07687
G1 X85.12 Y157.24 E28.31457
G1 X84.38 Y156.99 E28.33108
G1 X74.12 Y152.42 E28.56876
G1 X73.45 Y152.04 E28.58521
G1 X64.36 Y145.43 E28.82288
G1 X63.78 Y144.91 E28.83935
G1 X56.27 Y136.57 E29.07704
G1 X55.81 Y135.94 E29.09351
G1 X50.20 Y126.21 E29.33116
G1 X49.88 Y125.50 E29.34761
G1 X46.41 Y114.82 E29.58529
G1 X46.25 Y114.06 E29.60175
G1 X45.08 Y102.89 E29.83943
G1 X45.08 Y102.11 E29.85587
G1 X46.25 Y90.94 E30.09355
G1 X46.41 Y90.18 E30.11002
G1 X49.88 Y79.50 E30.34769
G1 X50.20 Y78.79 E30.36415
G1 X55.81 Y69.06 E30.60179
G1 X56.27 Y68.43 E30.61826
G1 X63.78 Y60.08 E30.85596
G0 X64.10 Y60.40
G1 X64.65 Y59.92 E30.87144
G1 X73.70 Y53.34 E31.10812
G1 X74.33 Y52.98 E31.12357
G1 X84.54 Y48.43 E31.36025
G1 X85.24 Y48.20 E31.37574
G1 X96.18 Y45.88 E31.61244
G1 X96.91 Y45.80 E31.62791
G1 X108.09 Y45.80 E31.86452
G1 X108.82 Y45.88 E31.87999
G1 X119.76 Y48.20 E32.11669
G1 X120.45 Y48.43 E32.13218
G1 X130.67 Y52.98 E32.36886
G1 X131.30 Y53.34 E32.38431
G1 X140.35 Y59.92 E32.62099
G1 X140.90 Y60.40 E32.63647
G1 X148.38 Y68.72 E32.87315
G1 X148.81 Y69.31 E32.88863
G1 X154.40 Y78.99 E33.12528
G1 X154.70 Y79.66 E33.14073
G1 X158.15 Y90.30 E33.37740
G1 X158.30 Y91.01 E33.39289
G1 X159.48 Y102.13 E33.62955
G1 X159.48 Y102.86 E33.64502
G1 X158.30 Y113.99 E33.88168
G1 X158.15 Y114.70 E33.89717
G1 X154.70 Y125.34 E34.13383
G1 X154.40 Y126.01 E34.14929
G1 X148.81 Y135.69 E34.38593
G1 X148.38 Y136.28 E34.40141
G1 X140.90 Y144.60 E34.63809
G1 X140.35 Y145.08 E34.65357
G1 X131.30 Y151.66 E34.89025
G1 X130.67 Y152.02 E34.90570
G1 X120.45 Y156.57 E35.14239
G1 X119.76 Y156.80 E35.15787
G1 X108.82 Y159.12 E35.39457
G1 X108.09 Y159.20 E35.41004
G1 X96.91 Y159.20 E35.64666
G1 X96.18 Y159.12 E35.66213
G1 X85.24 Y156.80 E35.89883
G1 X84.54 Y156.57 E35.91431
G1 X74.33 Y152.02 E36.15100
G1 X73.70 Y151.66 E36.16645
G1 X64.65 Y145.08 E36.40313
G1 X64.10 Y144.60 E36.41861
G1 X56.62 Y136.28 E36.65529
G1 X56.19 Y135.69 E36.67077
G1 X50.60 Y126.01 E36.90741
G1 X50.30 Y125.34 E36.92286
G1 X46.85 Y114.70 E37.15953
G1 X46.69 Y113.99 E37.17502
G1 X45.52 Y102.86 E37.41168
G1 X45.52 Y102.13 E37.42715
G1 X46.69 Y91.01 E37.66381
G1 X46.85 Y90.30 E37.67930
G1 X50.30 Y79.66 E37.91597
G1 X50.60 Y78.99 E37.93142
G1 X56.19 Y69.31 E38.16806
G1 X56.62 Y68.72 E38.18355
G1 X64.10 Y60.40 E38.42023
G0 X64.42 Y60.72
G1 X64.93 Y60.26 E38.43469
G1 X73.94 Y53.72 E38.67035
G1 X74.53 Y53.38 E38.68481
G1 X84.71 Y48.85 E38.92050
G1 X85.36 Y48.64 E38.93499
G1 X96.25 Y46.32 E39.17070
G1 X96.93 Y46.25 E39.18517
G1 X108.07 Y46.25 E39.42077
G1 X108.75 Y46.32 E39.43524
G1 X119.64 Y48.64 E39.67095
G1 X120.29 Y48.85 E39.68544
G1 X130.47 Y53.38 E39.92113
G1 X131.06 Y53.72 E39.93559
G1 X140.07 Y60.26 E40.17125
G1 X140.58 Y60.72 E40.18571
G1 X148.03 Y69.00 E40.42142
G1 X148.43 Y69.55 E40.43590
G1 X154.00 Y79.20 E40.67153
G1 X154.27 Y79.82 E40.68601
G1 X157.72 Y90.41 E40.92167
G1 X157.86 Y91.08 E40.93615
G1 X159.02 Y102.16 E41.17183
G1 X159.02 Y102.84 E41.18628
G1 X157.86 Y113.92 E41.42196
G1 X157.72 Y114.59 E41.43644
G1 X154.27 Y125.18 E41.67211
G1 X154.00 Y125.80 E41.68658
G1 X148.43 Y135.45 E41.92222
G1 X148.03 Y136.00 E41.93670
G1 X140.58 Y144.28 E42.17240
G1 X140.07 Y144.73 E42.18686
G1 X131.06 Y151.28 E42.42253
G1 X130.47 Y151.62 E42.43699
G1 X120.29 Y156.15 E42.67267
G1 X119.64 Y156.36 E42.68717
G1 X108.75 Y158.68 E42.92288
G1 X108.07 Y158.75 E42.93735
G1 X96.93 Y158.75 E43.17295
G1 X96.25 Y158.68 E43.18742
G1 X85.36 Y156.36 E43.42313
G1 X84.71 Y156.15 E43.43762
G1 X74.53 Y151.62 E43.67331
G1 X73.94 Y151.28 E43.68777
G1 X64.93 Y144.73 E43.92343
G1 X64.42 Y144.28 E43.93789
G1 X56.97 Y136.00 E44.17360
G1 X56.57 Y135.45 E44.18808
G1 X51.00 Y125.80 E44.42371
G1 X50.72 Y125.18 E44.43819
G1 X47.28 Y114.59 E44.67385
G1 X47.14 Y113.92 E44.68833
G1 X45.97 Y102.84 E44.92401
G1 X45.97 Y102.16 E44.93846
G1 X47.14 Y91.08 E45.17414
G1 X47.28 Y90.41 E45.18862
G1 X50.72 Y79.82 E45.42429
G1 X51.00 Y79.20 E45.43876
G1 X56.57 Y69.55 E45.67440
G1 X56.97 Y69.00 E45.68888
G1 X64.42 Y60.72 E45.92458
G0 X64.74 Y61.04
G1 X65.21 Y60.62 E45.93807
G1 X74.19 Y54.10 E46.17273
G1 X74.74 Y53.78 E46.18618
G1 X84.87 Y49.27 E46.42087
G1 X85.47 Y49.07 E46.43436
G1 X96.32 Y46.76 E46.66907
G1 X96.96 Y46.70 E46.68254
G1 X108.04 Y46.70 E46.91716
G1 X108.68 Y46.76 E46.93063
G1 X119.53 Y49.07 E47.16534
G1 X120.13 Y49.27 E47.17883
G1 X130.26 Y53.78 E47.41352
G1 X130.81 Y54.10 E47.42696
G1 X139.78 Y60.62 E47.66163
G1 X140.26 Y61.04 E47.67512
G1 X147.68 Y69.28 E47.90981
G1 X148.05 Y69.80 E47.92329
G1 X153.60 Y79.40 E48.15794
G1 X153.85 Y79.98 E48.17140
G1 X157.28 Y90.53 E48.40607
G1 X157.41 Y91.15 E48.41957
G1 X158.57 Y102.18 E48.65423
G1 X158.57 Y102.82 E48.66771
G1 X157.41 Y113.85 E48.90237
G1 X157.28 Y114.47 E48.91586
G1 X153.85 Y125.02 E49.15053
G1 X153.60 Y125.60 E49.16399
G1 X148.05 Y135.20 E49.39864
G1 X147.68 Y135.72 E49.41212
G1 X140.26 Y143.96 E49.64682
G1 X139.78 Y144.38 E49.66030
G1 X130.81 Y150.90 E49.89497
G1 X130.26 Y151.22 E49.90841
G1 X120.13 Y155.73 E50.14311
G1 X119.53 Y155.93 E50.15659
G1 X108.68 Y158.23 E50.39130
G1 X108.04 Y158.30 E50.40478
G1 X96.96 Y158.30 E50.63940
G1 X96.32 Y158.23 E50.65287
G1 X85.47 Y155.93 E50.88758
G1 X84.87 Y155.73 E50.90107
G1 X74.74 Y151.22 E51.13576
G1 X74.19 Y150.90 E51.14920
G1 X65.21 Y144.38 E51.38387
G1 X64.74 Y143.96 E51.39736
G1 X57.32 Y135.72 E51.63205
G1 X56.95 Y135.20 E51.64553
G1 X51.40 Y125.60 E51.88018
G1 X51.14 Y125.02 E51.89364
G1 X47.72 Y114.47 E52.12831
G1 X47.58 Y113.85 E52.14181
G1 X46.42 Y102.82 E52.37647
G1 X46.42 Y102.18 E52.38995
G1 X47.58 Y91.15 E52.62461
G1 X47.72 Y90.53 E52.63810
G1 X51.14 Y79.98 E52.87277
G1 X51.40 Y79.40 E52.88623
G1 X56.95 Y69.80 E53.12088
G1 X57.32 Y69.28 E53.13436
G1 X64.74 Y61.04 E53.36906
G0 X65.06 Y61.36
G1 X65.50 Y60.97 E53.38155
G1 X74.43 Y54.47 E53.61523
G1 X74.94 Y54.18 E53.62769
G1 X85.03 Y49.69 E53.86137
G1 X85.59 Y49.51 E53.87387
G1 X96.39 Y47.21 E54.10759
G1 X96.98 Y47.15 E54.12006
G1 X108.02 Y47.15 E54.35366
G1 X108.61 Y47.21 E54.36613
G1 X119.41 Y49.51 E54.59985
G1 X119.97 Y49.69 E54.61235
G1 X130.06 Y54.18 E54.84603
G1 X130.57 Y54.47 E54.85848
G1 X139.50 Y60.97 E55.09216
G1 X139.94 Y61.36 E55.10466
G1 X147.33 Y69.57 E55.33837
G1 X147.68 Y70.04 E55.35082
G1 X153.20 Y79.61 E55.58449
G1 X153.43 Y80.14 E55.59693
G1 X156.85 Y90.65 E55.83062
G1 X156.97 Y91.22 E55.84310
G1 X158.12 Y102.21 E56.07678
G1 X158.12 Y102.79 E56.08924
G1 X156.97 Y113.78 E56.32292
G1 X156.85 Y114.35 E56.33540
G1 X153.43 Y124.86 E56.56909
G1 X153.20 Y125.39 E56.58153
G1 X147.68 Y134.96 E56.81520
G1 X147.33 Y135.43 E56.82765
G1 X139.94 Y143.64 E57.06136
G1 X139.50 Y144.03 E57.07386
G1 X130.57 Y150.52 E57.30754
G1 X130.06 Y150.82 E57.31999
G1 X119.97 Y155.31 E57.55367
G1 X119.41 Y155.49 E57.56617
G1 X108.61 Y157.79 E57.79989
G1 X108.02 Y157.85 E57.81236
G1 X96.98 Y157.85 E58.04597
G1 X96.39 Y157.79 E58.05844
G1 X85.59 Y155.49 E58.29215
G1 X85.03 Y155.31 E58.30466
G1 X74.94 Y150.82 E58.53833
G1 X74.43 Y150.52 E58.55079
G1 X65.50 Y144.03 E58.78447
G1 X65.06 Y143.64 E58.79697
G1 X57.67 Y135.43 E59.03068
G1 X57.32 Y134.96 E59.04313
G1 X51.80 Y125.39 E59.27680
G1 X51.56 Y124.86 E59.28924
G1 X48.15 Y114.35 E59.52293
G1 X48.03 Y113.78 E59.53541
G1 X46.88 Y102.79 E59.76908
G1 X46.88 Y102.21 E59.78155
G1 X48.03 Y91.22 E60.01523
G1 X48.15 Y90.65 E60.02771
G1 X51.56 Y80.14 E60.26140
G1 X51.80 Y79.61 E60.27384
G1 X57.32 Y70.04 E60.50750
G1 X57.67 Y69.57 E60.51996
G1 X65.06 Y61.36 E60.75367
G0 X65.38 Y61.68
G1 X65.78 Y61.31 E60.76517
G1 X74.68 Y54.85 E60.99786
G1 X75.15 Y54.58 E61.00931
G1 X85.19 Y50.11 E61.24199
G1 X85.71 Y49.94 E61.25347
G1 X96.46 Y47.65 E61.48620
G1 X97.00 Y47.60 E61.49766
G1 X108.00 Y47.60 E61.73030
G1 X108.54 Y47.65 E61.74176
G1 X119.29 Y49.94 E61.97449
G1 X119.81 Y50.11 E61.98597
G1 X129.85 Y54.58 E62.21865
G1 X130.32 Y54.85 E62.23010
G1 X139.22 Y61.31 E62.46279
G1 X139.62 Y61.68 E62.47429
G1 X146.98 Y69.85 E62.70698
G1 X147.30 Y70.29 E62.71847
G1 X152.79 Y79.81 E62.95111
G1 X153.01 Y80.31 E62.96258
G1 X156.41 Y90.76 E63.19524
G1 X156.52 Y91.29 E63.20675
G1 X157.68 Y102.23 E63.43941
G1 X157.68 Y102.77 E63.45090
G1 X156.52 Y113.71 E63.68356
G1 X156.41 Y114.24 E63.69507
G1 X153.01 Y124.69 E63.92773
G1 X152.79 Y125.19 E63.93920
G1 X147.30 Y134.71 E64.17184
G1 X146.98 Y135.15 E64.18333
G1 X139.62 Y143.32 E64.41602
G1 X139.22 Y143.68 E64.42753
G1 X130.32 Y150.15 E64.66021
G1 X129.85 Y150.42 E64.67166
G1 X119.81 Y154.89 E64.90434
G1 X119.29 Y155.06 E64.91583
G1 X108.54 Y157.34 E65.14855
G1 X108.00 Y157.40 E65.16002
G1 X97.00 Y157.40 E65.39265
G1 X96.46 Y157.34 E65.40412
G1 X85.71 Y155.06 E65.63684
G1 X85.19 Y154.89 E65.64833
G1 X75.15 Y150.42 E65.88101
G1 X74.68 Y150.15 E65.89246
G1 X65.78 Y143.68 E66.12514
G1 X65.38 Y143.32 E66.13665
G1 X58.02 Y135.15 E66.36934
G1 X57.70 Y134.71 E66.38082
G1 X52.21 Y125.19 E66.61347
G1 X51.99 Y124.69 E66.62494
G1 X48.59 Y114.24 E66.85760
G1 X48.47 Y113.71 E66.86911
G1 X47.32 Y102.77 E67.10177
G1 X47.32 Y102.23 E67.11326
G1 X48.47 Y91.29 E67.34592
G1 X48.59 Y90.76 E67.35743
G1 X51.99 Y80.31 E67.59009
G1 X52.21 Y79.81 E67.60156
