;Generated with Cura_SteamEngine 13.11.2
M109 T0 S220.000000
T0
;Sliced at: Wed 18-12-2013 13:37:28
;Basic settings: Layer height: 0.1 Walls: 0.9 Fill: 35
;Print time: #P_TIME#
;Filament used: #F_AMNT#m #F_WGHT#g
;Filament cost: #F_COST#
;M190 S70 ;Uncomment to add your own bed temperature line
;M109 S220 ;Uncomment to add your own temperature line
G21        ;metric values
G90        ;absolute positioning
M107       ;start with the fan off
G28 X0 Y0  ;move X/Y to min endstops
G28 Z0     ;move Z to min endstops
G1 Z15.0 F6000 ;move the platform down 15mm
G92 E0                  ;zero the extruded length
G1 F200 E3              ;extrude 3mm of feed stock
G92 E0                  ;zero the extruded length again
G1 F6000
;Put printing message on LCD screen
M117 Printing...

;Layer count: 100
;LAYER:0
M107
G0 F1200 X55.57 Y51.35 Z0.30
;TYPE:SKIRT
G1 F2400 E0.00000
G1 F1200 X56.25 Y50.74 E0.01948
G1 X67.14 Y42.82 E0.30441
G1 X67.94 Y42.36 E0.32387
G1 X80.03 Y36.98 E0.60392
G1 X80.46 Y36.82 E0.61366
G1 X81.55 Y36.46 E0.63798
G1 X81.99 Y36.34 E0.64766
G1 X94.94 Y33.59 E0.92768
G1 X95.85 Y33.50 E0.94717
G1 X109.32 Y33.50 E1.23205
G1 X110.23 Y33.59 E1.25154
G1 X123.40 Y36.39 E1.53643
G1 X124.27 Y36.68 E1.55589
G1 X136.57 Y42.15 E1.84079
G1 X137.37 Y42.61 E1.86024
G1 X148.26 Y50.53 E2.14517
G1 X148.95 Y51.14 E2.16464
G1 X157.80 Y60.97 E2.44463
G1 X158.09 Y61.33 E2.45429
G1 X158.76 Y62.26 E2.47863
G1 X159.01 Y62.65 E2.48843
G1 X165.63 Y74.11 E2.76849
G1 X166.00 Y74.95 E2.78792
G1 X170.16 Y87.75 E3.07281
G1 X170.36 Y88.65 E3.09225
G1 X171.76 Y102.04 E3.37718
G1 X171.76 Y102.96 E3.39665
G1 X170.36 Y116.35 E3.68156
G1 X170.17 Y117.25 E3.70103
G1 X166.01 Y130.05 E3.98592
G1 X165.63 Y130.89 E4.00535
G1 X159.01 Y142.35 E4.28546
G1 X158.76 Y142.75 E4.29537
G1 X158.08 Y143.68 E4.31971
G1 X157.80 Y144.03 E4.32926
G1 X148.95 Y153.86 E4.60922
G1 X148.26 Y154.48 E4.62868
G1 X137.37 Y162.39 E4.91361
G1 X136.57 Y162.85 E4.93307
G1 X124.28 Y168.32 E5.21796
G1 X123.40 Y168.61 E5.23743
G1 X110.23 Y171.41 E5.52232
G1 X109.32 Y171.50 E5.54181
G1 X95.85 Y171.50 E5.82669
G1 X94.94 Y171.41 E5.84618
G1 X81.99 Y168.65 E6.12633
G1 X81.54 Y168.53 E6.13628
G1 X80.44 Y168.18 E6.16059
G1 X80.02 Y168.01 E6.17009
G1 X67.94 Y162.63 E6.45001
G1 X67.14 Y162.17 E6.46947
G1 X56.25 Y154.26 E6.75440
G1 X55.57 Y153.64 E6.77388
G1 X46.56 Y143.64 E7.05876
G1 X46.02 Y142.90 E7.07821
G1 X39.29 Y131.24 E7.36313
G1 X38.91 Y130.40 E7.38259
G1 X34.75 Y117.59 E7.66749
G1 X34.56 Y116.69 E7.68698
G1 X33.18 Y103.54 E7.96691
G1 X33.16 Y103.09 E7.97643
G1 X33.15 Y102.36 E7.99175
G1 X33.15 Y102.33 E7.99239
G1 X33.16 Y101.89 E8.00163
G1 X33.18 Y101.46 E8.01090
G1 X34.56 Y88.31 E8.29072
G1 X34.75 Y87.41 E8.31021
G1 X38.91 Y74.60 E8.59512
G1 X39.29 Y73.76 E8.61457
G1 X46.02 Y62.10 E8.89949
G1 X46.56 Y61.36 E8.91894
G1 X55.57 Y51.35 E9.20382
G0 X55.89 Y51.67
G1 X56.53 Y51.09 E9.22228
G1 X67.39 Y43.20 E9.50621
G1 X68.14 Y42.77 E9.52466
G1 X80.20 Y37.40 E9.80395
G1 X80.61 Y37.24 E9.81320
G1 X81.68 Y36.89 E9.83701
G1 X82.10 Y36.78 E9.84623
G1 X95.01 Y34.04 E10.12549
G1 X95.88 Y33.95 E10.14396
G1 X109.29 Y33.95 E10.42787
G1 X110.16 Y34.04 E10.44634
G1 X123.28 Y36.83 E10.73023
G1 X124.11 Y37.10 E10.74870
G1 X136.37 Y42.55 E11.03260
G1 X137.12 Y42.99 E11.05105
G1 X147.98 Y50.88 E11.33498
G1 X148.63 Y51.46 E11.35345
G1 X157.46 Y61.27 E11.63270
G1 X157.73 Y61.60 E11.64186
G1 X158.39 Y62.51 E11.66571
G1 X158.63 Y62.88 E11.67499
G1 X165.23 Y74.31 E11.95431
G1 X165.58 Y75.11 E11.97276
G1 X169.73 Y87.87 E12.25662
G1 X169.91 Y88.72 E12.27510
G1 X171.31 Y102.06 E12.55902
G1 X171.31 Y102.93 E12.57747
G1 X169.91 Y116.28 E12.86139
G1 X169.73 Y117.13 E12.87987
G1 X165.59 Y129.89 E13.16374
G1 X165.23 Y130.69 E13.18219
G1 X158.63 Y142.12 E13.46156
G1 X158.39 Y142.49 E13.47096
G1 X157.73 Y143.40 E13.49479
G1 X157.46 Y143.74 E13.50386
G1 X148.63 Y153.54 E13.78308
G1 X147.98 Y154.12 E13.80154
G1 X137.12 Y162.01 E14.08547
G1 X136.37 Y162.45 E14.10392
G1 X124.11 Y167.90 E14.38782
G1 X123.28 Y168.17 E14.40629
G1 X110.16 Y170.96 E14.69018
G1 X109.29 Y171.05 E14.70865
G1 X95.88 Y171.05 E14.99256
G1 X95.01 Y170.96 E15.01103
G1 X82.10 Y168.22 E15.29042
G1 X81.66 Y168.10 E15.29986
G1 X80.59 Y167.75 E15.32369
G1 X80.20 Y167.60 E15.33270
G1 X68.14 Y162.23 E15.61187
G1 X67.39 Y161.80 E15.63032
G1 X56.53 Y153.91 E15.91425
G1 X55.89 Y153.33 E15.93271
G1 X46.91 Y143.36 E16.21660
G1 X46.40 Y142.65 E16.23507
G1 X39.69 Y131.03 E16.51898
G1 X39.33 Y130.24 E16.53745
G1 X35.19 Y117.47 E16.82137
G1 X35.01 Y116.62 E16.83984
G1 X33.63 Y103.50 E17.11905
G1 X33.61 Y103.07 E17.12808
G1 X33.60 Y102.36 E17.14313
G1 X33.60 Y102.33 E17.14374
G1 X33.61 Y101.91 E17.15274
G1 X33.63 Y101.49 E17.16151
G1 X35.01 Y88.38 E17.44061
G1 X35.19 Y87.52 E17.45909
G1 X39.33 Y74.76 E17.74301
G1 X39.69 Y73.97 E17.76148
G1 X46.40 Y62.35 E18.04538
G1 X46.91 Y61.64 E18.06385
G1 X55.89 Y51.67 E18.34775
G0 X56.20 Y51.99
G1 X56.82 Y51.44 E18.36522
G1 X67.63 Y43.58 E18.64813
G1 X68.35 Y43.17 E18.66561
G1 X80.37 Y37.81 E18.94414
G1 X80.76 Y37.67 E18.95290
G1 X81.81 Y37.33 E18.97621
G1 X82.21 Y37.22 E18.98494
G1 X95.08 Y34.48 E19.26346
G1 X95.90 Y34.40 E19.28093
G1 X109.27 Y34.40 E19.56382
G1 X110.09 Y34.48 E19.58129
G1 X123.17 Y37.26 E19.86418
G1 X123.95 Y37.52 E19.88167
G1 X136.16 Y42.95 E20.16457
G1 X136.88 Y43.37 E20.18204
G1 X147.69 Y51.22 E20.46494
G1 X148.31 Y51.78 E20.48241
G1 X157.11 Y61.56 E20.76094
G1 X157.37 Y61.88 E20.76961
G1 X158.02 Y62.77 E20.79293
G1 X158.25 Y63.12 E20.80173
G1 X164.83 Y74.52 E21.08029
G1 X165.16 Y75.27 E21.09774
G1 X169.29 Y87.98 E21.38062
G1 X169.47 Y88.79 E21.39807
G1 X170.87 Y102.09 E21.68099
G1 X170.87 Y102.91 E21.69847
G1 X169.47 Y116.21 E21.98139
G1 X169.30 Y117.02 E21.99887
G1 X165.16 Y129.73 E22.28175
G1 X164.83 Y130.48 E22.29920
G1 X158.25 Y141.88 E22.57780
G1 X158.02 Y142.24 E22.58672
G1 X157.37 Y143.13 E22.61006
G1 X157.11 Y143.44 E22.61861
G1 X148.31 Y153.22 E22.89707
G1 X147.70 Y153.77 E22.91454
G1 X136.88 Y161.63 E23.19746
G1 X136.16 Y162.05 E23.21493
G1 X123.95 Y167.48 E23.49783
G1 X123.17 Y167.74 E23.51532
G1 X110.09 Y170.52 E23.79822
G1 X109.27 Y170.60 E23.81569
G1 X95.90 Y170.60 E24.09858
G1 X95.08 Y170.52 E24.11605
G1 X82.20 Y167.78 E24.39468
G1 X81.79 Y167.67 E24.40365
G1 X80.74 Y167.33 E24.42698
G1 X80.37 Y167.18 E24.43549
G1 X68.35 Y161.83 E24.71392
G1 X67.63 Y161.42 E24.73139
G1 X56.82 Y153.56 E25.01431
G1 X56.21 Y153.01 E25.03178
G1 X47.26 Y143.07 E25.31467
G1 X46.78 Y142.40 E25.33212
G1 X40.09 Y130.83 E25.61505
G1 X39.75 Y130.07 E25.63252
G1 X35.62 Y117.36 E25.91541
G1 X35.45 Y116.55 E25.93291
G1 X34.08 Y103.46 E26.21136
G1 X34.06 Y103.06 E26.21992
G1 X34.05 Y102.36 E26.23469
G1 X34.05 Y102.33 E26.23529
G1 X34.06 Y101.92 E26.24403
G1 X34.08 Y101.53 E26.25231
G1 X35.45 Y88.45 E26.53067
G1 X35.62 Y87.64 E26.54817
G1 X39.75 Y74.93 E26.83107
G1 X40.09 Y74.17 E26.84854
G1 X46.78 Y62.59 E27.13147
G1 X47.26 Y61.93 E27.14892
G1 X56.20 Y51.99 E27.43181
G0 X56.52 Y52.31
G1 X57.10 Y51.79 E27.44829
G1 X67.88 Y43.96 E27.73019
G1 X68.55 Y43.57 E27.74666
G1 X80.54 Y38.23 E28.02445
G1 X80.91 Y38.09 E28.03270
G1 X81.93 Y37.76 E28.05552
G1 X82.31 Y37.66 E28.06374
G1 X95.15 Y34.93 E28.34151
G1 X95.92 Y34.85 E28.35798
G1 X109.25 Y34.85 E28.63989
G1 X110.02 Y34.93 E28.65636
G1 X123.05 Y37.70 E28.93826
G1 X123.79 Y37.94 E28.95473
G1 X135.96 Y43.36 E29.23664
G1 X136.63 Y43.74 E29.25311
G1 X147.41 Y51.58 E29.53501
G1 X147.99 Y52.10 E29.55149
G1 X156.77 Y61.85 E29.82927
G1 X157.01 Y62.15 E29.83744
G1 X157.65 Y63.02 E29.86028
G1 X157.86 Y63.35 E29.86856
G1 X164.43 Y74.72 E30.14636
G1 X164.74 Y75.43 E30.16283
G1 X168.86 Y88.10 E30.44471
G1 X169.02 Y88.86 E30.46117
G1 X170.41 Y102.11 E30.74309
G1 X170.41 Y102.89 E30.75956
G1 X169.02 Y116.14 E31.04149
G1 X168.86 Y116.90 E31.05795
G1 X164.74 Y129.57 E31.33984
G1 X164.43 Y130.28 E31.35631
G1 X157.86 Y141.65 E31.63416
G1 X157.65 Y141.98 E31.64254
G1 X157.01 Y142.85 E31.66538
G1 X156.77 Y143.15 E31.67344
G1 X147.99 Y152.90 E31.95116
G1 X147.41 Y153.43 E31.96766
G1 X136.63 Y161.26 E32.24958
G1 X135.96 Y161.64 E32.26604
G1 X123.79 Y167.06 E32.54795
G1 X123.05 Y167.30 E32.56442
G1 X110.02 Y170.07 E32.84632
G1 X109.25 Y170.15 E32.86279
G1 X95.92 Y170.15 E33.14471
G1 X95.15 Y170.07 E33.16118
G1 X82.31 Y167.34 E33.43905
G1 X81.92 Y167.24 E33.44747
G1 X80.90 Y166.90 E33.47032
G1 X80.54 Y166.77 E33.47835
G1 X68.55 Y161.43 E33.75604
G1 X67.88 Y161.04 E33.77251
G1 X57.10 Y153.21 E34.05441
G1 X56.52 Y152.69 E34.07089
G1 X47.61 Y142.79 E34.35279
G1 X47.15 Y142.16 E34.36926
G1 X40.49 Y130.62 E34.65119
G1 X40.17 Y129.91 E34.66766
G1 X36.06 Y117.24 E34.94958
G1 X35.90 Y116.48 E34.96604
G1 X34.53 Y103.43 E35.24376
G1 X34.51 Y103.05 E35.25182
G1 X34.50 Y102.36 E35.26633
G1 X34.50 Y102.33 E35.26691
G1 X34.51 Y101.93 E35.27537
G1 X34.53 Y101.57 E35.28321
G1 X35.90 Y88.52 E35.56083
G1 X36.06 Y87.76 E35.57729
G1 X40.17 Y75.09 E35.85921
G1 X40.49 Y74.38 E35.87568
G1 X47.15 Y62.84 E36.15761
G1 X47.61 Y62.21 E36.17408
G1 X56.52 Y52.31 E36.45598
G0 X56.84 Y52.63
G1 X57.38 Y52.14 E36.47147
G1 X68.12 Y44.34 E36.75237
G1 X68.76 Y43.97 E36.76785
G1 X80.72 Y38.65 E37.04491
G1 X81.06 Y38.51 E37.05266
G1 X82.06 Y38.19 E37.07498
G1 X82.42 Y38.09 E37.08269
G1 X95.22 Y35.37 E37.35972
G1 X95.95 Y35.30 E37.37519
G1 X109.22 Y35.30 E37.65609
G1 X109.95 Y35.37 E37.67156
G1 X122.93 Y38.13 E37.95246
G1 X123.63 Y38.36 E37.96796
G1 X135.76 Y43.76 E38.24886
G1 X136.39 Y44.12 E38.26433
G1 X147.13 Y51.92 E38.54524
G1 X147.67 Y52.42 E38.56073
G1 X156.43 Y62.14 E38.83774
G1 X156.66 Y62.42 E38.84542
G1 X157.28 Y63.28 E38.86775
G1 X157.48 Y63.59 E38.87555
G1 X164.02 Y74.93 E39.15261
G1 X164.32 Y75.59 E39.16806
G1 X168.42 Y88.22 E39.44894
G1 X168.58 Y88.93 E39.46440
G1 X169.96 Y102.13 E39.74533
G1 X169.96 Y102.86 E39.76082
G1 X168.58 Y116.07 E40.04173
G1 X168.43 Y116.78 E40.05722
G1 X164.32 Y129.41 E40.33809
G1 X164.03 Y130.07 E40.35355
G1 X157.48 Y141.41 E40.63066
G1 X157.28 Y141.73 E40.63853
G1 X156.65 Y142.58 E40.66087
G1 X156.43 Y142.86 E40.66845
G1 X147.67 Y152.58 E40.94542
G1 X147.13 Y153.07 E40.96092
G1 X136.39 Y160.88 E41.24183
G1 X135.76 Y161.24 E41.25731
G1 X123.63 Y166.64 E41.53821
G1 X122.93 Y166.87 E41.55370
G1 X109.95 Y169.63 E41.83461
G1 X109.22 Y169.70 E41.85008
G1 X95.95 Y169.70 E42.13098
G1 X95.22 Y169.63 E42.14645
G1 X82.41 Y166.90 E42.42357
G1 X82.05 Y166.81 E42.43150
G1 X81.05 Y166.48 E42.45384
G1 X80.71 Y166.35 E42.46139
G1 X68.76 Y161.03 E42.73834
G1 X68.12 Y160.66 E42.75381
G1 X57.39 Y152.86 E43.03471
G1 X56.84 Y152.37 E43.05021
G1 X47.96 Y142.51 E43.33110
G1 X47.53 Y141.91 E43.34656
G1 X40.89 Y130.42 E43.62748
G1 X40.60 Y129.75 E43.64297
G1 X36.49 Y117.12 E43.92388
G1 X36.34 Y116.41 E43.93936
G1 X34.97 Y103.39 E44.21632
G1 X34.96 Y103.04 E44.22391
G1 X34.95 Y102.36 E44.23817
G1 X34.95 Y102.34 E44.23866
G1 X34.96 Y101.95 E44.24689
G1 X34.97 Y101.60 E44.25426
G1 X36.34 Y88.59 E44.53114
G1 X36.49 Y87.87 E44.54662
G1 X40.60 Y75.25 E44.82752
G1 X40.89 Y74.58 E44.84302
G1 X47.53 Y63.08 E45.12394
G1 X47.96 Y62.49 E45.13940
G1 X56.84 Y52.63 E45.42029
G0 X57.16 Y52.95
G1 X57.67 Y52.49 E45.43477
G1 X68.37 Y44.71 E45.71470
G1 X68.96 Y44.37 E45.72915
G1 X80.89 Y39.06 E46.00546
G1 X81.21 Y38.94 E46.01271
G1 X82.19 Y38.62 E46.03453
G1 X82.52 Y38.53 E46.04174
G1 X95.29 Y35.82 E46.31802
G1 X95.97 Y35.75 E46.33251
G1 X109.20 Y35.75 E46.61239
G1 X109.88 Y35.82 E46.62688
G1 X122.82 Y38.57 E46.90680
G1 X123.47 Y38.78 E46.92125
G1 X135.55 Y44.16 E47.20117
G1 X136.14 Y44.50 E47.21563
G1 X146.84 Y52.28 E47.49556
G1 X147.35 Y52.73 E47.51003
G1 X156.09 Y62.44 E47.78631
G1 X156.30 Y62.70 E47.79349
G1 X156.91 Y63.53 E47.81533
G1 X157.10 Y63.82 E47.82260
G1 X163.62 Y75.13 E48.09893
G1 X163.90 Y75.75 E48.11337
G1 X167.99 Y88.33 E48.39327
G1 X168.13 Y89.00 E48.40774
G1 X169.51 Y102.16 E48.68768
G1 X169.51 Y102.84 E48.70213
G1 X168.13 Y116.00 E48.98207
G1 X167.99 Y116.67 E48.99654
G1 X163.90 Y129.24 E49.27644
G1 X163.62 Y129.87 E49.29088
G1 X157.10 Y141.18 E49.56723
G1 X156.91 Y141.47 E49.57460
G1 X156.30 Y142.30 E49.59644
G1 X156.09 Y142.56 E49.60353
G1 X147.35 Y152.27 E49.87977
G1 X146.84 Y152.72 E49.89427
G1 X136.14 Y160.50 E50.17420
G1 X135.55 Y160.84 E50.18866
G1 X123.47 Y166.22 E50.46858
G1 X122.82 Y166.43 E50.48303
G1 X109.88 Y169.18 E50.76294
G1 X109.20 Y169.25 E50.77744
G1 X95.97 Y169.25 E51.05732
G1 X95.29 Y169.18 E51.07181
G1 X82.52 Y166.47 E51.34820
G1 X82.18 Y166.38 E51.35559
G1 X81.20 Y166.05 E51.37743
G1 X80.89 Y165.93 E51.38448
G1 X68.96 Y160.63 E51.66069
G1 X68.37 Y160.29 E51.67515
G1 X57.67 Y152.51 E51.95508
G1 X57.16 Y152.05 E51.96955
G1 X48.31 Y142.22 E52.24944
G1 X47.91 Y141.67 E52.26394
G1 X41.29 Y130.21 E52.54387
G1 X41.02 Y129.59 E52.55834
G1 X36.93 Y117.01 E52.83826
G1 X36.79 Y116.34 E52.85273
G1 X35.42 Y103.36 E53.12896
G1 X35.41 Y103.02 E53.13602
G1 X35.40 Y102.36 E53.15003
G1 X35.40 Y102.34 E53.15051
G1 X35.41 Y101.96 E53.15849
G1 X35.42 Y101.64 E53.16538
G1 X36.79 Y88.66 E53.44153
G1 X36.93 Y87.99 E53.45600
G1 X41.01 Y75.41 E53.73591
G1 X41.29 Y74.79 E53.75039
G1 X47.91 Y63.33 E54.03031
G1 X48.31 Y62.78 E54.04481
G1 X57.16 Y52.95 E54.32470
G0 X57.48 Y53.26
G1 X57.95 Y52.84 E54.33817
G1 X68.61 Y45.09 E54.61710
G1 X69.17 Y44.77 E54.63058
G1 X81.06 Y39.48 E54.90612
G1 X81.36 Y39.36 E54.91287
G1 X82.32 Y39.05 E54.93419
G1 X82.62 Y38.97 E54.94091
G1 X95.36 Y36.26 E55.21645
G1 X95.99 Y36.20 E55.22992
G1 X109.17 Y36.20 E55.50883
G1 X109.81 Y36.26 E55.52230
G1 X122.70 Y39.00 E55.80122
G1 X123.31 Y39.20 E55.81470
G1 X135.35 Y44.56 E56.09359
G1 X135.90 Y44.88 E56.10708
G1 X146.56 Y52.63 E56.38600
G1 X147.03 Y53.05 E56.39947
G1 X155.74 Y62.73 E56.67501
G1 X155.94 Y62.97 E56.68170
G1 X156.54 Y63.79 E56.70303
G1 X156.71 Y64.06 E56.70981
G1 X163.22 Y75.33 E56.98537
G1 X163.48 Y75.92 E56.99885
G1 X167.55 Y88.45 E57.27773
G1 X167.69 Y89.07 E57.29121
G1 X169.07 Y102.18 E57.57013
G1 X169.07 Y102.82 E57.58361
G1 X167.69 Y115.93 E57.86253
G1 X167.55 Y116.55 E57.87600
G1 X163.48 Y129.08 E58.15488
G1 X163.22 Y129.66 E58.16836
G1 X156.71 Y140.94 E58.44396
G1 X156.54 Y141.21 E58.45083
G1 X155.94 Y142.03 E58.47217
G1 X155.74 Y142.27 E58.47877
G1 X147.03 Y151.95 E58.75426
G1 X146.56 Y152.37 E58.76774
G1 X135.90 Y160.12 E59.04667
G1 X135.35 Y160.44 E59.06015
G1 X123.31 Y165.80 E59.33905
G1 X122.70 Y166.00 E59.35253
G1 X109.81 Y168.74 E59.63144
G1 X109.18 Y168.80 E59.64491
G1 X96.00 Y168.80 E59.92383
G1 X95.36 Y168.74 E59.93730
G1 X82.62 Y166.03 E60.21292
G1 X82.31 Y165.94 E60.21983
G1 X81.35 Y165.63 E60.24116
G1 X81.06 Y165.52 E60.24773
G1 X69.17 Y160.23 E60.52318
G1 X68.62 Y159.91 E60.53666
G1 X57.95 Y152.16 E60.81559
G1 X57.48 Y151.73 E60.82906
G1 X48.66 Y141.94 E61.10796
G1 X48.29 Y141.42 E61.12143
G1 X41.70 Y130.01 E61.40036
G1 X41.44 Y129.43 E61.41386
G1 X37.36 Y116.89 E61.69276
G1 X37.23 Y116.27 E61.70626
G1 X35.87 Y103.32 E61.98173
G1 X35.86 Y103.01 E61.98832
G1 X35.85 Y102.36 E62.00205
G1 X35.85 Y102.34 E62.00252
G1 X35.86 Y101.97 E62.01024
G1 X35.87 Y101.67 E62.01664
G1 X37.23 Y88.73 E62.29204
G1 X37.36 Y88.11 E62.30552
G1 X41.44 Y75.57 E62.58443
G1 X41.69 Y74.99 E62.59794
G1 X48.29 Y63.58 E62.87687
G1 X48.66 Y63.06 E62.89033
G1 X57.48 Y53.26 E63.16924
G0 X57.80 Y53.58
G1 X58.24 Y53.19 E63.18173
G1 X68.86 Y45.47 E63.45966
G1 X69.37 Y45.17 E63.47213
G1 X81.23 Y39.89 E63.74692
G1 X81.51 Y39.79 E63.75318
G1 X82.45 Y39.48 E63.77400
G1 X82.73 Y39.41 E63.78022
G1 X95.43 Y36.71 E64.05501
G1 X96.02 Y36.65 E64.06749
G1 X109.15 Y36.65 E64.34539
G1 X109.74 Y36.71 E64.35788
G1 X122.58 Y39.44 E64.63580
G1 X123.14 Y39.62 E64.64826
G1 X135.14 Y44.96 E64.92618
G1 X135.65 Y45.26 E64.93864
G1 X146.28 Y52.98 E65.21657
G1 X146.71 Y53.37 E65.22904
G1 X155.40 Y63.02 E65.50382
G1 X155.59 Y63.25 E65.51002
G1 X156.17 Y64.04 E65.53086
G1 X156.33 Y64.29 E65.53715
G1 X162.82 Y75.54 E65.81197
G1 X163.06 Y76.08 E65.82443
G1 X167.12 Y88.57 E66.10233
G1 X167.24 Y89.14 E66.11479
G1 X168.61 Y102.21 E66.39273
G1 X168.61 Y102.79 E66.40519
G1 X167.24 Y115.86 E66.68313
G1 X167.12 Y116.43 E66.69559
G1 X163.06 Y128.92 E66.97349
G1 X162.82 Y129.46 E66.98595
G1 X156.33 Y140.71 E67.26079
G1 X156.16 Y140.96 E67.26715
G1 X155.58 Y141.76 E67.28800
