;Generated with Cura_SteamEngine 13.12
M109 T0 S220.000000
T0
;Sliced ?filename? at: Mon 17-02-2014 09:17:20
;Basic settings: Layer height: 0.1 Walls: 0.4 Fill: 20
;Print time: #P_TIME#
;Filament used: #F_AMNT#m #F_WGHT#g
;Filament cost: #F_COST#
G21        ;metric values
G90        ;absolute positioning
M107       ;start with the fan off
G28 X0 Y0  ;move X/Y to min endstops
G28 Z0     ;move Z to min endstops
G1 Z15.0 F?max_z_speed? ;move the platform down 15mm
G92 E0                  ;zero the extruded length
G1 F200 E3              ;extrude 3mm of feed stock
G92 E0                  ;zero the extruded length again
G1 F6000
M117 Printing...

;Layer count: 204
;LAYER:0
M107
G0 F1680 X59.81 Y57.05 Z0.30
;TYPE:SKIRT
G1 F2400 E0.00000
G1 F1140 X62.76 Y54.46 E0.07320
G1 X65.85 Y52.06 E0.14636
G1 X69.09 Y49.85 E0.21952
G1 X72.46 Y47.86 E0.29270
G1 X75.95 Y46.08 E0.36587
G1 X79.55 Y44.53 E0.43902
G1 X83.23 Y43.20 E0.51222
G1 X86.99 Y42.11 E0.58537
G1 X90.82 Y41.25 E0.65855
G1 X94.69 Y40.64 E0.73172
G1 X98.59 Y40.27 E0.80489
G1 X102.50 Y40.15 E0.87804
G1 X106.41 Y40.27 E0.95118
G1 X110.31 Y40.64 E1.02436
G1 X114.18 Y41.25 E1.09753
G1 X118.01 Y42.11 E1.17070
G1 X121.77 Y43.20 E1.24385
G1 X125.45 Y44.53 E1.31705
G1 X129.05 Y46.08 E1.39020
G1 X132.54 Y47.86 E1.46337
G1 X135.91 Y49.85 E1.53655
G1 X139.15 Y52.06 E1.60972
G1 X142.24 Y54.46 E1.68289
G1 X145.18 Y57.05 E1.75607
G1 X147.95 Y59.82 E1.82922
G1 X150.54 Y62.76 E1.90240
G1 X152.95 Y65.85 E1.97557
G1 X155.15 Y69.09 E2.04874
G1 X157.14 Y72.46 E2.12192
G1 X158.92 Y75.95 E2.19509
G1 X160.48 Y79.55 E2.26824
G1 X161.80 Y83.23 E2.34144
G1 X162.89 Y86.99 E2.41459
G1 X163.75 Y90.82 E2.48776
G1 X164.36 Y94.69 E2.56093
G1 X164.73 Y98.59 E2.63411
G1 X164.85 Y102.50 E2.70725
G1 X164.73 Y106.41 E2.78040
G1 X164.36 Y110.31 E2.85358
G1 X163.75 Y114.18 E2.92674
G1 X162.89 Y118.01 E2.99992
G1 X161.80 Y121.77 E3.07307
G1 X160.48 Y125.45 E3.14627
G1 X158.92 Y129.05 E3.21942
G1 X157.14 Y132.54 E3.29259
G1 X155.15 Y135.91 E3.36577
G1 X152.95 Y139.15 E3.43893
G1 X150.54 Y142.24 E3.51210
G1 X147.95 Y145.18 E3.58528
G1 X145.18 Y147.95 E3.65844
G1 X142.24 Y150.54 E3.73164
G1 X139.15 Y152.95 E3.80479
G1 X135.91 Y155.15 E3.87796
G1 X132.54 Y157.14 E3.95114
G1 X129.05 Y158.92 E4.02430
G1 X125.45 Y160.48 E4.09746
G1 X121.77 Y161.80 E4.17065
G1 X118.01 Y162.89 E4.24381
G1 X114.18 Y163.75 E4.31698
G1 X110.31 Y164.36 E4.39015
G1 X106.41 Y164.73 E4.46333
G1 X102.50 Y164.85 E4.53647
G1 X98.59 Y164.73 E4.60962
G1 X94.69 Y164.36 E4.68279
G1 X90.82 Y163.75 E4.75596
G1 X86.99 Y162.89 E4.82914
G1 X83.23 Y161.80 E4.90229
G1 X79.55 Y160.48 E4.97549
G1 X75.95 Y158.92 E5.04864
G1 X72.46 Y157.14 E5.12180
G1 X69.09 Y155.15 E5.19499
G1 X65.85 Y152.95 E5.26815
G1 X62.76 Y150.54 E5.34132
G1 X59.82 Y147.95 E5.41451
G1 X57.05 Y145.18 E5.48765
G1 X54.46 Y142.24 E5.56084
G1 X52.06 Y139.15 E5.63401
G1 X49.85 Y135.91 E5.70717
G1 X47.86 Y132.54 E5.78036
G1 X46.08 Y129.05 E5.85352
G1 X44.53 Y125.45 E5.92668
G1 X43.20 Y121.77 E5.99987
G1 X42.11 Y118.01 E6.07303
G1 X41.25 Y114.18 E6.14620
G1 X40.64 Y110.31 E6.21937
G1 X40.27 Y106.41 E6.29254
G1 X40.15 Y102.50 E6.36569
G1 X40.27 Y98.59 E6.43884
G1 X40.64 Y94.69 E6.51201
G1 X41.25 Y90.82 E6.58518
G1 X42.11 Y86.99 E6.65835
G1 X43.20 Y83.23 E6.73151
G1 X44.53 Y79.55 E6.80470
G1 X46.08 Y75.95 E6.87786
G1 X47.86 Y72.46 E6.95102
G1 X49.85 Y69.09 E7.02421
G1 X52.06 Y65.85 E7.09737
G1 X54.46 Y62.76 E7.17054
G1 X57.05 Y59.82 E7.24371
G1 X59.81 Y57.05 E7.31687
G1 F2400 E2.81687
G0 F1680 X62.14 Y59.53
;TYPE:WALL-OUTER
G1 F2400 E7.31687
G1 F1140 X64.92 Y57.08 E7.38608
G1 X67.86 Y54.80 E7.45549
G1 X70.91 Y52.73 E7.52442
G1 X74.10 Y50.84 E7.59373
G1 X77.39 Y49.16 E7.66277
G1 X80.80 Y47.69 E7.73217
G1 X84.28 Y46.43 E7.80124
G1 X87.84 Y45.40 E7.87045
G1 X91.45 Y44.59 E7.93949
G1 X95.12 Y44.01 E8.00889
G1 X98.80 Y43.67 E8.07792
G1 X102.50 Y43.55 E8.14712
G1 X106.20 Y43.67 E8.21633
G1 X109.88 Y44.01 E8.28536
G1 X113.55 Y44.59 E8.35476
G1 X117.16 Y45.40 E8.42380
G1 X120.72 Y46.43 E8.49301
G1 X124.20 Y47.69 E8.56207
G1 X127.61 Y49.16 E8.63148
G1 X130.90 Y50.84 E8.70052
G1 X134.09 Y52.73 E8.76983
G1 X137.15 Y54.80 E8.83876
G1 X140.08 Y57.08 E8.90817
G1 X142.86 Y59.53 E8.97738
G1 X145.47 Y62.14 E9.04630
G1 X147.92 Y64.92 E9.11550
G1 X150.20 Y67.86 E9.18491
G1 X152.27 Y70.91 E9.25384
G1 X154.16 Y74.11 E9.32326
G1 X155.84 Y77.39 E9.39219
G1 X157.31 Y80.80 E9.46160
G1 X158.57 Y84.28 E9.53057
G1 X159.60 Y87.83 E9.59974
G1 X160.41 Y91.45 E9.66891
G1 X160.99 Y95.12 E9.73832
G1 X161.34 Y98.79 E9.80727
G1 X161.45 Y102.49 E9.87644
G1 X161.34 Y106.20 E9.94575
G1 X160.99 Y109.88 E10.01478
G1 X160.41 Y113.55 E10.08419
G1 X159.60 Y117.15 E10.15313
G1 X158.57 Y120.72 E10.22243
G1 X157.31 Y124.20 E10.29150
G1 X155.84 Y127.61 E10.36088
G1 X154.16 Y130.89 E10.42983
G1 X152.27 Y134.09 E10.49926
G1 X150.20 Y137.15 E10.56818
G1 X147.92 Y140.08 E10.63760
G1 X145.47 Y142.86 E10.70680
G1 X142.86 Y145.47 E10.77572
G1 X140.08 Y147.92 E10.84493
G1 X137.15 Y150.20 E10.91434
G1 X134.09 Y152.27 E10.98327
G1 X130.90 Y154.16 E11.05258
G1 X127.61 Y155.84 E11.12162
G1 X124.20 Y157.31 E11.19101
G1 X120.72 Y158.57 E11.26009
G1 X117.16 Y159.60 E11.32930
G1 X113.55 Y160.41 E11.39834
G1 X109.88 Y160.99 E11.46774
G1 X106.20 Y161.34 E11.53677
G1 X102.50 Y161.45 E11.60597
G1 X98.80 Y161.34 E11.67518
G1 X95.12 Y160.99 E11.74421
G1 X91.45 Y160.41 E11.81361
G1 X87.84 Y159.60 E11.88265
G1 X84.28 Y158.57 E11.95186
G1 X80.80 Y157.31 E12.02094
G1 X77.39 Y155.84 E12.09033
G1 X74.10 Y154.16 E12.15937
G1 X70.91 Y152.27 E12.22868
G1 X67.86 Y150.20 E12.29761
G1 X64.92 Y147.92 E12.36702
G1 X62.14 Y145.47 E12.43623
G1 X59.53 Y142.86 E12.50515
G1 X57.08 Y140.08 E12.57435
G1 X54.80 Y137.15 E12.64376
G1 X52.73 Y134.09 E12.71269
G1 X50.84 Y130.89 E12.78211
G1 X49.16 Y127.61 E12.85107
G1 X47.69 Y124.20 E12.92045
G1 X46.43 Y120.72 E12.98951
G1 X45.40 Y117.15 E13.05882
G1 X44.59 Y113.55 E13.12776
G1 X44.01 Y109.88 E13.19717
G1 X43.67 Y106.20 E13.26620
G1 X43.55 Y102.51 E13.33529
G1 X43.67 Y98.79 E13.40468
G1 X44.01 Y95.12 E13.47363
G1 X44.59 Y91.45 E13.54304
G1 X45.40 Y87.85 E13.61198
G1 X46.44 Y84.28 E13.68138
G1 X47.69 Y80.80 E13.75035
G1 X49.16 Y77.39 E13.81976
G1 X50.84 Y74.11 E13.88869
G1 X52.73 Y70.91 E13.95811
G1 X54.80 Y67.86 E14.02704
G1 X57.08 Y64.92 E14.09645
G1 X59.53 Y62.14 E14.16565
G1 X62.14 Y59.53 E14.23457
G0 F1680 X62.21 Y59.66
;TYPE:FILL
G1 F1140 X145.34 Y142.79 E16.43066
G0 F1680 X145.60 Y142.49
G1 F1140 X62.51 Y59.39 E18.62587
G0 F1680 X62.81 Y59.13
G1 F1140 X145.87 Y142.19 E20.82015
G0 F1680 X146.13 Y141.89
G1 F1140 X63.11 Y58.86 E23.01348
G0 F1680 X63.41 Y58.60
G1 F1140 X146.40 Y141.59 E25.20586
G0 F1680 X146.66 Y141.29
G1 F1140 X63.71 Y58.33 E27.39729
G0 F1680 X64.01 Y58.07
G1 F1140 X146.93 Y140.99 E29.58777
G0 F1680 X147.20 Y140.69
G1 F1140 X64.31 Y57.80 E31.77732
G0 F1680 X64.61 Y57.54
G1 F1140 X147.46 Y140.39 E33.96592
G0 F1680 X147.73 Y140.09
G1 F1140 X64.91 Y57.27 E36.15357
G0 F1680 X65.22 Y57.02
G1 F1140 X147.98 Y139.77 E38.33964
G0 F1680 X148.23 Y139.46
G1 F1140 X65.54 Y56.78 E40.52380
G0 F1680 X65.86 Y56.53
G1 F1140 X148.47 Y139.14 E42.70609
G0 F1680 X148.72 Y138.82
G1 F1140 X66.18 Y56.28 E44.88648
G0 F1680 X66.50 Y56.03
G1 F1140 X148.97 Y138.50 E47.06499
G0 F1680 X149.21 Y138.18
G1 F1140 X66.82 Y55.78 E49.24165
G0 F1680 X67.14 Y55.54
G1 F1140 X149.46 Y137.86 E51.41641
G0 F1680 X149.71 Y137.55
G1 F1140 X67.45 Y55.29 E53.58930
G0 F1680 X67.77 Y55.04
G1 F1140 X149.96 Y137.23 E55.76028
G0 F1680 X150.19 Y136.90
G1 F1140 X68.10 Y54.81 E57.92894
G0 F1680 X68.43 Y54.58
G1 F1140 X150.42 Y136.56 E60.09477
G0 F1680 X150.65 Y136.23
G1 F1140 X68.77 Y54.35 E62.25769
G0 F1680 X69.11 Y54.12
G1 F1140 X150.88 Y135.89 E64.41780
G0 F1680 X151.11 Y135.55
G1 F1140 X69.45 Y53.89 E66.57505
G0 F1680 X69.78 Y53.66
G1 F1140 X151.34 Y135.22 E68.72947
G0 F1680 X151.57 Y134.88
G1 F1140 X70.12 Y53.43 E70.88101
G0 F1680 X70.46 Y53.20
G1 F1140 X151.80 Y134.54 E73.02971
G0 F1680 X152.02 Y134.21
G1 F1140 X70.79 Y52.97 E75.17557
G0 F1680 X71.14 Y52.75
G1 F1140 X152.24 Y133.86 E77.31813
G0 F1680 X152.46 Y133.51
G1 F1140 X71.49 Y52.54 E79.45684
G0 F1680 X71.85 Y52.33
G1 F1140 X152.66 Y133.15 E81.59171
G0 F1680 X152.88 Y132.79
G1 F1140 X72.20 Y52.12 E83.72278
G0 F1680 X72.56 Y51.91
G1 F1140 X153.09 Y132.44 E85.84999
G0 F1680 X153.30 Y132.08
G1 F1140 X72.92 Y51.70 E87.97336
G0 F1680 X73.27 Y51.49
G1 F1140 X153.51 Y131.73 E90.09291
G0 F1680 X153.72 Y131.37
G1 F1140 X73.63 Y51.28 E92.20861
G0 F1680 X73.98 Y51.07
G1 F1140 X153.93 Y131.02 E94.32046
G0 F1680 X154.13 Y130.65
G1 F1140 X74.35 Y50.87 E96.42799
G0 F1680 X74.72 Y50.68
G1 F1140 X154.32 Y130.28 E98.53067
G0 F1680 X154.51 Y129.90
G1 F1140 X75.10 Y50.49 E100.62851
G0 F1680 X75.47 Y50.30
G1 F1140 X154.70 Y129.53 E102.72148
G0 F1680 X154.89 Y129.15
G1 F1140 X75.85 Y50.11 E104.80960
G0 F1680 X76.22 Y49.92
G1 F1140 X155.08 Y128.78 E106.89285
G0 F1680 X155.27 Y128.40
G1 F1140 X76.60 Y49.72 E108.97127
G0 F1680 X76.97 Y49.53
G1 F1140 X155.46 Y128.03 E111.04484
G0 F1680 X155.66 Y127.65
G1 F1140 X77.35 Y49.34 E113.11354
G0 F1680 X77.74 Y49.17
G1 F1140 X155.83 Y127.26 E115.17660
G0 F1680 X156.00 Y126.87
G1 F1140 X78.13 Y49.00 E117.23378
G0 F1680 X78.52 Y48.83
G1 F1140 X156.17 Y126.47 E119.28502
G0 F1680 X156.35 Y126.08
G1 F1140 X78.92 Y48.65 E121.33033
G0 F1680 X79.31 Y48.48
G1 F1140 X156.51 Y125.69 E123.36972
G0 F1680 X156.69 Y125.29
G1 F1140 X79.71 Y48.31 E125.40322
G0 F1680 X80.10 Y48.14
G1 F1140 X156.86 Y124.90 E127.43080
G0 F1680 X157.03 Y124.50
G1 F1140 X80.50 Y47.97 E129.45248
G0 F1680 X80.89 Y47.80
G1 F1140 X157.20 Y124.11 E131.46815
G0 F1680 X157.35 Y123.69
G1 F1140 X81.31 Y47.65 E133.47679
G0 F1680 X81.73 Y47.50
G1 F1140 X157.50 Y123.27 E135.47836
G0 F1680 X157.65 Y122.86
G1 F1140 X82.14 Y47.35 E137.47291
G0 F1680 X82.56 Y47.20
G1 F1140 X157.80 Y122.44 E139.46043
G0 F1680 X157.95 Y122.03
G1 F1140 X82.97 Y47.05 E141.44092
G0 F1680 X83.39 Y46.90
G1 F1140 X158.10 Y121.61 E143.41433
G0 F1680 X158.24 Y121.19
G1 F1140 X83.81 Y46.75 E145.38073
G0 F1680 X84.22 Y46.60
G1 F1140 X158.40 Y120.78 E147.34012
G0 F1680 X158.53 Y120.34
G1 F1140 X84.65 Y46.47 E149.29156
G0 F1680 X85.09 Y46.34
G1 F1140 X158.65 Y119.91 E151.23480
G0 F1680 X158.78 Y119.47
G1 F1140 X85.53 Y46.22 E153.16981
G0 F1680 X85.97 Y46.09
G1 F1140 X158.91 Y119.03 E155.09662
G0 F1680 X159.04 Y118.59
G1 F1140 X86.41 Y45.96 E157.01522
G0 F1680 X86.85 Y45.83
G1 F1140 X159.16 Y118.15 E158.92561
G0 F1680 X159.29 Y117.71
G1 F1140 X87.29 Y45.71 E160.82777
G0 F1680 X87.72 Y45.58
G1 F1140 X159.42 Y117.28 E162.72171
G0 F1680 X159.53 Y116.82
G1 F1140 X88.18 Y45.47 E164.60663
G0 F1680 X88.64 Y45.37
G1 F1140 X159.63 Y116.36 E166.48207
G0 F1680 X159.74 Y115.90
G1 F1140 X89.10 Y45.26 E168.34803
G0 F1680 X89.56 Y45.16
G1 F1140 X159.84 Y115.43 E170.20451
G0 F1680 X159.94 Y114.97
G1 F1140 X90.03 Y45.05 E172.05150
G0 F1680 X90.49 Y44.95
G1 F1140 X160.05 Y114.51 E173.88899
G0 F1680 X160.15 Y114.05
G1 F1140 X90.95 Y44.85 E175.71700
G0 F1680 X91.41 Y44.74
G1 F1140 X160.26 Y113.59 E177.53554
G0 F1680 X160.34 Y113.10
G1 F1140 X91.90 Y44.67 E179.34336
G0 F1680 X92.39 Y44.59
G1 F1140 X160.41 Y112.61 E181.14034
G0 F1680 X160.49 Y112.12
G1 F1140 X92.88 Y44.51 E182.92643
G0 F1680 X93.36 Y44.43
G1 F1140 X160.57 Y111.64 E184.70170
G0 F1680 X160.64 Y111.15
G1 F1140 X93.85 Y44.35 E186.46610
G0 F1680 X94.34 Y44.28
G1 F1140 X160.72 Y110.66 E188.21963
G0 F1680 X160.80 Y110.17
G1 F1140 X94.83 Y44.20 E189.96232
G0 F1680 X95.33 Y44.13
G1 F1140 X160.87 Y109.67 E191.69363
G0 F1680 X160.91 Y109.15
G1 F1140 X95.84 Y44.08 E193.41257
G0 F1680 X96.36 Y44.03
G1 F1140 X160.96 Y108.64 E195.11915
G0 F1680 X161.01 Y108.12
G1 F1140 X96.88 Y43.99 E196.81337
G0 F1680 X97.39 Y43.94
G1 F1140 X161.06 Y107.60 E198.49520
G0 F1680 X161.11 Y107.09
G1 F1140 X97.91 Y43.89 E200.16467
G0 F1680 X98.43 Y43.84
G1 F1140 X161.16 Y106.57 E201.82177
G0 F1680 X161.20 Y106.04
G1 F1140 X98.96 Y43.80 E203.46602
G0 F1680 X99.50 Y43.78
G1 F1140 X161.22 Y105.50 E205.09626
G0 F1680 X161.23 Y104.95
G1 F1140 X100.05 Y43.77 E206.71246
G0 F1680 X100.60 Y43.75
G1 F1140 X161.25 Y104.40 E208.31461
G0 F1680 X161.27 Y103.85
G1 F1140 X101.15 Y43.73 E209.90277
G0 F1680 X101.70 Y43.71
G1 F1140 X161.29 Y103.30 E211.47687
G0 F1680 X161.30 Y102.75
G1 F1140 X102.25 Y43.70 E213.03695
G0 F1680 X102.81 Y43.70
G1 F1140 X161.30 Y102.19 E214.58199
G0 F1680 X161.28 Y101.60
G1 F1140 X103.40 Y43.72 E216.11114
G0 F1680 X103.98 Y43.74
G1 F1140 X161.26 Y101.02 E217.62436
G0 F1680 X161.25 Y100.43
G1 F1140 X104.57 Y43.75 E219.12167
G0 F1680 X105.15 Y43.77
G1 F1140 X161.23 Y99.85 E220.60308
G0 F1680 X161.21 Y99.27
G1 F1140 X105.73 Y43.79 E222.06856
G0 F1680 X106.33 Y43.82
G1 F1140 X161.18 Y98.67 E223.51767
G0 F1680 X161.12 Y98.05
G1 F1140 X106.95 Y43.88 E224.94876
G0 F1680 X107.57 Y43.94
G1 F1140 X161.06 Y97.43 E226.36175
G0 F1680 X161.01 Y96.80
G1 F1140 X108.20 Y43.99 E227.75669
G0 F1680 X108.82 Y44.05
G1 F1140 X160.95 Y96.18 E229.13357
G0 F1680 X160.89 Y95.55
G1 F1140 X109.45 Y44.11 E230.49238
G0 F1680 X110.09 Y44.19
G1 F1140 X160.81 Y94.91 E231.83227
G0 F1680 X160.71 Y94.24
G1 F1140 X110.76 Y44.29 E233.15159
G0 F1680 X111.43 Y44.40
G1 F1140 X160.60 Y93.57 E234.45031
G0 F1680 X160.49 Y92.89
G1 F1140 X112.11 Y44.51 E235.72850
G0 F1680 X112.78 Y44.61
G1 F1140 X160.38 Y92.22 E236.98608
G0 F1680 X160.28 Y91.55
G1 F1140 X113.45 Y44.72 E238.22312
G0 F1680 X114.17 Y44.88
G1 F1140 X160.12 Y90.83 E239.43699
G0 F1680 X159.96 Y90.10
G1 F1140 X114.90 Y45.04 E240.62728
G0 F1680 X115.63 Y45.20
G1 F1140 X159.80 Y89.37 E241.79404
G0 F1680 X159.63 Y88.64
G1 F1140 X116.36 Y45.36 E242.93726
G0 F1680 X117.09 Y45.53
G1 F1140 X159.47 Y87.91 E244.05692
G0 F1680 X159.24 Y87.12
G1 F1140 X117.88 Y45.76 E245.14961
G0 F1680 X118.68 Y45.99
G1 F1140 X159.01 Y86.32 E246.21511
G0 F1680 X158.78 Y85.53
G1 F1140 X119.47 Y46.22 E247.25344
G0 F1680 X120.27 Y46.45
G1 F1140 X158.55 Y84.73 E248.26455
G0 F1680 X158.27 Y83.89
G1 F1140 X121.11 Y46.73 E249.24624
G0 F1680 X122.00 Y47.04
G1 F1140 X157.96 Y83.00 E250.19616
G0 F1680 X157.64 Y82.12
G1 F1140 X122.88 Y47.36 E251.11432
G0 F1680 X123.76 Y47.68
G1 F1140 X157.32 Y81.24 E252.00072
G0 F1680 X156.93 Y80.29
G1 F1140 X124.71 Y48.06 E252.85189
G0 F1680 X125.71 Y48.50
G1 F1140 X156.50 Y79.29 E253.66528
G0 F1680 X156.07 Y78.29
G1 F1140 X126.71 Y48.93 E254.44094
G0 F1680 X127.73 Y49.38
G1 F1140 X155.62 Y77.27 E255.17758
G0 F1680 X155.03 Y76.12
G1 F1140 X128.88 Y49.97 E255.86826
G0 F1680 X130.04 Y50.56
G1 F1140 X154.44 Y74.96 E256.51301
G0 F1680 X153.78 Y73.74
G1 F1140 X131.26 Y51.22 E257.10792
G0 F1680 X131.18 Y51.35
G0 X132.57 Y52.17
G0 X132.65 Y52.04
G1 F1140 X152.96 Y72.35 E257.64457
G0 F1680 X152.83 Y72.43
G0 X152.01 Y71.05
G0 X152.14 Y70.96
G1 F1140 X134.04 Y52.86 E258.12284
G0 F1680 X133.94 Y52.99
G0 X135.71 Y54.19
G0 X135.80 Y54.06
G1 F1140 X150.94 Y69.20 E258.52284
G0 F1680 X150.81 Y69.29
G0 X149.40 Y67.31
G0 X149.52 Y67.22
G1 F1140 X137.78 Y55.48 E258.83298
G0 F1680 X137.68 Y55.60
G0 X140.48 Y57.84
G0 X140.59 Y57.72
G1 F1140 X147.28 Y64.41 E259.00976
G0 F1680 X147.16 Y64.51
G0 X144.94 Y142.96
G0 X145.06 Y143.08
G1 F1140 X61.92 Y59.94 E261.20586
G0 F1680 X61.64 Y60.22
G1 F1140 X144.77 Y143.36 E263.40197
G0 F1680 X144.49 Y143.64
G1 F1140 X61.36 Y60.51 E265.59806
G0 F1680 X61.07 Y60.79
G1 F1140 X144.21 Y143.93 E267.79416
G0 F1680 X143.93 Y144.21
G1 F1140 X60.79 Y61.07 E269.99027
G0 F1680 X60.51 Y61.36
G1 F1140 X143.64 Y144.49 E272.18636
G0 F1680 X143.36 Y144.77
G1 F1140 X60.22 Y61.64 E274.38246
G0 F1680 X59.94 Y61.92
G1 F1140 X143.08 Y145.06 E276.57857
G0 F1680 X142.79 Y145.34
G1 F1140 X59.66 Y62.21 E278.77466
G0 F1680 X59.39 Y62.51
G1 F1140 X142.49 Y145.60 E280.96986
G0 F1680 X142.19 Y145.87
G1 F1140 X59.13 Y62.81 E283.16415
G0 F1680 X58.86 Y63.11
G1 F1140 X141.89 Y146.13 E285.35748
G0 F1680 X141.59 Y146.40
G1 F1140 X58.60 Y63.41 E287.54987
G0 F1680 X58.33 Y63.71
G1 F1140 X141.29 Y146.66 E289.74130
G0 F1680 X140.99 Y146.93
G1 F1140 X58.07 Y64.01 E291.93178
G0 F1680 X57.80 Y64.31
G1 F1140 X140.69 Y147.19 E294.12131
G0 F1680 X140.39 Y147.46
G1 F1140 X57.54 Y64.61 E296.30993
G0 F1680 X57.27 Y64.91
G1 F1140 X140.09 Y147.72 E298.49757
