;Generated with Cura_SteamEngine 13.12
M109 T0 S220.000000
T0
;Sliced ?filename? at: Sun 23-02-2014 22:55:27
;Basic settings: Layer height: 0.2 Walls: 0.7 Fill: 15
;Print time: #P_TIME#
;Filament used: #F_AMNT#m #F_WGHT#g
;Filament cost: #F_COST#
G21        ;metric values
G90        ;absolute positioning
M107       ;start with the fan off
G28 X0 Y0  ;move X/Y to min endstops
G28 Z0     ;move Z to min endstops
G1 Z15.0 F?max_z_speed? ;move the platform down 15mm
G92 E0                  ;zero the extruded length
G1 F200 E3              ;extrude 3mm of feed stock
G92 E0                  ;zero the extruded length again
G1 F6000
M117 Printing...

;Layer count: 125
;LAYER:0
M107
G0 F1680 X64.36 Y61.88 Z0.30
;TYPE:SKIRT
G1 F2400 E0.00000
G1 F1140 X66.98 Y59.56 E0.05723
G1 X69.75 Y57.42 E0.11444
G1 X72.64 Y55.45 E0.17164
G1 X75.66 Y53.67 E0.22886
G1 X78.78 Y52.08 E0.28608
G1 X81.99 Y50.69 E0.34328
G1 X85.28 Y49.51 E0.40049
G1 X88.64 Y48.53 E0.45771
G1 X92.06 Y47.76 E0.51494
G1 X95.52 Y47.22 E0.57215
G1 X99.00 Y46.89 E0.62936
G1 X102.50 Y46.78 E0.68656
G1 X106.00 Y46.89 E0.74376
G1 X109.48 Y47.22 E0.80098
G1 X112.94 Y47.76 E0.85818
G1 X116.36 Y48.53 E0.91541
G1 X119.72 Y49.51 E0.97263
G1 X123.01 Y50.69 E1.02984
G1 X126.22 Y52.08 E1.08704
G1 X129.34 Y53.67 E1.14427
G1 X132.36 Y55.45 E1.20148
G1 X135.25 Y57.42 E1.25868
G1 X138.02 Y59.57 E1.31591
G1 X140.64 Y61.88 E1.37312
G1 X143.12 Y64.36 E1.43035
G1 X145.43 Y66.98 E1.48756
G1 X147.58 Y69.75 E1.54479
G1 X149.55 Y72.64 E1.60199
G1 X151.33 Y75.66 E1.65921
G1 X152.92 Y78.78 E1.71643
G1 X154.31 Y81.99 E1.77363
G1 X155.49 Y85.28 E1.83084
G1 X156.47 Y88.64 E1.88806
G1 X157.24 Y92.06 E1.94529
G1 X157.78 Y95.52 E2.00250
G1 X158.11 Y99.00 E2.05971
G1 X158.22 Y102.50 E2.11691
G1 X158.11 Y106.00 E2.17411
G1 X157.78 Y109.48 E2.23133
G1 X157.24 Y112.94 E2.28853
G1 X156.47 Y116.36 E2.34576
G1 X155.49 Y119.72 E2.40298
G1 X154.31 Y123.01 E2.46019
G1 X152.92 Y126.22 E2.51739
G1 X151.33 Y129.34 E2.57462
G1 X149.55 Y132.36 E2.63183
G1 X147.58 Y135.25 E2.68903
G1 X145.43 Y138.02 E2.74626
G1 X143.12 Y140.64 E2.80347
G1 X140.65 Y143.12 E2.86070
G1 X138.02 Y145.43 E2.91793
G1 X135.25 Y147.58 E2.97514
G1 X132.36 Y149.55 E3.03234
G1 X129.34 Y151.33 E3.08956
G1 X126.22 Y152.92 E3.14679
G1 X123.01 Y154.31 E3.20398
G1 X119.72 Y155.49 E3.26119
G1 X116.36 Y156.47 E3.31842
G1 X112.94 Y157.24 E3.37564
G1 X109.48 Y157.78 E3.43285
G1 X106.00 Y158.11 E3.49006
G1 X102.50 Y158.22 E3.54726
G1 X99.00 Y158.11 E3.60446
G1 X95.52 Y157.78 E3.66168
G1 X92.06 Y157.24 E3.71889
G1 X88.64 Y156.47 E3.77611
G1 X85.28 Y155.49 E3.83333
G1 X81.99 Y154.31 E3.89054
G1 X78.78 Y152.92 E3.94774
G1 X75.66 Y151.33 E4.00497
G1 X72.64 Y149.55 E4.06218
G1 X69.75 Y147.58 E4.11939
G1 X66.98 Y145.43 E4.17662
G1 X64.36 Y143.12 E4.23382
G1 X61.88 Y140.64 E4.29105
G1 X59.57 Y138.02 E4.34826
G1 X57.42 Y135.25 E4.40549
G1 X55.45 Y132.36 E4.46269
G1 X53.67 Y129.34 E4.51991
G1 X52.08 Y126.22 E4.57714
G1 X50.69 Y123.01 E4.63433
G1 X49.51 Y119.72 E4.69154
G1 X48.53 Y116.36 E4.74877
G1 X47.76 Y112.94 E4.80599
G1 X47.22 Y109.48 E4.86320
G1 X46.89 Y106.00 E4.92041
G1 X46.78 Y102.50 E4.97761
G1 X46.89 Y99.00 E5.03481
G1 X47.22 Y95.52 E5.09203
G1 X47.76 Y92.06 E5.14924
G1 X48.53 Y88.64 E5.20646
G1 X49.51 Y85.28 E5.26368
G1 X50.69 Y81.99 E5.32089
G1 X52.08 Y78.78 E5.37809
G1 X53.67 Y75.66 E5.43532
G1 X55.45 Y72.64 E5.49253
G1 X57.42 Y69.75 E5.54974
G1 X59.57 Y66.98 E5.60697
G1 X61.88 Y64.36 E5.66417
G1 X64.36 Y61.88 E5.72140
G1 F2400 E1.22140
G0 F1680 X66.88 Y64.58
;TYPE:WALL-INNER
G1 F2400 E5.72140
G1 F1140 X69.34 Y62.42 E5.77487
G1 X71.93 Y60.41 E5.82848
G1 X74.62 Y58.58 E5.88171
G1 X77.44 Y56.92 E5.93514
G1 X80.35 Y55.43 E5.98861
G1 X83.35 Y54.13 E6.04195
G1 X86.43 Y53.02 E6.09550
G1 X89.57 Y52.11 E6.14886
G1 X92.74 Y51.40 E6.20200
G1 X95.98 Y50.89 E6.25568
G1 X99.24 Y50.58 E6.30907
G1 X102.50 Y50.48 E6.36246
G1 X105.76 Y50.58 E6.41585
G1 X109.02 Y50.89 E6.46924
G1 X112.26 Y51.40 E6.52293
G1 X115.43 Y52.11 E6.57607
G1 X118.57 Y53.02 E6.62942
G1 X121.65 Y54.13 E6.68298
G1 X124.65 Y55.43 E6.73632
G1 X127.56 Y56.92 E6.78979
G1 X130.38 Y58.58 E6.84322
G1 X133.07 Y60.41 E6.89645
G1 X135.66 Y62.42 E6.95006
G1 X138.12 Y64.58 E7.00352
G1 X140.42 Y66.89 E7.05673
G1 X142.58 Y69.34 E7.11020
G1 X144.59 Y71.93 E7.16380
G1 X146.42 Y74.62 E7.21703
G1 X148.09 Y77.44 E7.27047
G1 X149.57 Y80.35 E7.32394
G1 X150.87 Y83.35 E7.37727
G1 X151.98 Y86.43 E7.43083
G1 X152.89 Y89.57 E7.48419
G1 X153.60 Y92.74 E7.53730
G1 X154.11 Y95.98 E7.59101
G1 X154.42 Y99.24 E7.64440
G1 X154.52 Y102.50 E7.69779
G1 X154.42 Y105.76 E7.75118
G1 X154.11 Y109.02 E7.80457
G1 X153.60 Y112.26 E7.85825
G1 X152.89 Y115.43 E7.91139
G1 X151.98 Y118.57 E7.96475
G1 X150.87 Y121.65 E8.01831
G1 X149.57 Y124.65 E8.07165
G1 X148.09 Y127.56 E8.12512
G1 X146.42 Y130.38 E8.17855
G1 X144.59 Y133.07 E8.23178
G1 X142.58 Y135.66 E8.28539
G1 X140.42 Y138.12 E8.33885
G1 X138.12 Y140.42 E8.39206
G1 X135.66 Y142.58 E8.44553
G1 X133.07 Y144.59 E8.49913
G1 X130.38 Y146.42 E8.55236
G1 X127.56 Y148.09 E8.60580
G1 X124.65 Y149.57 E8.65927
G1 X121.65 Y150.87 E8.71260
G1 X118.57 Y151.98 E8.76616
G1 X115.43 Y152.89 E8.81952
G1 X112.26 Y153.60 E8.87266
G1 X109.02 Y154.11 E8.92634
G1 X105.76 Y154.42 E8.97973
G1 X102.50 Y154.52 E9.03312
G1 X99.24 Y154.42 E9.08651
G1 X95.98 Y154.11 E9.13990
G1 X92.74 Y153.60 E9.19358
G1 X89.57 Y152.89 E9.24672
G1 X86.43 Y151.98 E9.30008
G1 X83.35 Y150.87 E9.35364
G1 X80.35 Y149.57 E9.40698
G1 X77.44 Y148.09 E9.46045
G1 X74.62 Y146.42 E9.51388
G1 X71.93 Y144.59 E9.56711
G1 X69.34 Y142.58 E9.62071
G1 X66.89 Y140.42 E9.67418
G1 X64.58 Y138.12 E9.72739
G1 X62.42 Y135.66 E9.78086
G1 X60.41 Y133.07 E9.83446
G1 X58.58 Y130.38 E9.88769
G1 X56.92 Y127.56 E9.94112
G1 X55.43 Y124.65 E9.99459
G1 X54.13 Y121.65 E10.04793
G1 X53.02 Y118.57 E10.10149
G1 X52.11 Y115.43 E10.15485
G1 X51.40 Y112.26 E10.20799
G1 X50.89 Y109.02 E10.26167
G1 X50.58 Y105.76 E10.31506
G1 X50.48 Y102.50 E10.36845
G1 X50.58 Y99.24 E10.42184
G1 X50.89 Y95.98 E10.47523
G1 X51.40 Y92.74 E10.52894
G1 X52.11 Y89.57 E10.58205
G1 X53.02 Y86.43 E10.63541
G1 X54.13 Y83.35 E10.68897
G1 X55.43 Y80.35 E10.74230
G1 X56.92 Y77.44 E10.79577
G1 X58.58 Y74.62 E10.84921
G1 X60.41 Y71.93 E10.90244
G1 X62.42 Y69.34 E10.95604
G1 X64.58 Y66.89 E11.00951
G1 X66.88 Y64.58 E11.06272
G0 F1680 X72.95 Y68.08
G1 F1140 X72.72 Y68.52 E11.07075
G1 X72.60 Y69.03 E11.07930
G1 X72.58 Y69.29 E11.08361
G1 X72.64 Y69.78 E11.09167
G1 X72.83 Y70.24 E11.09980
G1 X73.04 Y70.54 E11.10583
G1 X73.34 Y70.84 E11.11269
G1 X73.86 Y71.15 E11.12268
G1 X74.35 Y71.27 E11.13087
G1 X74.64 Y71.29 E11.13559
G1 X75.12 Y71.22 E11.14347
G1 X75.49 Y71.08 E11.14995
G1 X75.88 Y70.84 E11.15750
G1 X76.09 Y70.64 E11.16227
G1 X76.26 Y70.43 E11.16661
G1 X76.45 Y70.11 E11.17271
G1 X76.57 Y69.76 E11.17883
G1 X76.62 Y69.50 E11.18315
G1 X76.63 Y69.20 E11.18793
G1 X76.56 Y68.72 E11.19586
G1 X76.43 Y68.37 E11.20205
G1 X76.30 Y68.14 E11.20644
G1 X75.89 Y67.69 E11.21632
G1 X75.52 Y67.45 E11.22351
G1 X75.00 Y67.27 E11.23244
G1 X74.55 Y67.23 E11.23984
G1 X74.06 Y67.30 E11.24791
G1 X73.60 Y67.50 E11.25622
G1 X73.20 Y67.80 E11.26435
G1 X72.95 Y68.08 E11.27052
G0 F1680 X74.06 Y67.28
G0 X75.68 Y67.51
G0 X122.17 Y65.03
G1 F1140 X122.29 Y65.62 E11.28033
G1 X122.53 Y66.07 E11.28864
G1 X122.78 Y66.38 E11.29516
G1 X123.18 Y66.67 E11.30321
G1 X123.52 Y66.83 E11.30943
G1 X123.77 Y66.90 E11.31369
G1 X124.02 Y66.94 E11.31773
G1 X124.27 Y66.94 E11.32185
G1 X124.66 Y66.89 E11.32826
G1 X125.02 Y66.77 E11.33452
G1 X125.35 Y66.58 E11.34076
G1 X125.64 Y66.34 E11.34700
G1 X125.89 Y66.04 E11.35323
G1 X126.06 Y65.71 E11.35945
G1 X126.18 Y65.36 E11.36541
G1 X126.21 Y65.10 E11.36964
G1 X126.22 Y64.91 E11.37273
G1 X126.17 Y64.43 E11.38076
G1 X125.94 Y63.88 E11.39043
G1 X125.69 Y63.55 E11.39711
G1 X125.50 Y63.37 E11.40157
G1 X125.20 Y63.16 E11.40750
G1 X124.97 Y63.05 E11.41161
G1 X124.60 Y62.93 E11.41800
G1 X124.23 Y62.89 E11.42410
G1 X123.72 Y62.95 E11.43246
G1 X123.36 Y63.08 E11.43869
G1 X123.13 Y63.20 E11.44295
G1 X122.73 Y63.52 E11.45129
G1 X122.44 Y63.91 E11.45932
G1 X122.32 Y64.14 E11.46357
G1 X122.21 Y64.52 E11.46996
G1 X122.17 Y64.86 E11.47560
G1 X122.17 Y65.03 E11.47835
G0 F1680 X132.54 Y136.82
G1 F1140 X132.08 Y136.98 E11.48622
G1 X131.84 Y137.12 E11.49074
G1 X131.38 Y137.54 E11.50102
G1 X131.08 Y138.06 E11.51077
G1 X130.98 Y138.42 E11.51700
G1 X130.94 Y138.84 E11.52377
G1 X131.00 Y139.32 E11.53168
G1 X131.14 Y139.69 E11.53816
G1 X131.39 Y140.09 E11.54587
G1 X131.69 Y140.39 E11.55285
G1 X132.22 Y140.70 E11.56286
G1 X132.71 Y140.82 E11.57101
G1 X132.99 Y140.83 E11.57573
G1 X133.47 Y140.77 E11.58363
G1 X133.85 Y140.63 E11.59011
G1 X134.24 Y140.38 E11.59780
G1 X134.55 Y140.08 E11.60479
G1 X134.85 Y139.55 E11.61481
G1 X134.98 Y139.06 E11.62302
G1 X134.99 Y138.76 E11.62793
G1 X134.95 Y138.40 E11.63391
G1 X134.88 Y138.15 E11.63800
G1 X134.72 Y137.78 E11.64469
G1 X134.33 Y137.30 E11.65471
G1 X133.90 Y137.01 E11.66324
G1 X133.36 Y136.82 E11.67260
G1 X132.92 Y136.78 E11.67985
G1 X132.54 Y136.82 E11.68612
G0 F1680 X82.83 Y140.07
G1 F1140 X82.77 Y139.59 E11.69402
G1 X82.59 Y139.11 E11.70248
G1 X82.22 Y138.63 E11.71227
G1 X82.03 Y138.46 E11.71654
G1 X81.80 Y138.32 E11.72097
G1 X81.57 Y138.21 E11.72504
G1 X81.11 Y138.08 E11.73289
G1 X80.81 Y138.05 E11.73792
G1 X80.32 Y138.11 E11.74597
G1 X79.84 Y138.29 E11.75429
G1 X79.44 Y138.58 E11.76241
G1 X79.19 Y138.85 E11.76836
G1 X79.04 Y139.09 E11.77296
G1 X78.93 Y139.30 E11.77679
G1 X78.84 Y139.57 E11.78140
G1 X78.79 Y139.90 E11.78700
G1 X78.78 Y140.15 E11.79105
G1 X78.83 Y140.54 E11.79751
G1 X78.95 Y140.90 E11.80375
G1 X79.14 Y141.24 E11.81000
G1 X79.39 Y141.54 E11.81639
G1 X79.78 Y141.83 E11.82427
G1 X80.02 Y141.95 E11.82882
G1 X80.36 Y142.06 E11.83465
G1 X80.62 Y142.10 E11.83893
G1 X80.88 Y142.11 E11.84317
G1 X81.38 Y142.02 E11.85143
G1 X81.74 Y141.88 E11.85781
G1 X82.07 Y141.66 E11.86417
G1 X82.42 Y141.31 E11.87237
G1 X82.67 Y140.88 E11.88052
G1 X82.78 Y140.52 E11.88663
G1 X82.82 Y140.26 E11.89086
G1 X82.83 Y140.07 E11.89396
G0 F1680 X82.48 Y140.09
;TYPE:WALL-OUTER
G1 F1140 X82.43 Y139.68 E11.90068
G1 X82.28 Y139.28 E11.90760
G1 X81.97 Y138.88 E11.91598
G1 X81.82 Y138.74 E11.91925
G1 X81.45 Y138.53 E11.92618
G1 X81.05 Y138.42 E11.93289
G1 X80.81 Y138.40 E11.93683
G1 X80.40 Y138.45 E11.94359
G1 X80.01 Y138.60 E11.95048
G1 X79.67 Y138.85 E11.95726
G1 X79.47 Y139.07 E11.96213
G1 X79.34 Y139.26 E11.96591
G1 X79.26 Y139.43 E11.96904
G1 X79.18 Y139.65 E11.97284
G1 X79.13 Y139.94 E11.97757
G1 X79.13 Y140.13 E11.98078
G1 X79.17 Y140.46 E11.98621
G1 X79.27 Y140.76 E11.99135
G1 X79.43 Y141.04 E11.99651
G1 X79.63 Y141.28 E12.00173
G1 X79.96 Y141.53 E12.00844
G1 X80.16 Y141.63 E12.01202
G1 X80.44 Y141.72 E12.01696
G1 X80.65 Y141.75 E12.02043
G1 X80.86 Y141.76 E12.02379
G1 X81.29 Y141.68 E12.03084
G1 X81.58 Y141.57 E12.03603
G1 X81.85 Y141.39 E12.04123
G1 X82.14 Y141.09 E12.04806
G1 X82.35 Y140.73 E12.05489
G1 X82.44 Y140.44 E12.05992
G1 X82.47 Y140.23 E12.06337
G1 X82.48 Y140.09 E12.06572
G0 F1680 X82.75 Y140.10
G0 X82.44 Y141.32
G0 X77.40 Y148.15
G0 X77.28 Y148.40
G1 F1140 X74.43 Y146.71 E12.11967
G1 X71.71 Y144.87 E12.17344
G1 X69.12 Y142.86 E12.22702
G1 X66.65 Y140.68 E12.28081
G1 X64.32 Y138.35 E12.33476
G1 X62.14 Y135.88 E12.38855
G1 X60.13 Y133.29 E12.44214
G1 X58.28 Y130.57 E12.49593
G1 X56.60 Y127.72 E12.54985
G1 X55.12 Y124.80 E12.60347
G1 X53.81 Y121.77 E12.65739
G1 X52.69 Y118.68 E12.71117
G1 X51.78 Y115.53 E12.76482
G1 X51.06 Y112.31 E12.81873
G1 X50.54 Y109.06 E12.87250
G1 X50.23 Y105.79 E12.92611
G1 X50.13 Y102.51 E12.97985
G1 X50.23 Y99.21 E13.03378
G1 X50.54 Y95.94 E13.08740
G1 X51.06 Y92.69 E13.14116
G1 X51.78 Y89.47 E13.19512
G1 X52.69 Y86.32 E13.24872
G1 X53.81 Y83.23 E13.30250
G1 X55.12 Y80.20 E13.35644
G1 X56.60 Y77.28 E13.41004
G1 X58.28 Y74.43 E13.46399
G1 X60.13 Y71.71 E13.51776
G1 X62.14 Y69.12 E13.57134
G1 X64.32 Y66.65 E13.62513
G1 X66.65 Y64.32 E13.67908
G1 X69.12 Y62.14 E13.73287
G1 X71.71 Y60.13 E13.78646
G1 X74.43 Y58.28 E13.84022
G1 X77.28 Y56.60 E13.89417
G1 X80.20 Y55.12 E13.94777
G1 X83.22 Y53.81 E14.00161
G1 X86.32 Y52.69 E14.05549
G1 X89.47 Y51.78 E14.10914
G1 X92.69 Y51.06 E14.16298
G1 X95.94 Y50.54 E14.21681
G1 X99.21 Y50.23 E14.27043
G1 X102.50 Y50.13 E14.32427
G1 X105.79 Y50.23 E14.37810
G1 X109.06 Y50.54 E14.43172
G1 X112.31 Y51.06 E14.48555
G1 X115.53 Y51.78 E14.53939
G1 X118.68 Y52.69 E14.59304
G1 X121.78 Y53.81 E14.64692
G1 X124.80 Y55.12 E14.70076
G1 X127.72 Y56.60 E14.75436
G1 X130.57 Y58.28 E14.80831
G1 X133.29 Y60.13 E14.86208
G1 X135.88 Y62.14 E14.91566
G1 X138.35 Y64.32 E14.96945
G1 X140.68 Y66.65 E15.02340
G1 X142.86 Y69.12 E15.07719
G1 X144.87 Y71.71 E15.13077
G1 X146.71 Y74.43 E15.18454
G1 X148.40 Y77.28 E15.23849
G1 X149.88 Y80.20 E15.29209
G1 X151.19 Y83.22 E15.34585
G1 X152.31 Y86.32 E15.39981
G1 X153.22 Y89.47 E15.45341
G1 X153.94 Y92.68 E15.50719
G1 X154.46 Y95.94 E15.56113
G1 X154.77 Y99.21 E15.61475
G1 X154.87 Y102.49 E15.66849
G1 X154.77 Y105.79 E15.72242
G1 X154.46 Y109.06 E15.77604
G1 X153.94 Y112.31 E15.82980
G1 X153.23 Y115.53 E15.88371
G1 X152.31 Y118.68 E15.93736
G1 X151.19 Y121.77 E15.99114
G1 X149.88 Y124.80 E16.04506
G1 X148.40 Y127.72 E16.09868
G1 X146.72 Y130.57 E16.15260
G1 X144.87 Y133.29 E16.20640
G1 X142.86 Y135.88 E16.25998
G1 X140.68 Y138.35 E16.31377
G1 X138.35 Y140.68 E16.36770
G1 X135.88 Y142.86 E16.42151
G1 X133.29 Y144.87 E16.47509
G1 X130.57 Y146.71 E16.52886
G1 X127.72 Y148.40 E16.58281
G1 X124.80 Y149.88 E16.63641
G1 X121.78 Y151.19 E16.69025
G1 X118.68 Y152.31 E16.74412
G1 X115.53 Y153.23 E16.79778
G1 X112.31 Y153.94 E16.85162
G1 X109.06 Y154.46 E16.90547
G1 X105.79 Y154.77 E16.95907
G1 X102.50 Y154.87 E17.01290
G1 X99.21 Y154.77 E17.06674
G1 X95.94 Y154.46 E17.12034
G1 X92.69 Y153.94 E17.17419
G1 X89.47 Y153.23 E17.22803
G1 X86.32 Y152.31 E17.28169
G1 X83.22 Y151.19 E17.33556
G1 X80.20 Y149.88 E17.38940
G1 X77.28 Y148.40 E17.44300
G0 F1680 X77.40 Y148.15
G0 X131.08 Y139.32
G0 X131.34 Y139.23
G1 F1140 X131.45 Y139.53 E17.44824
G1 X131.67 Y139.87 E17.45470
G1 X131.91 Y140.11 E17.46030
G1 X132.36 Y140.37 E17.46877
G1 X132.76 Y140.47 E17.47558
G1 X132.98 Y140.48 E17.47921
G1 X133.39 Y140.43 E17.48592
G1 X133.69 Y140.32 E17.49116
G1 X134.02 Y140.10 E17.49762
G1 X134.27 Y139.86 E17.50324
G1 X134.53 Y139.41 E17.51171
G1 X134.63 Y139.01 E17.51853
G1 X134.64 Y138.77 E17.52242
G1 X134.60 Y138.46 E17.52749
G1 X134.55 Y138.27 E17.53071
G1 X134.41 Y137.97 E17.53620
G1 X134.09 Y137.56 E17.54466
G1 X133.74 Y137.32 E17.55160
G1 X133.28 Y137.16 E17.55963
G1 X133.16 Y137.14 E17.56158
G1 X132.93 Y137.13 E17.56533
G1 X132.62 Y137.17 E17.57049
G1 X132.23 Y137.30 E17.57721
G1 X132.05 Y137.40 E17.58057
G1 X131.65 Y137.76 E17.58931
G1 X131.40 Y138.19 E17.59746
G1 X131.32 Y138.50 E17.60263
G1 X131.29 Y138.82 E17.60796
G1 X131.34 Y139.23 E17.61469
G0 F1680 X131.08 Y139.32
G0 X124.24 Y66.87
G0 X124.25 Y66.59
G1 F1140 X124.58 Y66.55 E17.62011
G1 X124.88 Y66.45 E17.62527
G1 X125.15 Y66.30 E17.63042
G1 X125.39 Y66.09 E17.63559
G1 X125.59 Y65.85 E17.64073
G1 X125.74 Y65.57 E17.64589
G1 X125.83 Y65.28 E17.65087
G1 X125.86 Y65.07 E17.65432
G1 X125.87 Y64.93 E17.65666
G1 X125.82 Y64.51 E17.66344
G1 X125.63 Y64.06 E17.67158
G1 X125.43 Y63.79 E17.67709
G1 X125.27 Y63.64 E17.68061
G1 X125.02 Y63.46 E17.68566
G1 X124.84 Y63.37 E17.68889
G1 X124.53 Y63.28 E17.69429
G1 X124.23 Y63.24 E17.69921
G1 X123.80 Y63.29 E17.70629
G1 X123.50 Y63.40 E17.71144
G1 X123.32 Y63.49 E17.71471
G1 X122.99 Y63.76 E17.72179
G1 X122.74 Y64.10 E17.72857
G1 X122.65 Y64.27 E17.73183
G1 X122.55 Y64.59 E17.73723
G1 X122.52 Y64.88 E17.74198
G1 X122.52 Y64.99 E17.74385
G1 X122.62 Y65.50 E17.75233
G1 X122.82 Y65.87 E17.75919
G1 X123.03 Y66.12 E17.76445
G1 X123.36 Y66.37 E17.77123
G1 X123.64 Y66.50 E17.77637
G1 X124.05 Y66.59 E17.78314
G1 X124.25 Y66.59 E17.78645
G0 F1680 X124.24 Y66.87
G0 X76.56 Y69.23
G0 X76.28 Y69.22
G1 F1140 X76.22 Y68.81 E17.79319
G1 X76.11 Y68.52 E17.79833
G1 X76.01 Y68.34 E17.80163
G1 X75.66 Y67.95 E17.81025
G1 X75.48 Y67.83 E17.81379
G1 X75.38 Y67.77 E17.81572
G1 X74.92 Y67.61 E17.82361
G1 X74.80 Y67.60 E17.82554
G1 X74.57 Y67.58 E17.82936
