;Generated with Cura_SteamEngine 13.12
M109 T0 S220.000000
T0
;Sliced at: Tue 18-02-2014 13:37:09
;Basic settings: Layer height: 0.1 Walls: 0.5 Fill: 20
;Print time: #P_TIME#
;Filament used: #F_AMNT#m #F_WGHT#g
;Filament cost: #F_COST#
;M190 S70 ;Uncomment to add your own bed temperature line
;M109 S220 ;Uncomment to add your own temperature line
G21        ;metric values
G90        ;absolute positioning
M107       ;start with the fan off
G28 X0 Y0  ;move X/Y to min endstops
G28 Z0     ;move Z to min endstops
G1 Z15.0 F9000 ;move the platform down 15mm
G92 E0                  ;zero the extruded length
G1 F200 E3              ;extrude 3mm of feed stock
G92 E0                  ;zero the extruded length again
G1 F9000
;Put printing message on LCD screen
M117 Printing...

;Layer count: 254
;LAYER:0
M107
G0 F2520 X59.74 Y57.05 Z0.30
;TYPE:SKIRT
G1 F2400 E0.00000
G1 F1140 X59.82 Y56.97 E0.00243
G1 X62.69 Y54.45 E0.09161
G1 X62.76 Y54.39 E0.09395
G1 X65.78 Y52.04 E0.18311
G1 X65.86 Y51.99 E0.18549
G1 X69.02 Y49.84 E0.27462
G1 X69.11 Y49.78 E0.27703
G1 X72.39 Y47.84 E0.36617
G1 X72.48 Y47.79 E0.36857
G1 X75.89 Y46.06 E0.45772
G1 X75.98 Y46.01 E0.46009
G1 X79.48 Y44.50 E0.54923
G1 X79.57 Y44.46 E0.55161
G1 X83.17 Y43.17 E0.64080
G1 X83.27 Y43.14 E0.64317
G1 X86.93 Y42.07 E0.73231
G1 X87.03 Y42.05 E0.73469
G1 X90.76 Y41.21 E0.82385
G1 X90.86 Y41.19 E0.82624
G1 X94.63 Y40.60 E0.91539
G1 X94.73 Y40.58 E0.91777
G1 X98.53 Y40.22 E1.00694
G1 X98.63 Y40.22 E1.00932
G1 X102.45 Y40.10 E1.09844
G1 X102.55 Y40.10 E1.10080
G1 X106.36 Y40.22 E1.18992
G1 X106.47 Y40.22 E1.19231
G1 X110.27 Y40.58 E1.28147
G1 X110.37 Y40.60 E1.28385
G1 X114.14 Y41.19 E1.37300
G1 X114.24 Y41.21 E1.37540
G1 X117.97 Y42.05 E1.46455
G1 X118.07 Y42.07 E1.46693
G1 X121.73 Y43.14 E1.55607
G1 X121.83 Y43.17 E1.55844
G1 X125.42 Y44.46 E1.64763
G1 X125.52 Y44.50 E1.65002
G1 X129.02 Y46.01 E1.73915
G1 X129.11 Y46.06 E1.74152
G1 X132.52 Y47.79 E1.83068
G1 X132.61 Y47.84 E1.83307
G1 X135.89 Y49.78 E1.92221
G1 X135.98 Y49.84 E1.92462
G1 X139.14 Y51.99 E2.01375
G1 X139.22 Y52.04 E2.01613
G1 X142.24 Y54.39 E2.10529
G1 X142.31 Y54.45 E2.10766
G1 X145.18 Y56.98 E2.19683
G1 X145.25 Y57.05 E2.19921
G1 X147.95 Y59.75 E2.28836
G1 X148.02 Y59.82 E2.29074
G1 X150.55 Y62.69 E2.37991
G1 X150.61 Y62.76 E2.38228
G1 X152.95 Y65.78 E2.47144
G1 X153.01 Y65.86 E2.47381
G1 X155.16 Y69.02 E2.56295
G1 X155.21 Y69.11 E2.56535
G1 X157.16 Y72.39 E2.65450
G1 X157.21 Y72.48 E2.65689
G1 X158.94 Y75.89 E2.74605
G1 X158.98 Y75.98 E2.74842
G1 X160.50 Y79.48 E2.83755
G1 X160.54 Y79.57 E2.83993
G1 X161.83 Y83.17 E2.92912
G1 X161.86 Y83.27 E2.93150
G1 X162.93 Y86.93 E3.02064
G1 X162.95 Y87.03 E3.02302
G1 X163.79 Y90.76 E3.11217
G1 X163.80 Y90.86 E3.11457
G1 X164.40 Y94.63 E3.20371
G1 X164.42 Y94.73 E3.20609
G1 X164.77 Y98.53 E3.29526
G1 X164.78 Y98.63 E3.29765
G1 X164.90 Y102.45 E3.38677
G1 X164.90 Y102.55 E3.38913
G1 X164.78 Y106.36 E3.47825
G1 X164.77 Y106.47 E3.48063
G1 X164.42 Y110.27 E3.56980
G1 X164.40 Y110.37 E3.57218
G1 X163.80 Y114.14 E3.66133
G1 X163.79 Y114.24 E3.66372
G1 X162.95 Y117.97 E3.75287
G1 X162.93 Y118.07 E3.75526
G1 X161.86 Y121.73 E3.84439
G1 X161.83 Y121.83 E3.84677
G1 X160.54 Y125.42 E3.93596
G1 X160.50 Y125.52 E3.93834
G1 X158.98 Y129.02 E4.02747
G1 X158.94 Y129.11 E4.02985
G1 X157.21 Y132.52 E4.11900
G1 X157.16 Y132.61 E4.12139
G1 X155.21 Y135.89 E4.21054
G1 X155.16 Y135.98 E4.21294
G1 X153.01 Y139.14 E4.30208
G1 X152.95 Y139.22 E4.30445
G1 X150.61 Y142.24 E4.39362
G1 X150.55 Y142.31 E4.39599
G1 X148.02 Y145.18 E4.48516
G1 X147.95 Y145.25 E4.48753
G1 X145.26 Y147.95 E4.57666
G1 X145.18 Y148.02 E4.57908
G1 X142.31 Y150.55 E4.66827
G1 X142.24 Y150.61 E4.67061
G1 X139.22 Y152.95 E4.75977
G1 X139.14 Y153.01 E4.76214
G1 X135.98 Y155.16 E4.85128
G1 X135.89 Y155.21 E4.85368
G1 X132.61 Y157.16 E4.94283
G1 X132.52 Y157.21 E4.94522
G1 X129.11 Y158.94 E5.03438
G1 X129.02 Y158.98 E5.03675
G1 X125.52 Y160.50 E5.12588
G1 X125.42 Y160.54 E5.12826
G1 X121.83 Y161.83 E5.21745
G1 X121.73 Y161.86 E5.21983
G1 X118.07 Y162.93 E5.30897
G1 X117.97 Y162.95 E5.31135
G1 X114.24 Y163.79 E5.40050
G1 X114.14 Y163.80 E5.40290
G1 X110.37 Y164.40 E5.49204
G1 X110.27 Y164.42 E5.49442
G1 X106.47 Y164.77 E5.58359
G1 X106.36 Y164.78 E5.58598
G1 X102.55 Y164.90 E5.67510
G1 X102.45 Y164.90 E5.67746
G1 X98.63 Y164.78 E5.76658
G1 X98.53 Y164.77 E5.76896
G1 X94.73 Y164.42 E5.85813
G1 X94.63 Y164.40 E5.86051
G1 X90.86 Y163.80 E5.94966
G1 X90.76 Y163.79 E5.95205
G1 X87.03 Y162.95 E6.04120
G1 X86.93 Y162.93 E6.04359
G1 X83.27 Y161.86 E6.13272
G1 X83.17 Y161.83 E6.13510
G1 X79.57 Y160.54 E6.22429
G1 X79.48 Y160.50 E6.22667
G1 X75.98 Y158.98 E6.31580
G1 X75.89 Y158.94 E6.31817
G1 X72.48 Y157.21 E6.40733
G1 X72.39 Y157.16 E6.40972
G1 X69.11 Y155.21 E6.49887
G1 X69.02 Y155.16 E6.50127
G1 X65.86 Y153.01 E6.59041
G1 X65.78 Y152.95 E6.59278
G1 X62.76 Y150.61 E6.68195
G1 X62.69 Y150.55 E6.68432
G1 X59.82 Y148.02 E6.77348
G1 X59.75 Y147.95 E6.77586
G1 X57.05 Y145.25 E6.86502
G1 X56.98 Y145.18 E6.86740
G1 X54.45 Y142.31 E6.95656
G1 X54.39 Y142.24 E6.95893
G1 X52.04 Y139.22 E7.04810
G1 X51.99 Y139.14 E7.05047
G1 X49.84 Y135.98 E7.13961
G1 X49.78 Y135.89 E7.14201
G1 X47.84 Y132.61 E7.23116
G1 X47.79 Y132.52 E7.23355
G1 X46.06 Y129.11 E7.32271
G1 X46.01 Y129.02 E7.32508
G1 X44.50 Y125.52 E7.41421
G1 X44.46 Y125.42 E7.41659
G1 X43.17 Y121.83 E7.50578
G1 X43.14 Y121.73 E7.50816
G1 X42.07 Y118.07 E7.59729
G1 X42.05 Y117.97 E7.59968
G1 X41.21 Y114.24 E7.68883
G1 X41.19 Y114.14 E7.69122
G1 X40.60 Y110.37 E7.78037
G1 X40.58 Y110.27 E7.78275
G1 X40.22 Y106.47 E7.87192
G1 X40.22 Y106.36 E7.87430
G1 X40.10 Y102.55 E7.96342
G1 X40.10 Y102.45 E7.96578
G1 X40.22 Y98.63 E8.05490
G1 X40.22 Y98.53 E8.05729
G1 X40.58 Y94.73 E8.14646
G1 X40.60 Y94.63 E8.14884
G1 X41.19 Y90.86 E8.23798
G1 X41.21 Y90.76 E8.24038
G1 X42.05 Y87.03 E8.32953
G1 X42.07 Y86.93 E8.33191
G1 X43.14 Y83.27 E8.42105
G1 X43.17 Y83.17 E8.42343
G1 X44.46 Y79.57 E8.51262
G1 X44.50 Y79.48 E8.51500
G1 X46.01 Y75.98 E8.60413
G1 X46.06 Y75.89 E8.60650
G1 X47.79 Y72.48 E8.69566
G1 X47.84 Y72.39 E8.69805
G1 X49.78 Y69.11 E8.78720
G1 X49.84 Y69.02 E8.78960
G1 X51.99 Y65.86 E8.87874
G1 X52.04 Y65.78 E8.88111
G1 X54.39 Y62.76 E8.97027
G1 X54.45 Y62.69 E8.97264
G1 X56.98 Y59.82 E9.06181
G1 X57.05 Y59.75 E9.06419
G1 X59.74 Y57.05 E9.15331
G1 F2400 E4.65331
G0 F2520 X62.18 Y59.56
;TYPE:WALL-OUTER
G1 F2400 E9.15331
G1 F1140 X64.95 Y57.12 E9.23950
G1 X67.87 Y54.85 E9.32577
G1 X70.95 Y52.76 E9.41252
G1 X74.12 Y50.89 E9.49854
G1 X77.43 Y49.20 E9.58531
G1 X80.81 Y47.74 E9.67136
G1 X84.30 Y46.48 E9.75792
G1 X87.85 Y45.45 E9.84428
G1 X91.46 Y44.64 E9.93077
G1 X95.12 Y44.06 E10.01710
G1 X98.80 Y43.72 E10.10355
G1 X102.50 Y43.60 E10.18991
G1 X106.20 Y43.72 E10.27628
G1 X109.88 Y44.06 E10.36272
G1 X113.54 Y44.64 E10.44906
G1 X117.15 Y45.45 E10.53555
G1 X120.70 Y46.48 E10.62191
G1 X124.19 Y47.74 E10.70847
G1 X127.57 Y49.20 E10.79452
G1 X130.88 Y50.89 E10.88128
G1 X134.05 Y52.76 E10.96731
G1 X137.13 Y54.85 E11.05406
G1 X140.05 Y57.12 E11.14032
G1 X142.82 Y59.56 E11.22651
G1 X145.44 Y62.19 E11.31326
G1 X147.88 Y64.95 E11.39945
G1 X150.15 Y67.87 E11.48571
G1 X152.24 Y70.95 E11.57246
G1 X154.11 Y74.12 E11.65849
G1 X155.80 Y77.43 E11.74525
G1 X157.26 Y80.81 E11.83130
G1 X158.52 Y84.29 E11.91771
G1 X159.55 Y87.85 E12.00410
G1 X160.36 Y91.47 E12.09088
G1 X160.94 Y95.11 E12.17691
G1 X161.29 Y98.80 E12.26350
G1 X161.40 Y102.49 E12.34967
G1 X161.29 Y106.20 E12.43622
G1 X160.94 Y109.88 E12.52267
G1 X160.36 Y113.53 E12.60884
G1 X159.55 Y117.15 E12.69550
G1 X158.52 Y120.70 E12.78186
G1 X157.26 Y124.19 E12.86839
G1 X155.80 Y127.57 E12.95446
G1 X154.11 Y130.88 E13.04114
G1 X152.24 Y134.05 E13.12726
G1 X150.15 Y137.12 E13.21392
G1 X147.88 Y140.05 E13.30027
G1 X145.44 Y142.82 E13.38646
G1 X142.82 Y145.44 E13.47307
G1 X140.05 Y147.88 E13.55940
G1 X137.13 Y150.15 E13.64566
G1 X134.05 Y152.24 E13.73241
G1 X130.88 Y154.11 E13.81844
G1 X127.57 Y155.80 E13.90522
G1 X124.19 Y157.26 E13.99125
G1 X120.70 Y158.52 E14.07781
G1 X117.15 Y159.55 E14.16417
G1 X113.54 Y160.36 E14.25066
G1 X109.88 Y160.94 E14.33699
G1 X106.20 Y161.29 E14.42344
G1 X102.50 Y161.40 E14.50981
G1 X98.80 Y161.29 E14.59617
G1 X95.12 Y160.94 E14.68262
G1 X91.46 Y160.36 E14.76895
G1 X87.85 Y159.55 E14.85544
G1 X84.30 Y158.52 E14.94180
G1 X80.81 Y157.26 E15.02836
G1 X77.43 Y155.80 E15.11439
G1 X74.12 Y154.11 E15.20117
G1 X70.95 Y152.24 E15.28720
G1 X67.87 Y150.15 E15.37395
G1 X64.95 Y147.88 E15.46022
G1 X62.18 Y145.44 E15.54654
G1 X59.56 Y142.82 E15.63315
G1 X57.12 Y140.05 E15.71934
G1 X54.85 Y137.12 E15.80569
G1 X52.76 Y134.05 E15.89235
G1 X50.89 Y130.88 E15.97846
G1 X49.20 Y127.57 E16.06515
G1 X47.74 Y124.19 E16.15121
G1 X46.48 Y120.70 E16.23775
G1 X45.45 Y117.15 E16.32411
G1 X44.64 Y113.53 E16.41077
G1 X44.06 Y109.88 E16.49694
G1 X43.72 Y106.20 E16.58339
G1 X43.60 Y102.51 E16.66956
G1 X43.72 Y98.80 E16.75611
G1 X44.06 Y95.11 E16.84270
G1 X44.64 Y91.47 E16.92873
G1 X45.45 Y87.85 E17.01551
G1 X46.48 Y84.29 E17.10189
G1 X47.74 Y80.81 E17.18831
G1 X49.20 Y77.43 E17.27435
G1 X50.89 Y74.12 E17.36112
G1 X52.76 Y70.95 E17.44715
G1 X54.85 Y67.87 E17.53389
G1 X57.12 Y64.95 E17.62016
G1 X59.56 Y62.19 E17.70635
G1 X62.18 Y59.56 E17.79310
G0 F2520 X62.23 Y59.76
;TYPE:FILL
G1 F1140 X145.24 Y142.77 E20.53413
G0 F2520 X144.89 Y143.12
G1 F1140 X61.88 Y60.11 E23.27520
G0 F2520 X61.52 Y60.46
G1 F1140 X144.53 Y143.47 E26.01627
G0 F2520 X144.18 Y143.83
G1 F1140 X61.17 Y60.82 E28.75734
G0 F2520 X60.82 Y61.17
G1 F1140 X143.83 Y144.18 E31.49841
G0 F2520 X143.47 Y144.53
G1 F1140 X60.46 Y61.52 E34.23948
G0 F2520 X60.11 Y61.88
G1 F1140 X143.12 Y144.89 E36.98054
G0 F2520 X142.77 Y145.24
G1 F1140 X59.76 Y62.23 E39.72158
G0 F2520 X59.42 Y62.60
G1 F1140 X142.40 Y145.58 E42.46146
G0 F2520 X142.02 Y145.91
G1 F1140 X59.09 Y62.98 E45.19985
G0 F2520 X58.76 Y63.35
G1 F1140 X141.64 Y146.24 E47.93680
G0 F2520 X141.27 Y146.57
G1 F1140 X58.43 Y63.73 E50.67224
G0 F2520 X58.10 Y64.11
G1 F1140 X140.89 Y146.90 E53.40622
G0 F2520 X140.51 Y147.23
G1 F1140 X57.76 Y64.48 E56.13872
G0 F2520 X57.43 Y64.86
G1 F1140 X140.14 Y147.56 E58.86977
G0 F2520 X139.75 Y147.88
G1 F1140 X57.11 Y65.24 E61.59862
G0 F2520 X56.80 Y65.64
G1 F1140 X139.35 Y148.19 E64.32453
G0 F2520 X138.96 Y148.50
G1 F1140 X56.49 Y66.04 E67.04751
G0 F2520 X56.19 Y66.44
G1 F1140 X138.56 Y148.81 E69.76754
G0 F2520 X138.16 Y149.12
G1 F1140 X55.88 Y66.84 E72.48464
G0 F2520 X55.57 Y67.23
G1 F1140 X137.76 Y149.43 E75.19879
G0 F2520 X137.36 Y149.74
G1 F1140 X55.26 Y67.63 E77.91000
G0 F2520 X54.95 Y68.03
G1 F1140 X136.96 Y150.04 E80.61803
G0 F2520 X136.54 Y150.33
G1 F1140 X54.67 Y68.46 E83.32160
G0 F2520 X54.38 Y68.88
G1 F1140 X136.12 Y150.62 E86.02070
G0 F2520 X135.70 Y150.90
G1 F1140 X54.09 Y69.30 E88.71536
G0 F2520 X53.81 Y69.72
G1 F1140 X135.28 Y151.19 E91.40558
G0 F2520 X134.86 Y151.48
G1 F1140 X53.52 Y70.14 E94.09132
G0 F2520 X53.24 Y70.56
G1 F1140 X134.44 Y151.76 E96.77262
G0 F2520 X134.02 Y152.05
G1 F1140 X52.95 Y70.98 E99.44947
G0 F2520 X52.68 Y71.42
G1 F1140 X133.58 Y152.31 E102.12058
G0 F2520 X133.13 Y152.58
G1 F1140 X52.42 Y71.87 E104.78570
G0 F2520 X52.16 Y72.31
G1 F1140 X132.69 Y152.84 E107.44483
G0 F2520 X132.24 Y153.10
G1 F1140 X51.90 Y72.75 E110.09797
G0 F2520 X51.63 Y73.20
G1 F1140 X131.80 Y153.37 E112.74511
G0 F2520 X131.35 Y153.63
G1 F1140 X51.37 Y73.64 E115.38626
G0 F2520 X51.11 Y74.09
G1 F1140 X130.91 Y153.89 E118.02143
G0 F2520 X130.45 Y154.13
G1 F1140 X50.86 Y74.55 E120.64940
G0 F2520 X50.62 Y75.02
G1 F1140 X129.98 Y154.37 E123.26976
G0 F2520 X129.51 Y154.61
G1 F1140 X50.38 Y75.49 E125.88253
G0 F2520 X50.15 Y75.96
G1 F1140 X129.04 Y154.85 E128.48774
G0 F2520 X128.57 Y155.09
G1 F1140 X49.91 Y76.42 E131.08532
G0 F2520 X49.67 Y76.89
G1 F1140 X128.10 Y155.33 E133.67532
G0 F2520 X127.64 Y155.57
G1 F1140 X49.43 Y77.36 E136.25772
G0 F2520 X49.21 Y77.85
G1 F1140 X127.15 Y155.79 E138.83144
G0 F2520 X126.66 Y156.00
G1 F1140 X48.99 Y78.34 E141.39592
G0 F2520 X48.78 Y78.83
G1 F1140 X126.16 Y156.22 E143.95115
G0 F2520 X125.67 Y156.43
G1 F1140 X48.57 Y79.33 E146.49713
G0 F2520 X48.35 Y79.82
G1 F1140 X125.18 Y156.64 E149.03385
G0 F2520 X124.68 Y156.86
G1 F1140 X48.14 Y80.31 E151.56139
G0 F2520 X47.93 Y80.81
G1 F1140 X124.19 Y157.07 E154.07969
G0 F2520 X123.67 Y157.26
G1 F1140 X47.74 Y81.32 E156.58719
G0 F2520 X47.55 Y81.84
G1 F1140 X123.15 Y157.45 E159.08370
G0 F2520 X122.63 Y157.64
G1 F1140 X47.36 Y82.36 E161.56924
G0 F2520 X47.17 Y82.88
G1 F1140 X122.11 Y157.82 E164.04380
G0 F2520 X121.59 Y158.01
G1 F1140 X46.99 Y83.40 E166.50737
G0 F2520 X46.80 Y83.92
G1 F1140 X121.07 Y158.20 E168.95997
G0 F2520 X120.55 Y158.38
G1 F1140 X46.62 Y84.45 E171.40120
G0 F2520 X46.46 Y85.00
G1 F1140 X120.00 Y158.54 E173.82958
G0 F2520 X119.45 Y158.70
G1 F1140 X46.30 Y85.54 E176.24513
G0 F2520 X46.14 Y86.09
G1 F1140 X118.90 Y158.86 E178.64784
G0 F2520 X118.36 Y159.01
G1 F1140 X45.98 Y86.64 E181.03770
G0 F2520 X45.82 Y87.19
G1 F1140 X117.81 Y159.17 E183.41472
G0 F2520 X117.26 Y159.33
G1 F1140 X45.66 Y87.74 E185.77889
G0 F2520 X45.53 Y88.31
G1 F1140 X116.69 Y159.47 E188.12878
G0 F2520 X116.11 Y159.60
G1 F1140 X45.40 Y88.88 E190.46388
G0 F2520 X45.27 Y89.46
G1 F1140 X115.53 Y159.73 E192.78412
G0 F2520 X114.96 Y159.86
G1 F1140 X45.14 Y90.04 E195.08956
G0 F2520 X45.01 Y90.62
G1 F1140 X114.38 Y159.99 E197.38020
G0 F2520 X113.80 Y160.12
G1 F1140 X44.88 Y91.19 E199.65602
G0 F2520 X44.76 Y91.79
G1 F1140 X113.21 Y160.23 E201.91601
G0 F2520 X112.60 Y160.33
G1 F1140 X44.67 Y92.40 E204.15907
G0 F2520 X44.57 Y93.01
G1 F1140 X111.99 Y160.42 E206.38518
G0 F2520 X111.38 Y160.52
G1 F1140 X44.47 Y93.62 E208.59432
G0 F2520 X44.38 Y94.23
G1 F1140 X110.77 Y160.62 E210.78649
G0 F2520 X110.16 Y160.71
G1 F1140 X44.28 Y94.84 E212.96169
G0 F2520 X44.20 Y95.47
G1 F1140 X109.53 Y160.79 E215.11870
G0 F2520 X108.88 Y160.85
G1 F1140 X44.14 Y96.12 E217.25639
G0 F2520 X44.08 Y96.76
G1 F1140 X108.24 Y160.91 E219.37479
G0 F2520 X107.59 Y160.98
G1 F1140 X44.02 Y97.41 E221.47384
G0 F2520 X43.96 Y98.05
G1 F1140 X106.94 Y161.04 E223.55359
G0 F2520 X106.30 Y161.10
G1 F1140 X43.90 Y98.70 E225.61401
G0 F2520 X43.87 Y99.38
G1 F1140 X105.62 Y161.13 E227.65294
G0 F2520 X104.93 Y161.15
G1 F1140 X43.85 Y100.06 E229.66997
G0 F2520 X43.83 Y100.75
G1 F1140 X104.25 Y161.17 E231.66507
G0 F2520 X103.56 Y161.19
G1 F1140 X43.81 Y101.43 E233.63826
G0 F2520 X43.78 Y102.12
G1 F1140 X102.88 Y161.21 E235.58951
G0 F2520 X102.17 Y161.21
G1 F1140 X43.78 Y102.83 E237.51752
G0 F2520 X43.81 Y103.56
G1 F1140 X101.44 Y161.19 E239.42062
G0 F2520 X100.71 Y161.17
G1 F1140 X43.83 Y104.29 E241.29888
G0 F2520 X43.85 Y105.02
G1 F1140 X99.98 Y161.15 E243.15226
G0 F2520 X99.25 Y161.12
G1 F1140 X43.88 Y105.75 E244.98077
G0 F2520 X43.92 Y106.50
G1 F1140 X98.50 Y161.08 E246.78313
G0 F2520 X97.72 Y161.01
G1 F1140 X43.99 Y107.28 E248.55729
G0 F2520 X44.06 Y108.06
G1 F1140 X96.94 Y160.93 E250.30326
G0 F2520 X96.16 Y160.86
G1 F1140 X44.14 Y108.84 E252.02100
G0 F2520 X44.21 Y109.62
G1 F1140 X95.38 Y160.78 E253.71050
G0 F2520 X94.56 Y160.67
G1 F1140 X44.33 Y110.44 E255.36904
G0 F2520 X44.46 Y111.28
G1 F1140 X93.71 Y160.54 E256.99538
G0 F2520 X92.87 Y160.40
G1 F1140 X44.59 Y112.12 E258.58958
G0 F2520 X44.73 Y112.96
G1 F1140 X92.03 Y160.27 E260.15165
G0 F2520 X91.17 Y160.11
G1 F1140 X44.89 Y113.83 E261.67984
G0 F2520 X45.09 Y114.74
G1 F1140 X90.26 Y159.91 E263.17125
G0 F2520 X89.35 Y159.70
G1 F1140 X45.29 Y115.65 E264.62584
G0 F2520 X45.50 Y116.56
G1 F1140 X88.43 Y159.50 E266.04362
G0 F2520 X87.49 Y159.26
G1 F1140 X45.73 Y117.51 E267.42245
G0 F2520 X46.02 Y118.50
G1 F1140 X86.49 Y158.97 E268.75881
G0 F2520 X85.50 Y158.68
G1 F1140 X46.31 Y119.50 E270.05272
G0 F2520 X46.60 Y120.50
G1 F1140 X84.50 Y158.39 E271.30418
G0 F2520 X83.41 Y158.01
G1 F1140 X46.98 Y121.58 E272.50715
G0 F2520 X47.38 Y122.69
G1 F1140 X82.31 Y157.62 E273.66049
G0 F2520 X81.20 Y157.22
G1 F1140 X47.78 Y123.79 E274.76420
G0 F2520 X48.28 Y125.00
G1 F1140 X80.00 Y156.72 E275.81170
G0 F2520 X78.75 Y156.18
G1 F1140 X48.82 Y126.24 E276.80020
G0 F2520 X49.36 Y127.49
G1 F1140 X77.50 Y155.64 E277.72961
G0 F2520 X77.58 Y155.48
G0 X76.14 Y154.75
G0 X76.06 Y154.90
