;Generated with Cura_SteamEngine 13.12
M109 T0 S220.000000
T0
;Sliced ?filename? at: Wed 26-02-2014 22:01:27
;Basic settings: Layer height: 0.2 Walls: 0.7 Fill: 15
;Print time: #P_TIME#
;Filament used: #F_AMNT#m #F_WGHT#g
;Filament cost: #F_COST#
G21        ;metric values
G90        ;absolute positioning
M107       ;start with the fan off
G28 X0 Y0  ;move X/Y to min endstops
G28 Z0     ;move Z to min endstops
G1 Z15.0 F?max_z_speed? ;move the platform down 15mm
G92 E0                  ;zero the extruded length
G1 F200 E3              ;extrude 3mm of feed stock
G92 E0                  ;zero the extruded length again
G1 F6000
M117 Printing...

;Layer count: 132
;LAYER:0
M107
G0 F1680 X64.36 Y61.88 Z0.30
;TYPE:SKIRT
G1 F2400 E0.00000
G1 F1140 X66.98 Y59.56 E0.05723
G1 X69.75 Y57.42 E0.11444
G1 X72.64 Y55.45 E0.17164
G1 X75.66 Y53.67 E0.22886
G1 X78.78 Y52.08 E0.28608
G1 X81.99 Y50.69 E0.34328
G1 X85.28 Y49.51 E0.40049
G1 X88.64 Y48.53 E0.45771
G1 X92.06 Y47.76 E0.51494
G1 X95.52 Y47.22 E0.57215
G1 X99.00 Y46.89 E0.62936
G1 X102.50 Y46.78 E0.68656
G1 X106.00 Y46.89 E0.74376
G1 X109.48 Y47.22 E0.80098
G1 X112.94 Y47.76 E0.85818
G1 X116.36 Y48.53 E0.91541
G1 X119.72 Y49.51 E0.97263
G1 X123.01 Y50.69 E1.02984
G1 X126.22 Y52.08 E1.08704
G1 X129.34 Y53.67 E1.14427
G1 X132.36 Y55.45 E1.20148
G1 X135.25 Y57.42 E1.25868
G1 X138.02 Y59.57 E1.31591
G1 X140.64 Y61.88 E1.37312
G1 X143.12 Y64.36 E1.43035
G1 X145.43 Y66.98 E1.48756
G1 X147.58 Y69.75 E1.54479
G1 X149.55 Y72.64 E1.60199
G1 X151.33 Y75.66 E1.65921
G1 X152.92 Y78.78 E1.71643
G1 X154.31 Y81.99 E1.77363
G1 X155.49 Y85.28 E1.83084
G1 X156.47 Y88.64 E1.88806
G1 X157.24 Y92.06 E1.94529
G1 X157.78 Y95.52 E2.00250
G1 X158.11 Y99.00 E2.05971
G1 X158.22 Y102.50 E2.11691
G1 X158.11 Y106.00 E2.17411
G1 X157.78 Y109.48 E2.23133
G1 X157.24 Y112.94 E2.28853
G1 X156.47 Y116.36 E2.34576
G1 X155.49 Y119.72 E2.40298
G1 X154.31 Y123.01 E2.46019
G1 X152.92 Y126.22 E2.51739
G1 X151.33 Y129.34 E2.57462
G1 X149.55 Y132.36 E2.63183
G1 X147.58 Y135.25 E2.68903
G1 X145.43 Y138.02 E2.74626
G1 X143.12 Y140.64 E2.80347
G1 X140.65 Y143.12 E2.86070
G1 X138.02 Y145.43 E2.91793
G1 X135.25 Y147.58 E2.97514
G1 X132.36 Y149.55 E3.03234
G1 X129.34 Y151.33 E3.08956
G1 X126.22 Y152.92 E3.14679
G1 X123.01 Y154.31 E3.20398
G1 X119.72 Y155.49 E3.26119
G1 X116.36 Y156.47 E3.31842
G1 X112.94 Y157.24 E3.37564
G1 X109.48 Y157.78 E3.43285
G1 X106.00 Y158.11 E3.49006
G1 X102.50 Y158.22 E3.54726
G1 X99.00 Y158.11 E3.60446
G1 X95.52 Y157.78 E3.66168
G1 X92.06 Y157.24 E3.71889
G1 X88.64 Y156.47 E3.77611
G1 X85.28 Y155.49 E3.83333
G1 X81.99 Y154.31 E3.89054
G1 X78.78 Y152.92 E3.94774
G1 X75.66 Y151.33 E4.00497
G1 X72.64 Y149.55 E4.06218
G1 X69.75 Y147.58 E4.11939
G1 X66.98 Y145.43 E4.17662
G1 X64.36 Y143.12 E4.23382
G1 X61.88 Y140.64 E4.29105
G1 X59.57 Y138.02 E4.34826
G1 X57.42 Y135.25 E4.40549
G1 X55.45 Y132.36 E4.46269
G1 X53.67 Y129.34 E4.51991
G1 X52.08 Y126.22 E4.57714
G1 X50.69 Y123.01 E4.63433
G1 X49.51 Y119.72 E4.69154
G1 X48.53 Y116.36 E4.74877
G1 X47.76 Y112.94 E4.80599
G1 X47.22 Y109.48 E4.86320
G1 X46.89 Y106.00 E4.92041
G1 X46.78 Y102.50 E4.97761
G1 X46.89 Y99.00 E5.03481
G1 X47.22 Y95.52 E5.09203
G1 X47.76 Y92.06 E5.14924
G1 X48.53 Y88.64 E5.20646
G1 X49.51 Y85.28 E5.26368
G1 X50.69 Y81.99 E5.32089
G1 X52.08 Y78.78 E5.37809
G1 X53.67 Y75.66 E5.43532
G1 X55.45 Y72.64 E5.49253
G1 X57.42 Y69.75 E5.54974
G1 X59.57 Y66.98 E5.60697
G1 X61.88 Y64.36 E5.66417
G1 X64.36 Y61.88 E5.72140
G1 F2400 E1.22140
G0 F1680 X66.88 Y64.58
;TYPE:WALL-INNER
G1 F2400 E5.72140
G1 F1140 X69.34 Y62.42 E5.77487
G1 X71.93 Y60.41 E5.82848
G1 X74.62 Y58.58 E5.88171
G1 X77.44 Y56.92 E5.93514
G1 X80.35 Y55.43 E5.98861
G1 X83.35 Y54.13 E6.04195
G1 X86.43 Y53.02 E6.09550
G1 X89.57 Y52.11 E6.14886
G1 X92.74 Y51.40 E6.20200
G1 X95.98 Y50.89 E6.25568
G1 X99.24 Y50.58 E6.30907
G1 X102.50 Y50.48 E6.36246
G1 X105.76 Y50.58 E6.41585
G1 X109.02 Y50.89 E6.46924
G1 X112.26 Y51.40 E6.52293
G1 X115.43 Y52.11 E6.57607
G1 X118.57 Y53.02 E6.62942
G1 X121.65 Y54.13 E6.68298
G1 X124.65 Y55.43 E6.73632
G1 X127.56 Y56.92 E6.78979
G1 X130.38 Y58.58 E6.84322
G1 X133.07 Y60.41 E6.89645
G1 X135.66 Y62.42 E6.95006
G1 X138.12 Y64.58 E7.00352
G1 X140.42 Y66.89 E7.05673
G1 X142.58 Y69.34 E7.11020
G1 X144.59 Y71.93 E7.16380
G1 X146.42 Y74.62 E7.21703
G1 X148.09 Y77.44 E7.27047
G1 X149.57 Y80.35 E7.32394
G1 X150.87 Y83.35 E7.37727
G1 X151.98 Y86.43 E7.43083
G1 X152.89 Y89.57 E7.48419
G1 X153.60 Y92.74 E7.53730
G1 X154.11 Y95.98 E7.59101
G1 X154.42 Y99.24 E7.64440
G1 X154.52 Y102.50 E7.69779
G1 X154.42 Y105.76 E7.75118
G1 X154.11 Y109.02 E7.80457
G1 X153.60 Y112.26 E7.85825
G1 X152.89 Y115.43 E7.91139
G1 X151.98 Y118.57 E7.96475
G1 X150.87 Y121.65 E8.01831
G1 X149.57 Y124.65 E8.07165
G1 X148.09 Y127.56 E8.12512
G1 X146.42 Y130.38 E8.17855
G1 X144.59 Y133.07 E8.23178
G1 X142.58 Y135.66 E8.28539
G1 X140.42 Y138.12 E8.33885
G1 X138.12 Y140.42 E8.39206
G1 X135.66 Y142.58 E8.44553
G1 X133.07 Y144.59 E8.49913
G1 X130.38 Y146.42 E8.55236
G1 X127.56 Y148.09 E8.60580
G1 X124.65 Y149.57 E8.65927
G1 X121.65 Y150.87 E8.71260
G1 X118.57 Y151.98 E8.76616
G1 X115.43 Y152.89 E8.81952
G1 X112.26 Y153.60 E8.87266
G1 X109.02 Y154.11 E8.92634
G1 X105.76 Y154.42 E8.97973
G1 X102.50 Y154.52 E9.03312
G1 X99.24 Y154.42 E9.08651
G1 X95.98 Y154.11 E9.13990
G1 X92.74 Y153.60 E9.19358
G1 X89.57 Y152.89 E9.24672
G1 X86.43 Y151.98 E9.30008
G1 X83.35 Y150.87 E9.35364
G1 X80.35 Y149.57 E9.40698
G1 X77.44 Y148.09 E9.46045
G1 X74.62 Y146.42 E9.51388
G1 X71.93 Y144.59 E9.56711
G1 X69.34 Y142.58 E9.62071
G1 X66.89 Y140.42 E9.67418
G1 X64.58 Y138.12 E9.72739
G1 X62.42 Y135.66 E9.78086
G1 X60.41 Y133.07 E9.83446
G1 X58.58 Y130.38 E9.88769
G1 X56.92 Y127.56 E9.94112
G1 X55.43 Y124.65 E9.99459
G1 X54.13 Y121.65 E10.04793
G1 X53.02 Y118.57 E10.10149
G1 X52.11 Y115.43 E10.15485
G1 X51.40 Y112.26 E10.20799
G1 X50.89 Y109.02 E10.26167
G1 X50.58 Y105.76 E10.31506
G1 X50.48 Y102.50 E10.36845
G1 X50.58 Y99.24 E10.42184
G1 X50.89 Y95.98 E10.47523
G1 X51.40 Y92.74 E10.52894
G1 X52.11 Y89.57 E10.58205
G1 X53.02 Y86.43 E10.63541
G1 X54.13 Y83.35 E10.68897
G1 X55.43 Y80.35 E10.74230
G1 X56.92 Y77.44 E10.79577
G1 X58.58 Y74.62 E10.84921
G1 X60.41 Y71.93 E10.90244
G1 X62.42 Y69.34 E10.95604
G1 X64.58 Y66.89 E11.00951
G1 X66.88 Y64.58 E11.06272
G0 F1680 X72.82 Y68.30
G1 F1140 X72.68 Y68.65 E11.06895
G1 X72.60 Y69.03 E11.07525
G1 X72.58 Y69.27 E11.07928
G1 X72.60 Y69.52 E11.08337
G1 X72.62 Y69.66 E11.08573
G1 X72.72 Y70.00 E11.09139
G1 X72.83 Y70.24 E11.09572
G1 X72.97 Y70.45 E11.09984
G1 X73.13 Y70.64 E11.10391
G1 X73.33 Y70.83 E11.10838
G1 X73.53 Y70.98 E11.11256
G1 X73.75 Y71.09 E11.11654
G1 X73.99 Y71.19 E11.12075
G1 X74.35 Y71.27 E11.12684
G1 X74.62 Y71.28 E11.13129
G1 X75.00 Y71.24 E11.13754
G1 X75.24 Y71.18 E11.14145
G1 X75.36 Y71.14 E11.14366
G1 X75.58 Y71.03 E11.14767
G1 X75.91 Y70.81 E11.15412
G1 X76.26 Y70.44 E11.16245
G1 X76.44 Y70.13 E11.16832
G1 X76.53 Y69.88 E11.17262
G1 X76.62 Y69.50 E11.17905
G1 X76.63 Y69.22 E11.18355
G1 X76.59 Y68.84 E11.18978
G1 X76.43 Y68.38 E11.19781
G1 X76.23 Y68.04 E11.20420
G1 X75.97 Y67.76 E11.21043
G1 X75.66 Y67.53 E11.21680
G1 X75.23 Y67.33 E11.22466
G1 X74.84 Y67.25 E11.23113
G1 X74.57 Y67.23 E11.23547
G1 X74.20 Y67.27 E11.24160
G1 X73.83 Y67.39 E11.24796
G1 X73.40 Y67.63 E11.25601
G1 X73.11 Y67.90 E11.26252
G1 X72.82 Y68.30 E11.27054
G0 F1680 X73.82 Y67.36
G0 X75.23 Y67.31
G0 X122.17 Y64.90
G1 F1140 X122.22 Y65.37 E11.27832
G1 X122.34 Y65.74 E11.28468
G1 X122.52 Y66.06 E11.29061
G1 X122.69 Y66.27 E11.29501
G1 X122.96 Y66.53 E11.30114
G1 X123.29 Y66.74 E11.30757
G1 X123.65 Y66.87 E11.31378
G1 X124.02 Y66.94 E11.31988
G1 X124.29 Y66.94 E11.32430
G1 X124.78 Y66.86 E11.33250
G1 X125.22 Y66.67 E11.34038
G1 X125.36 Y66.58 E11.34298
G1 X125.64 Y66.35 E11.34897
G1 X125.81 Y66.14 E11.35336
G1 X126.06 Y65.71 E11.36146
G1 X126.18 Y65.34 E11.36784
G1 X126.22 Y64.98 E11.37383
G1 X126.21 Y64.71 E11.37821
G1 X126.17 Y64.46 E11.38240
G1 X126.05 Y64.10 E11.38865
G1 X125.86 Y63.76 E11.39485
G1 X125.61 Y63.47 E11.40110
G1 X125.42 Y63.31 E11.40523
G1 X125.21 Y63.17 E11.40940
G1 X124.74 Y62.97 E11.41769
G1 X124.48 Y62.92 E11.42203
G1 X124.21 Y62.89 E11.42646
G1 X123.76 Y62.94 E11.43395
G1 X123.37 Y63.07 E11.44057
G1 X122.94 Y63.33 E11.44885
G1 X122.75 Y63.50 E11.45302
G1 X122.58 Y63.69 E11.45716
G1 X122.44 Y63.91 E11.46134
G1 X122.25 Y64.37 E11.46961
G1 X122.18 Y64.75 E11.47583
G1 X122.17 Y64.90 E11.47832
G0 F1680 X132.56 Y136.82
G1 F1140 X132.19 Y136.93 E11.48470
G1 X131.76 Y137.18 E11.49275
G1 X131.48 Y137.43 E11.49898
G1 X131.30 Y137.65 E11.50353
G1 X131.07 Y138.07 E11.51143
G1 X130.98 Y138.43 E11.51737
G1 X130.94 Y138.82 E11.52384
G1 X130.96 Y139.07 E11.52793
G1 X130.98 Y139.21 E11.53029
G1 X131.08 Y139.54 E11.53597
G1 X131.19 Y139.78 E11.54015
G1 X131.26 Y139.90 E11.54249
G1 X131.49 Y140.20 E11.54862
G1 X131.68 Y140.38 E11.55294
G1 X131.89 Y140.52 E11.55712
G1 X132.10 Y140.64 E11.56108
G1 X132.35 Y140.74 E11.56532
G1 X132.71 Y140.82 E11.57141
G1 X132.98 Y140.83 E11.57582
G1 X133.23 Y140.82 E11.57993
G1 X133.37 Y140.79 E11.58227
G1 X133.70 Y140.69 E11.58793
G1 X133.94 Y140.58 E11.59226
G1 X134.15 Y140.45 E11.59627
G1 X134.27 Y140.36 E11.59870
G1 X134.43 Y140.20 E11.60247
G1 X134.54 Y140.07 E11.60520
G1 X134.79 Y139.68 E11.61278
G1 X134.89 Y139.42 E11.61731
G1 X134.98 Y139.06 E11.62340
G1 X134.99 Y138.77 E11.62813
G1 X134.95 Y138.40 E11.63423
G1 X134.84 Y138.04 E11.64046
G1 X134.66 Y137.69 E11.64684
G1 X134.34 Y137.31 E11.65490
G1 X134.03 Y137.09 E11.66111
G1 X133.79 Y136.96 E11.66564
G1 X133.35 Y136.82 E11.67312
G1 X132.93 Y136.78 E11.68007
G1 X132.56 Y136.82 E11.68617
G0 F1680 X82.82 Y139.87
G1 F1140 X82.74 Y139.49 E11.69239
G1 X82.65 Y139.26 E11.69650
G1 X82.39 Y138.82 E11.70483
G1 X82.22 Y138.63 E11.70903
G1 X81.92 Y138.39 E11.71524
G1 X81.59 Y138.21 E11.72144
G1 X81.23 Y138.10 E11.72765
G1 X81.09 Y138.07 E11.72993
G1 X80.82 Y138.05 E11.73437
G1 X80.37 Y138.10 E11.74180
G1 X79.98 Y138.23 E11.74848
G1 X79.64 Y138.42 E11.75473
G1 X79.27 Y138.76 E11.76294
G1 X79.12 Y138.96 E11.76715
G1 X78.94 Y139.30 E11.77337
G1 X78.82 Y139.66 E11.77960
G1 X78.79 Y139.91 E11.78379
G1 X78.78 Y140.06 E11.78623
G1 X78.83 Y140.54 E11.79400
G1 X78.95 Y140.90 E11.80023
G1 X79.07 Y141.12 E11.80434
G1 X79.14 Y141.24 E11.80666
G1 X79.39 Y141.53 E11.81284
G1 X79.68 Y141.77 E11.81908
G1 X80.02 Y141.95 E11.82531
G1 X80.38 Y142.06 E11.83155
G1 X80.77 Y142.11 E11.83793
G1 X81.27 Y142.06 E11.84612
G1 X81.72 Y141.89 E11.85403
G1 X81.95 Y141.75 E11.85847
G1 X82.15 Y141.59 E11.86264
G1 X82.40 Y141.32 E11.86863
G1 X82.57 Y141.08 E11.87338
G1 X82.75 Y140.63 E11.88129
G1 X82.82 Y140.26 E11.88742
G1 X82.83 Y140.11 E11.88991
G1 X82.82 Y139.87 E11.89394
G0 F1680 X82.46 Y139.80
;TYPE:WALL-OUTER
G1 F1140 X82.33 Y139.40 E11.90080
G1 X82.24 Y139.21 E11.90425
G1 X82.05 Y138.96 E11.90940
G1 X81.82 Y138.75 E11.91455
G1 X81.64 Y138.63 E11.91800
G1 X81.45 Y138.54 E11.92142
G1 X81.25 Y138.47 E11.92486
G1 X81.04 Y138.42 E11.92837
G1 X80.82 Y138.40 E11.93199
G1 X80.43 Y138.45 E11.93847
G1 X80.12 Y138.55 E11.94378
G1 X79.85 Y138.71 E11.94893
G1 X79.68 Y138.84 E11.95234
G1 X79.61 Y138.91 E11.95408
G1 X79.41 Y139.15 E11.95922
G1 X79.35 Y139.24 E11.96095
G1 X79.26 Y139.43 E11.96438
G1 X79.15 Y139.84 E11.97125
G1 X79.13 Y140.05 E11.97481
G1 X79.17 Y140.46 E11.98150
G1 X79.27 Y140.76 E11.98666
G1 X79.42 Y141.03 E11.99176
G1 X79.63 Y141.28 E11.99700
G1 X79.88 Y141.48 E12.00216
G1 X80.15 Y141.62 E12.00732
G1 X80.45 Y141.72 E12.01246
G1 X80.77 Y141.76 E12.01768
G1 X81.19 Y141.71 E12.02450
G1 X81.57 Y141.57 E12.03124
G1 X81.75 Y141.46 E12.03466
G1 X81.92 Y141.33 E12.03810
G1 X82.13 Y141.10 E12.04318
G1 X82.26 Y140.91 E12.04693
G1 X82.42 Y140.53 E12.05365
G1 X82.47 Y140.23 E12.05877
G1 X82.48 Y140.11 E12.06073
G1 X82.46 Y139.80 E12.06573
G0 F1680 X82.73 Y139.77
G0 X82.59 Y141.09
G0 X77.40 Y148.15
G0 X77.28 Y148.40
G1 F1140 X74.43 Y146.71 E12.11968
G1 X71.71 Y144.87 E12.17344
G1 X69.12 Y142.86 E12.22703
G1 X66.65 Y140.68 E12.28082
G1 X64.32 Y138.35 E12.33477
G1 X62.14 Y135.88 E12.38856
G1 X60.13 Y133.29 E12.44214
G1 X58.28 Y130.57 E12.49593
G1 X56.60 Y127.72 E12.54986
G1 X55.12 Y124.80 E12.60348
G1 X53.81 Y121.77 E12.65740
G1 X52.69 Y118.68 E12.71118
G1 X51.78 Y115.53 E12.76483
G1 X51.06 Y112.31 E12.81874
G1 X50.54 Y109.06 E12.87250
G1 X50.23 Y105.79 E12.92612
G1 X50.13 Y102.51 E12.97985
G1 X50.23 Y99.21 E13.03379
G1 X50.54 Y95.94 E13.08740
G1 X51.06 Y92.69 E13.14117
G1 X51.78 Y89.47 E13.19513
G1 X52.69 Y86.32 E13.24872
G1 X53.81 Y83.23 E13.30251
G1 X55.12 Y80.20 E13.35645
G1 X56.60 Y77.28 E13.41005
G1 X58.28 Y74.43 E13.46399
G1 X60.13 Y71.71 E13.51776
G1 X62.14 Y69.12 E13.57135
G1 X64.32 Y66.65 E13.62514
G1 X66.65 Y64.32 E13.67909
G1 X69.12 Y62.14 E13.73288
G1 X71.71 Y60.13 E13.78646
G1 X74.43 Y58.28 E13.84023
G1 X77.28 Y56.60 E13.89418
G1 X80.20 Y55.12 E13.94778
G1 X83.22 Y53.81 E14.00161
G1 X86.32 Y52.69 E14.05550
G1 X89.47 Y51.78 E14.10915
G1 X92.69 Y51.06 E14.16299
G1 X95.94 Y50.54 E14.21682
G1 X99.21 Y50.23 E14.27044
G1 X102.50 Y50.13 E14.32427
G1 X105.79 Y50.23 E14.37810
G1 X109.06 Y50.54 E14.43172
G1 X112.31 Y51.06 E14.48555
G1 X115.53 Y51.78 E14.53940
G1 X118.68 Y52.69 E14.59304
G1 X121.78 Y53.81 E14.64693
G1 X124.80 Y55.12 E14.70077
G1 X127.72 Y56.60 E14.75437
G1 X130.57 Y58.28 E14.80831
G1 X133.29 Y60.13 E14.86208
G1 X135.88 Y62.14 E14.91567
G1 X138.35 Y64.32 E14.96946
G1 X140.68 Y66.65 E15.02341
G1 X142.86 Y69.12 E15.07720
G1 X144.87 Y71.71 E15.13078
G1 X146.71 Y74.43 E15.18455
G1 X148.40 Y77.28 E15.23849
G1 X149.88 Y80.20 E15.29210
G1 X151.19 Y83.22 E15.34586
G1 X152.31 Y86.32 E15.39982
G1 X153.22 Y89.47 E15.45341
G1 X153.94 Y92.68 E15.50719
G1 X154.46 Y95.94 E15.56114
G1 X154.77 Y99.21 E15.61476
G1 X154.87 Y102.49 E15.66849
G1 X154.77 Y105.79 E15.72242
G1 X154.46 Y109.06 E15.77604
G1 X153.94 Y112.31 E15.82980
G1 X153.23 Y115.53 E15.88371
G1 X152.31 Y118.68 E15.93736
G1 X151.19 Y121.77 E15.99115
G1 X149.88 Y124.80 E16.04506
G1 X148.40 Y127.72 E16.09869
G1 X146.72 Y130.57 E16.15261
G1 X144.87 Y133.29 E16.20640
G1 X142.86 Y135.88 E16.25999
G1 X140.68 Y138.35 E16.31378
G1 X138.35 Y140.68 E16.36770
G1 X135.88 Y142.86 E16.42152
G1 X133.29 Y144.87 E16.47510
G1 X130.57 Y146.71 E16.52887
G1 X127.72 Y148.40 E16.58281
G1 X124.80 Y149.88 E16.63642
G1 X121.78 Y151.19 E16.69025
G1 X118.68 Y152.31 E16.74412
G1 X115.53 Y153.23 E16.79779
G1 X112.31 Y153.94 E16.85163
G1 X109.06 Y154.46 E16.90548
G1 X105.79 Y154.77 E16.95908
G1 X102.50 Y154.87 E17.01291
G1 X99.21 Y154.77 E17.06674
G1 X95.94 Y154.46 E17.12035
G1 X92.69 Y153.94 E17.17419
G1 X89.47 Y153.23 E17.22803
G1 X86.32 Y152.31 E17.28170
G1 X83.22 Y151.19 E17.33557
G1 X80.20 Y149.88 E17.38940
G1 X77.28 Y148.40 E17.44301
G0 F1680 X77.40 Y148.15
G0 X131.05 Y139.18
G0 X131.32 Y139.13
G1 F1140 X131.40 Y139.42 E17.44792
G1 X131.55 Y139.71 E17.45316
G1 X131.82 Y140.03 E17.45998
G1 X132.08 Y140.23 E17.46531
G1 X132.25 Y140.32 E17.46857
G1 X132.45 Y140.40 E17.47204
G1 X132.76 Y140.47 E17.47722
G1 X132.98 Y140.48 E17.48078
G1 X133.29 Y140.45 E17.48595
G1 X133.58 Y140.37 E17.49086
G1 X133.77 Y140.27 E17.49435
G1 X134.04 Y140.09 E17.49962
G1 X134.26 Y139.86 E17.50487
G1 X134.48 Y139.52 E17.51144
G1 X134.56 Y139.32 E17.51500
G1 X134.63 Y139.01 E17.52016
G1 X134.64 Y138.78 E17.52394
G1 X134.61 Y138.47 E17.52906
G1 X134.51 Y138.17 E17.53420
G1 X134.37 Y137.89 E17.53941
G1 X134.10 Y137.57 E17.54619
G1 X133.85 Y137.38 E17.55134
G1 X133.65 Y137.28 E17.55490
G1 X133.27 Y137.16 E17.56138
G1 X133.16 Y137.14 E17.56328
G1 X132.94 Y137.13 E17.56688
G1 X132.63 Y137.16 E17.57199
G1 X132.32 Y137.26 E17.57719
G1 X131.96 Y137.46 E17.58396
G1 X131.73 Y137.67 E17.58913
G1 X131.59 Y137.84 E17.59270
G1 X131.40 Y138.21 E17.59942
G1 X131.32 Y138.50 E17.60438
G1 X131.30 Y138.61 E17.60623
G1 X131.29 Y138.82 E17.60962
G1 X131.32 Y139.13 E17.61480
G0 F1680 X131.05 Y139.18
G0 X124.25 Y66.87
G0 X124.26 Y66.59
G1 F1140 X124.68 Y66.53 E17.62174
G1 X125.06 Y66.36 E17.62846
G1 X125.15 Y66.30 E17.63025
G1 X125.39 Y66.09 E17.63543
G1 X125.53 Y65.94 E17.63884
G1 X125.74 Y65.57 E17.64574
G1 X125.84 Y65.27 E17.65094
