;Generated with Cura_SteamEngine 13.12
M109 T0 S220.000000
T0
;Sliced at: Thu 20-02-2014 11:47:45
;Basic settings: Layer height: 0.1 Walls: 0.4 Fill: 20
;Print time: #P_TIME#
;Filament used: #F_AMNT#m #F_WGHT#g
;Filament cost: #F_COST#
;M190 S70 ;Uncomment to add your own bed temperature line
;M109 S220 ;Uncomment to add your own temperature line
G21        ;metric values
G90        ;absolute positioning
M107       ;start with the fan off
G28 X0 Y0  ;move X/Y to min endstops
G28 Z0     ;move Z to min endstops
G1 Z15.0 F9000 ;move the platform down 15mm
G92 E0                  ;zero the extruded length
G1 F200 E3              ;extrude 3mm of feed stock
G92 E0                  ;zero the extruded length again
G1 F9000
;Put printing message on LCD screen
M117 Printing...

;Layer count: 29
;LAYER:0
M107
G0 F1980 X63.75 Y66.04 Z0.30
;TYPE:SKIRT
G1 F2400 E0.00000
G1 F1140 X66.04 Y63.75 E0.06055
G1 X66.12 Y63.69 E0.06242
G1 X68.55 Y61.54 E0.12297
G1 X68.63 Y61.48 E0.12487
G1 X71.19 Y59.49 E0.18540
G1 X71.27 Y59.43 E0.18726
G1 X73.95 Y57.61 E0.24782
G1 X74.04 Y57.56 E0.24970
G1 X76.83 Y55.90 E0.31027
G1 X76.92 Y55.86 E0.31215
G1 X79.80 Y54.38 E0.37269
G1 X79.89 Y54.34 E0.37458
G1 X82.87 Y53.06 E0.43512
G1 X82.96 Y53.02 E0.43699
G1 X86.01 Y51.92 E0.49756
G1 X86.11 Y51.89 E0.49943
G1 X89.22 Y50.98 E0.55998
G1 X89.32 Y50.96 E0.56185
G1 X92.48 Y50.25 E0.62241
G1 X92.58 Y50.23 E0.62430
G1 X95.78 Y49.73 E0.68485
G1 X95.88 Y49.71 E0.68671
G1 X99.11 Y49.41 E0.74726
G1 X99.21 Y49.40 E0.74913
G1 X102.45 Y49.30 E0.80968
G1 X102.55 Y49.30 E0.81157
G1 X105.79 Y49.40 E0.87212
G1 X105.89 Y49.41 E0.87399
G1 X109.12 Y49.71 E0.93454
G1 X109.22 Y49.73 E0.93640
G1 X112.42 Y50.23 E0.99696
G1 X112.52 Y50.25 E0.99884
G1 X115.68 Y50.96 E1.05940
G1 X115.78 Y50.98 E1.06127
G1 X118.89 Y51.89 E1.12182
G1 X118.99 Y51.92 E1.12370
G1 X122.04 Y53.02 E1.18426
G1 X122.13 Y53.06 E1.18613
G1 X125.11 Y54.34 E1.24667
G1 X125.20 Y54.38 E1.24856
G1 X128.08 Y55.86 E1.30910
G1 X128.17 Y55.90 E1.31098
G1 X130.96 Y57.56 E1.37155
G1 X131.05 Y57.61 E1.37343
G1 X133.73 Y59.43 E1.43399
G1 X133.81 Y59.49 E1.43585
G1 X136.37 Y61.48 E1.49638
G1 X136.45 Y61.54 E1.49828
G1 X138.88 Y63.69 E1.55883
G1 X138.95 Y63.75 E1.56071
G1 X141.25 Y66.04 E1.62125
G1 X141.31 Y66.12 E1.62313
G1 X143.46 Y68.55 E1.68368
G1 X143.52 Y68.63 E1.68557
G1 X145.51 Y71.19 E1.74611
G1 X145.57 Y71.27 E1.74797
G1 X147.39 Y73.95 E1.80853
G1 X147.44 Y74.04 E1.81041
G1 X149.09 Y76.83 E1.87097
G1 X149.14 Y76.92 E1.87285
G1 X150.61 Y79.80 E1.93339
G1 X150.66 Y79.89 E1.93528
G1 X151.94 Y82.87 E1.99582
G1 X151.98 Y82.96 E1.99769
G1 X153.08 Y86.01 E2.05826
G1 X153.11 Y86.11 E2.06013
G1 X154.02 Y89.22 E2.12069
G1 X154.04 Y89.32 E2.12256
G1 X154.75 Y92.48 E2.18311
G1 X154.77 Y92.58 E2.18500
G1 X155.27 Y95.78 E2.24555
G1 X155.29 Y95.88 E2.24742
G1 X155.59 Y99.11 E2.30797
G1 X155.60 Y99.21 E2.30984
G1 X155.70 Y102.45 E2.37039
G1 X155.70 Y102.55 E2.37227
G1 X155.60 Y105.79 E2.43290
G1 X155.59 Y105.90 E2.43496
G1 X155.24 Y109.44 E2.50136
G1 X155.22 Y109.53 E2.50305
G1 X154.77 Y112.42 E2.55765
G1 X154.75 Y112.52 E2.55954
G1 X154.04 Y115.68 E2.62010
G1 X154.02 Y115.78 E2.62196
G1 X153.11 Y118.89 E2.68260
G1 X153.07 Y119.00 E2.68463
G1 X151.85 Y122.34 E2.75104
G1 X151.82 Y122.42 E2.75275
G1 X150.66 Y125.10 E2.80734
G1 X150.61 Y125.20 E2.80925
G1 X149.14 Y128.08 E2.86979
G1 X149.09 Y128.17 E2.87167
G1 X147.44 Y130.97 E2.93232
G1 X147.38 Y131.06 E2.93436
G1 X145.37 Y133.99 E3.00077
G1 X145.31 Y134.06 E3.00246
G1 X143.52 Y136.38 E3.05717
G1 X143.45 Y136.46 E3.05922
G1 X141.08 Y139.11 E3.12562
G1 X141.02 Y139.18 E3.12731
G1 X138.95 Y141.25 E3.18200
G1 X138.87 Y141.32 E3.18406
G1 X136.19 Y143.66 E3.25045
G1 X136.12 Y143.72 E3.25215
G1 X133.81 Y145.51 E3.30675
G1 X133.73 Y145.57 E3.30862
G1 X131.05 Y147.39 E3.36918
G1 X130.96 Y147.44 E3.37106
G1 X128.17 Y149.09 E3.43163
G1 X128.08 Y149.14 E3.43351
G1 X125.20 Y150.61 E3.49405
G1 X125.11 Y150.66 E3.49594
G1 X122.13 Y151.94 E3.55648
G1 X122.04 Y151.98 E3.55835
G1 X118.99 Y153.08 E3.61891
G1 X118.89 Y153.11 E3.62079
G1 X115.77 Y154.02 E3.68142
G1 X115.67 Y154.04 E3.68348
G1 X112.19 Y154.80 E3.74987
G1 X112.10 Y154.82 E3.75158
G1 X109.22 Y155.27 E3.80620
G1 X109.12 Y155.29 E3.80806
G1 X105.89 Y155.59 E3.86861
G1 X105.79 Y155.60 E3.87048
G1 X102.55 Y155.70 E3.93103
G1 X102.45 Y155.70 E3.93292
G1 X99.21 Y155.60 E3.99354
G1 X99.10 Y155.59 E3.99560
G1 X95.56 Y155.24 E4.06200
G1 X95.47 Y155.22 E4.06370
G1 X92.58 Y154.77 E4.11829
G1 X92.48 Y154.75 E4.12018
G1 X89.32 Y154.04 E4.18074
G1 X89.22 Y154.02 E4.18261
G1 X86.10 Y153.11 E4.24324
G1 X86.00 Y153.07 E4.24527
G1 X82.66 Y151.85 E4.31169
G1 X82.58 Y151.82 E4.31340
G1 X79.89 Y150.66 E4.36799
G1 X79.80 Y150.61 E4.36989
G1 X76.92 Y149.14 E4.43043
G1 X76.83 Y149.09 E4.43231
G1 X74.03 Y147.44 E4.49296
G1 X73.94 Y147.38 E4.49500
G1 X71.01 Y145.37 E4.56141
G1 X70.94 Y145.31 E4.56310
G1 X68.62 Y143.52 E4.61781
G1 X68.54 Y143.45 E4.61986
G1 X65.89 Y141.08 E4.68627
G1 X65.82 Y141.02 E4.68796
G1 X63.75 Y138.95 E4.74264
G1 X63.67 Y138.87 E4.74470
G1 X61.34 Y136.19 E4.81110
G1 X61.28 Y136.12 E4.81279
G1 X59.49 Y133.81 E4.86739
G1 X59.43 Y133.73 E4.86927
G1 X57.61 Y131.05 E4.92982
G1 X57.56 Y130.96 E4.93171
G1 X55.90 Y128.17 E4.99227
G1 X55.86 Y128.08 E4.99415
G1 X54.38 Y125.20 E5.05469
G1 X54.34 Y125.11 E5.05658
G1 X53.06 Y122.13 E5.11712
G1 X53.02 Y122.04 E5.11899
G1 X51.92 Y118.99 E5.17956
G1 X51.89 Y118.89 E5.18143
G1 X50.98 Y115.77 E5.24206
G1 X50.96 Y115.67 E5.24412
G1 X50.20 Y112.19 E5.31051
G1 X50.18 Y112.10 E5.31222
G1 X49.73 Y109.22 E5.36684
G1 X49.71 Y109.12 E5.36870
G1 X49.41 Y105.89 E5.42925
G1 X49.40 Y105.79 E5.43112
G1 X49.30 Y102.55 E5.49167
G1 X49.30 Y102.45 E5.49356
G1 X49.40 Y99.21 E5.55411
G1 X49.41 Y99.11 E5.55598
G1 X49.71 Y95.88 E5.61653
G1 X49.73 Y95.78 E5.61839
G1 X50.23 Y92.58 E5.67895
G1 X50.25 Y92.48 E5.68083
G1 X50.96 Y89.32 E5.74139
G1 X50.98 Y89.22 E5.74326
G1 X51.89 Y86.11 E5.80381
G1 X51.92 Y86.01 E5.80569
G1 X53.02 Y82.96 E5.86626
G1 X53.06 Y82.87 E5.86813
G1 X54.34 Y79.89 E5.92867
G1 X54.38 Y79.80 E5.93055
G1 X55.86 Y76.92 E5.99109
G1 X55.90 Y76.83 E5.99298
G1 X57.56 Y74.04 E6.05354
G1 X57.61 Y73.95 E6.05542
G1 X59.43 Y71.27 E6.11598
G1 X59.49 Y71.19 E6.11784
G1 X61.48 Y68.63 E6.17838
G1 X61.54 Y68.55 E6.18027
G1 X63.69 Y66.12 E6.24082
G1 X63.75 Y66.04 E6.24270
G1 F2400 E1.74270
G0 F1980 X66.20 Y68.40
;TYPE:WALL-OUTER
G1 F2400 E6.24270
G1 F1140 X68.40 Y66.20 E6.30089
G1 X70.75 Y64.13 E6.35933
G1 X73.23 Y62.21 E6.41801
G1 X75.81 Y60.46 E6.47621
G1 X78.51 Y58.86 E6.53478
G1 X81.29 Y57.44 E6.59309
G1 X84.17 Y56.20 E6.65174
G1 X87.11 Y55.14 E6.71007
G1 X90.12 Y54.26 E6.76855
G1 X93.16 Y53.58 E6.82682
G1 X96.26 Y53.09 E6.88551
G1 X99.37 Y52.80 E6.94378
G1 X102.50 Y52.70 E7.00226
G1 X105.63 Y52.80 E7.06074
G1 X108.74 Y53.09 E7.11902
G1 X111.84 Y53.58 E7.17770
G1 X114.88 Y54.26 E7.23598
G1 X117.89 Y55.14 E7.29446
G1 X120.83 Y56.20 E7.35278
G1 X123.71 Y57.44 E7.41144
G1 X126.49 Y58.86 E7.46974
G1 X129.19 Y60.46 E7.52831
G1 X131.77 Y62.21 E7.58652
G1 X134.25 Y64.13 E7.64519
G1 X136.60 Y66.20 E7.70363
G1 X138.80 Y68.40 E7.76183
G1 X140.87 Y70.75 E7.82027
G1 X142.79 Y73.23 E7.87894
G1 X144.54 Y75.81 E7.93715
G1 X146.14 Y78.51 E7.99583
G1 X147.56 Y81.29 E8.05402
G1 X148.80 Y84.17 E8.11268
G1 X149.86 Y87.11 E8.17091
G1 X150.73 Y90.11 E8.22935
G1 X151.42 Y93.16 E8.28776
G1 X151.91 Y96.26 E8.34644
G1 X152.20 Y99.37 E8.40465
G1 X152.30 Y102.49 E8.46309
G1 X152.20 Y105.62 E8.52160
G1 X151.86 Y109.04 E8.58580
G1 X151.42 Y111.84 E8.63862
G1 X150.74 Y114.88 E8.69681
G1 X149.86 Y117.88 E8.75528
G1 X148.68 Y121.11 E8.81955
G1 X147.56 Y123.71 E8.87233
G1 X146.14 Y126.49 E8.93055
G1 X144.55 Y129.18 E8.98898
G1 X142.60 Y132.01 E9.05328
G1 X140.87 Y134.25 E9.10609
G1 X138.58 Y136.82 E9.17037
G1 X136.60 Y138.80 E9.22270
G1 X134.00 Y141.06 E9.28701
G1 X131.77 Y142.79 E9.33983
G1 X129.19 Y144.54 E9.39803
G1 X126.49 Y146.14 E9.45660
G1 X123.71 Y147.56 E9.51491
G1 X120.83 Y148.80 E9.57354
G1 X117.89 Y149.86 E9.63189
G1 X114.88 Y150.74 E9.69042
G1 X111.53 Y151.46 E9.75450
G1 X108.74 Y151.91 E9.80732
G1 X105.63 Y152.20 E9.86559
G1 X102.50 Y152.30 E9.92407
G1 X99.37 Y152.20 E9.98251
G1 X95.96 Y151.86 E10.04668
G1 X93.16 Y151.42 E10.09950
G1 X90.12 Y150.74 E10.15778
G1 X87.12 Y149.86 E10.21616
G1 X83.88 Y148.68 E10.28053
G1 X81.29 Y147.56 E10.33323
G1 X78.51 Y146.14 E10.39153
G1 X75.82 Y144.55 E10.44997
G1 X72.99 Y142.60 E10.51418
G1 X70.75 Y140.87 E10.56697
G1 X68.18 Y138.58 E10.63124
G1 X66.20 Y136.60 E10.68357
G1 X63.94 Y134.00 E10.74788
G1 X62.21 Y131.77 E10.80070
G1 X60.46 Y129.19 E10.85891
G1 X58.86 Y126.49 E10.91758
G1 X57.44 Y123.71 E10.97580
G1 X56.20 Y120.83 E11.03443
G1 X55.14 Y117.89 E11.09276
G1 X54.26 Y114.88 E11.15133
G1 X53.53 Y111.53 E11.21537
G1 X53.09 Y108.74 E11.26819
G1 X52.80 Y105.63 E11.32647
G1 X52.70 Y102.51 E11.38483
G1 X52.80 Y99.37 E11.44349
G1 X53.09 Y96.26 E11.50170
G1 X53.58 Y93.16 E11.56038
G1 X54.26 Y90.12 E11.61856
G1 X55.14 Y87.11 E11.67723
G1 X56.20 Y84.17 E11.73546
G1 X57.44 Y81.29 E11.79412
G1 X58.86 Y78.51 E11.85231
G1 X60.46 Y75.81 E11.91099
G1 X62.21 Y73.23 E11.96920
G1 X64.13 Y70.75 E12.02787
G1 X66.20 Y68.40 E12.08631
G0 F1980 X66.42 Y68.61
G0 X78.92 Y98.39
G0 X79.07 Y98.65
G1 F1140 X79.04 Y98.66 E12.08678
G1 X78.65 Y98.94 E12.09583
G1 X78.33 Y99.29 E12.10470
G1 X78.07 Y99.74 E12.11437
G1 X77.78 Y100.37 E12.12738
G1 X77.43 Y101.26 E12.14521
G1 X77.30 Y101.85 E12.15654
G1 X77.30 Y101.89 E12.15730
G1 X77.39 Y102.35 E12.16590
G1 X77.40 Y102.39 E12.16675
G1 X77.74 Y102.84 E12.17736
G1 X77.57 Y102.91 E12.18073
G1 X77.51 Y102.96 E12.18228
G1 X77.44 Y103.16 E12.18626
G1 X77.42 Y103.39 E12.19053
G1 X77.43 Y103.41 E12.19092
G1 X77.50 Y103.89 E12.19985
G1 X77.67 Y104.41 E12.21021
G1 X77.67 Y104.42 E12.21045
G1 X77.92 Y104.95 E12.22126
G1 X78.29 Y105.47 E12.23321
G1 X78.31 Y105.53 E12.23444
G1 X78.27 Y105.66 E12.23686
G1 X77.81 Y106.53 E12.25536
G1 X77.84 Y106.67 E12.25799
G1 X78.65 Y107.37 E12.27800
G1 X78.66 Y107.38 E12.27828
G1 X78.92 Y107.54 E12.28399
G1 X79.16 Y107.65 E12.28886
G1 X79.38 Y107.70 E12.29303
G1 X79.43 Y107.70 E12.29396
G1 X79.75 Y107.61 E12.30028
G1 X79.78 Y107.60 E12.30080
G1 X80.13 Y107.38 E12.30856
G1 X80.42 Y107.11 E12.31603
G1 X80.44 Y107.09 E12.31653
G1 X80.56 Y106.89 E12.32082
G1 X81.28 Y107.51 E12.33850
G1 X81.75 Y107.67 E12.34777
G1 X81.80 Y107.68 E12.34874
G1 X82.28 Y107.58 E12.35790
G1 X82.75 Y107.26 E12.36847
G1 X83.03 Y106.93 E12.37656
G1 X83.05 Y106.91 E12.37714
G1 X83.20 Y106.58 E12.38395
G1 X83.21 Y106.53 E12.38478
G1 X83.20 Y106.20 E12.39095
G1 X83.18 Y106.15 E12.39195
G1 X83.03 Y105.91 E12.39734
G1 X82.90 Y105.44 E12.40638
G1 X82.85 Y104.57 E12.42272
G1 X82.89 Y103.73 E12.43837
G1 X82.97 Y103.45 E12.44388
G1 X83.04 Y103.44 E12.44519
G1 X83.69 Y103.50 E12.45738
G1 X83.77 Y103.48 E12.45883
G1 X84.05 Y103.24 E12.46566
G1 X84.08 Y103.19 E12.46677
G1 X84.23 Y102.71 E12.47625
G1 X84.28 Y102.00 E12.48957
G1 X84.28 Y101.26 E12.50326
G1 X84.21 Y100.84 E12.51131
G1 X84.18 Y100.77 E12.51267
G1 X83.98 Y100.60 E12.51758
G1 X83.90 Y100.60 E12.51902
G1 X83.89 Y100.46 E12.52161
G1 X82.94 Y99.94 E12.54190
G1 X82.74 Y99.77 E12.54680
G1 X82.57 Y99.58 E12.55156
G1 X82.44 Y99.35 E12.55645
G1 X81.90 Y98.65 E12.57297
G1 X81.86 Y98.62 E12.57387
G1 X81.05 Y98.26 E12.59051
G1 X81.01 Y98.25 E12.59132
G1 X80.02 Y98.26 E12.60968
G1 X79.07 Y98.65 E12.62896
G0 F1980 X78.92 Y98.39
G0 X80.02 Y97.85
G0 X81.17 Y97.88
G0 X82.18 Y98.37
G0 X85.69 Y100.26
G0 X85.91 Y100.47
G1 F1140 X86.00 Y105.19 E12.71710
G1 X86.11 Y105.30 E12.72010
G1 X87.88 Y105.35 E12.75319
G1 X87.90 Y105.35 E12.75349
G1 X88.30 Y105.29 E12.76111
G1 X88.33 Y105.28 E12.76180
G1 X88.66 Y105.09 E12.76883
G1 X89.25 Y104.50 E12.78431
G1 X89.26 Y104.49 E12.78463
G1 X89.35 Y104.67 E12.78838
G1 X89.50 Y104.85 E12.79271
G1 X89.68 Y105.00 E12.79698
G1 X89.92 Y105.14 E12.80232
G1 X90.89 Y105.36 E12.82088
G1 X90.93 Y105.36 E12.82167
G1 X91.84 Y105.17 E12.83896
G1 X91.88 Y105.15 E12.83994
G1 X92.44 Y104.65 E12.85390
G1 X92.47 Y104.54 E12.85603
G1 X92.46 Y104.51 E12.85664
G1 X92.53 Y104.63 E12.85912
G1 X92.95 Y105.11 E12.87108
G1 X93.30 Y105.30 E12.87846
G1 X93.72 Y105.35 E12.88636
G1 X95.01 Y105.31 E12.91052
G1 X95.38 Y105.25 E12.91758
G1 X95.43 Y105.22 E12.91866
G1 X95.62 Y105.05 E12.92339
G1 X95.65 Y104.99 E12.92454
G1 X95.70 Y104.69 E12.93034
G1 X96.01 Y105.01 E12.93872
G1 X95.98 Y105.01 E12.93936
G1 X95.78 Y105.08 E12.94340
G1 X95.59 Y105.24 E12.94791
G1 X95.43 Y105.52 E12.95402
G1 X95.41 Y105.58 E12.95519
G1 X95.44 Y105.89 E12.96094
G1 X95.46 Y105.95 E12.96203
G1 X95.70 Y106.23 E12.96899
G1 X96.07 Y106.44 E12.97698
G1 X96.92 Y106.61 E12.99308
G1 X96.95 Y106.61 E12.99368
G1 X97.76 Y106.49 E13.00900
G1 X98.39 Y106.14 E13.02245
G1 X98.42 Y106.11 E13.02331
G1 X98.82 Y105.52 E13.03663
G1 X98.93 Y105.26 E13.04175
G1 X98.95 Y105.22 E13.04264
G1 X99.04 Y105.26 E13.04443
G1 X99.35 Y105.35 E13.05042
G1 X99.42 Y105.34 E13.05164
G1 X99.72 Y105.22 E13.05770
G1 X99.76 Y105.18 E13.05873
G1 X99.97 Y104.90 E13.06526
G1 X99.99 Y104.86 E13.06619
G1 X100.03 Y104.55 E13.07189
G1 X100.54 Y105.07 E13.08541
G1 X100.56 Y105.08 E13.08583
G1 X100.86 Y105.27 E13.09260
G1 X101.20 Y105.36 E13.09907
G1 X101.61 Y105.38 E13.10667
G1 X101.63 Y105.38 E13.10706
G1 X102.31 Y105.27 E13.12003
G1 X102.85 Y105.02 E13.13114
G1 X102.88 Y104.99 E13.13187
G1 X103.16 Y104.67 E13.13990
G1 X103.22 Y105.04 E13.14696
G1 X103.28 Y105.13 E13.14889
G1 X103.45 Y105.20 E13.15233
G1 X103.78 Y105.28 E13.15863
G1 X105.11 Y105.35 E13.18368
G1 X105.54 Y105.30 E13.19165
G1 X105.85 Y105.17 E13.19796
G1 X106.25 Y104.80 E13.20807
G1 X106.49 Y104.46 E13.21580
G1 X106.91 Y104.97 E13.22811
G1 X106.95 Y105.00 E13.22887
G1 X107.62 Y105.34 E13.24295
G1 X107.67 Y105.35 E13.24389
G1 X108.46 Y105.33 E13.25869
G1 X108.50 Y105.32 E13.25948
G1 X109.21 Y104.98 E13.27424
G1 X109.25 Y104.95 E13.27520
G1 X109.66 Y104.38 E13.28832
G1 X109.88 Y104.71 E13.29576
G1 X110.15 Y105.00 E13.30321
G1 X110.37 Y105.18 E13.30845
G1 X110.41 Y105.20 E13.30929
G1 X110.93 Y105.31 E13.31921
G1 X111.67 Y105.34 E13.33306
G1 X112.40 Y105.30 E13.34678
G1 X112.86 Y105.18 E13.35569
G1 X112.91 Y105.15 E13.35674
G1 X113.13 Y105.33 E13.36204
G1 X113.19 Y105.35 E13.36323
G1 X113.49 Y105.37 E13.36879
G1 X113.85 Y105.23 E13.37614
G1 X114.07 Y105.01 E13.38190
G1 X114.09 Y104.97 E13.38268
G1 X114.21 Y104.51 E13.39166
G1 X114.28 Y103.44 E13.41160
G1 X114.32 Y103.22 E13.41572
G1 X114.38 Y103.12 E13.41796
G1 X114.47 Y103.04 E13.42019
G1 X114.54 Y103.01 E13.42157
G1 X114.58 Y103.92 E13.43844
G1 X114.66 Y104.26 E13.44516
G1 X114.83 Y104.56 E13.45148
G1 X115.07 Y104.85 E13.45863
G1 X115.39 Y105.15 E13.46673
G1 X115.72 Y105.31 E13.47356
G1 X116.14 Y105.35 E13.48146
G1 X117.97 Y105.24 E13.51576
G1 X118.08 Y105.13 E13.51860
G1 X118.08 Y105.08 E13.51944
G1 X118.23 Y105.21 E13.52309
G1 X118.41 Y105.30 E13.52680
G1 X118.60 Y105.35 E13.53053
G1 X118.77 Y105.35 E13.53370
G1 X118.80 Y105.35 E13.53425
G1 X118.99 Y105.29 E13.53793
G1 X119.03 Y105.27 E13.53880
G1 X119.17 Y105.15 E13.54219
G1 X119.19 Y105.11 E13.54309
G1 X119.27 Y104.89 E13.54732
G1 X119.28 Y104.64 E13.55213
G1 X119.28 Y104.61 E13.55269
G1 X119.50 Y104.92 E13.55975
G1 X119.85 Y105.19 E13.56806
G1 X120.25 Y105.33 E13.57610
G1 X120.78 Y105.38 E13.58609
G1 X121.15 Y105.35 E13.59291
G1 X121.45 Y105.25 E13.59891
G1 X121.73 Y105.06 E13.60527
G1 X122.24 Y104.54 E13.61869
G1 X122.28 Y104.89 E13.62536
G1 X122.36 Y105.09 E13.62931
G1 X122.51 Y105.26 E13.63348
G1 X122.55 Y105.28 E13.63430
G1 X122.73 Y105.36 E13.63798
G1 X122.78 Y105.36 E13.63894
G1 X123.14 Y105.31 E13.64569
G1 X123.20 Y105.28 E13.64699
G1 X123.46 Y105.00 E13.65416
G1 X123.48 Y104.96 E13.65499
G1 X123.64 Y104.47 E13.66452
G1 X123.70 Y103.46 E13.68351
G1 X123.74 Y103.23 E13.68781
G1 X123.79 Y103.12 E13.69020
G1 X123.89 Y103.04 E13.69250
G1 X124.06 Y102.96 E13.69595
G1 X124.11 Y103.19 E13.70031
G1 X124.26 Y103.27 E13.70361
G1 X124.43 Y103.22 E13.70686
G1 X124.48 Y103.17 E13.70823
G1 X124.66 Y102.86 E13.71480
G1 X124.97 Y102.43 E13.72470
G1 X125.38 Y102.19 E13.73362
G1 X125.78 Y102.14 E13.74128
G1 X126.13 Y102.30 E13.74844
