;Generated with Cura_SteamEngine 13.12
M109 T0 S220.000000
T0
;Sliced ?filename? at: Sun 12-01-2014 20:47:34
;Basic settings: Layer height: 0.05 Walls: 0.4 Fill: 15
;Print time: #P_TIME#
;Filament used: #F_AMNT#m #F_WGHT#g
;Filament cost: #F_COST#
G21        ;metric values
G90        ;absolute positioning
M107       ;start with the fan off
G28 X0 Y0  ;move X/Y to min endstops
G28 Z0     ;move Z to min endstops
G1 Z15.0 F?max_z_speed? ;move the platform down 15mm
G92 E0                  ;zero the extruded length
G1 F200 E3              ;extrude 3mm of feed stock
G92 E0                  ;zero the extruded length again
G1 F9000
M117 Printing...

;Layer count: 38
;LAYER:0
M107
G0 F1800 X88.23 Y76.93 Z0.30
;TYPE:SKIRT
G1 F2400 E0.00000
G1 F1200 X88.83 Y76.33 E0.01619
G1 X89.84 Y75.75 E0.03836
G1 X90.43 Y75.55 E0.05019
G1 X91.40 Y75.43 E0.06872
G1 X91.61 Y75.41 E0.07284
G1 X95.64 Y75.43 E0.14958
G1 X95.78 Y75.44 E0.15229
G1 X96.44 Y75.50 E0.16498
G1 X96.60 Y75.52 E0.16798
G1 X97.24 Y75.65 E0.18037
G1 X97.47 Y75.71 E0.18495
G1 X98.07 Y75.92 E0.19706
G1 X98.29 Y76.02 E0.20169
G1 X98.97 Y76.39 E0.21645
G1 X99.24 Y76.57 E0.22267
G1 X99.87 Y77.10 E0.23820
G1 X100.09 Y77.33 E0.24429
G1 X100.60 Y77.97 E0.25993
G1 X100.79 Y78.25 E0.26633
G1 X100.79 Y78.26 E0.26648
G1 X101.50 Y78.06 E0.28051
G1 X101.79 Y78.00 E0.28626
G1 X102.88 Y77.91 E0.30703
G1 X103.20 Y77.92 E0.31307
G1 X104.55 Y78.07 E0.33907
G1 X104.97 Y78.18 E0.34737
G1 X106.21 Y78.68 E0.37265
G1 X106.58 Y78.89 E0.38079
G1 X106.88 Y79.12 E0.38802
G1 X107.60 Y78.59 E0.40504
G1 X108.25 Y78.30 E0.41864
G1 X109.83 Y78.00 E0.44923
G1 X109.83 Y77.97 E0.44972
G1 X110.27 Y77.04 E0.46929
G1 X110.74 Y76.44 E0.48384
G1 X111.61 Y75.76 E0.50490
G1 X112.30 Y75.45 E0.51934
G1 X113.33 Y75.25 E0.53923
G1 X113.92 Y75.25 E0.55047
G1 X114.94 Y75.43 E0.57019
G1 X115.62 Y75.73 E0.58437
G1 X116.47 Y76.36 E0.60456
G1 X116.93 Y76.90 E0.61811
G1 X117.41 Y77.79 E0.63733
G1 X117.58 Y78.35 E0.64843
G1 X117.69 Y79.18 E0.66446
G1 X117.70 Y79.38 E0.66828
G1 X117.70 Y87.53 E0.82347
G1 X117.69 Y87.73 E0.82742
G1 X117.57 Y88.59 E0.84391
G1 X117.38 Y89.17 E0.85555
G1 X116.88 Y90.07 E0.87516
G1 X116.40 Y90.60 E0.88872
G1 X115.56 Y91.20 E0.90842
G1 X114.92 Y91.46 E0.92160
G1 X113.94 Y91.65 E0.94064
G1 X113.33 Y91.65 E0.95224
G1 X112.36 Y91.46 E0.97119
G1 X112.19 Y91.39 E0.97465
G1 X112.18 Y91.39 E0.97491
G1 X111.50 Y91.56 E0.98811
G1 X111.24 Y91.60 E0.99314
G1 X110.49 Y91.65 E1.00742
G1 X110.20 Y91.65 E1.01300
G1 X109.25 Y91.54 E1.03128
G1 X108.89 Y91.46 E1.03826
G1 X107.96 Y91.14 E1.05711
G1 X107.61 Y90.97 E1.06444
G1 X106.99 Y90.56 E1.07850
G1 X106.59 Y90.81 E1.08750
G1 X106.36 Y90.93 E1.09258
G1 X105.57 Y91.26 E1.10866
G1 X105.33 Y91.34 E1.11357
G1 X104.45 Y91.54 E1.13077
G1 X104.19 Y91.58 E1.13572
G1 X103.16 Y91.65 E1.15540
G1 X102.80 Y91.64 E1.16234
G1 X100.75 Y91.31 E1.20193
G1 X100.13 Y91.08 E1.21449
G1 X99.95 Y90.96 E1.21856
G1 X99.74 Y91.10 E1.22342
G1 X99.40 Y91.28 E1.23071
G1 X98.81 Y91.49 E1.24268
G1 X98.43 Y91.58 E1.24999
G1 X97.79 Y91.65 E1.26228
G1 X97.41 Y91.65 E1.26954
G1 X96.67 Y91.55 E1.28389
G1 X96.18 Y91.41 E1.29362
G1 X95.52 Y91.09 E1.30754
G1 X95.18 Y90.88 E1.31507
G1 X94.71 Y90.49 E1.32679
G1 X94.55 Y90.33 E1.33113
G1 X94.33 Y90.58 E1.33748
G1 X93.43 Y91.20 E1.35832
G1 X92.80 Y91.46 E1.37121
G1 X91.79 Y91.65 E1.39094
G1 X91.19 Y91.65 E1.40218
G1 X90.14 Y91.46 E1.42272
G1 X89.47 Y91.17 E1.43645
G1 X88.57 Y90.51 E1.45770
G1 X88.09 Y89.95 E1.47186
G1 X87.59 Y88.99 E1.49236
G1 X87.43 Y88.45 E1.50315
G1 X87.32 Y87.60 E1.51961
G1 X87.31 Y87.40 E1.52341
G1 X87.30 Y79.71 E1.66981
G1 X87.31 Y79.51 E1.67376
G1 X87.44 Y78.54 E1.69230
G1 X87.64 Y77.94 E1.70439
G1 X88.23 Y76.93 E1.72670
G0 F1800 X89.02 Y94.30
G1 F1200 X89.28 Y94.30 E1.73162
G1 X90.40 Y94.39 E1.75308
G1 X90.69 Y94.43 E1.75862
G1 X91.71 Y94.71 E1.77878
G1 X91.97 Y94.80 E1.78412
G1 X92.87 Y95.22 E1.80297
G1 X93.14 Y95.37 E1.80885
G1 X93.89 Y95.92 E1.82664
G1 X94.14 Y96.14 E1.83287
G1 X94.74 Y96.80 E1.84999
G1 X94.91 Y97.02 E1.85519
G1 X95.56 Y96.93 E1.86767
G1 X96.49 Y97.12 E1.88588
G1 X97.44 Y96.98 E1.90421
G1 X97.91 Y96.98 E1.91305
G1 X98.86 Y97.11 E1.93142
G1 X99.27 Y97.22 E1.93944
G1 X100.01 Y97.53 E1.95471
G1 X100.28 Y97.42 E1.96037
G1 X101.25 Y97.12 E1.97965
G1 X101.57 Y97.06 E1.98596
G1 X102.62 Y96.96 E2.00605
G1 X102.97 Y96.97 E2.01259
G1 X104.27 Y97.13 E2.03764
G1 X104.72 Y97.25 E2.04650
G1 X105.90 Y97.77 E2.07115
G1 X106.29 Y98.01 E2.07972
G1 X106.41 Y98.11 E2.08267
G1 X106.50 Y98.04 E2.08497
G1 X107.38 Y97.55 E2.10408
G1 X107.69 Y97.42 E2.11048
G1 X108.66 Y97.12 E2.12979
G1 X108.98 Y97.06 E2.13611
G1 X110.04 Y96.96 E2.15625
G1 X110.38 Y96.97 E2.16277
G1 X111.68 Y97.13 E2.18780
G1 X112.13 Y97.25 E2.19668
G1 X113.10 Y97.68 E2.21688
G1 X113.34 Y97.49 E2.22268
G1 X114.03 Y97.18 E2.23700
G1 X114.98 Y96.99 E2.25549
G1 X115.51 Y96.97 E2.26575
G1 X116.23 Y97.07 E2.27946
G1 X116.67 Y97.20 E2.28819
G1 X117.07 Y97.10 E2.29605
G1 X118.10 Y96.98 E2.31594
G1 X118.49 Y96.98 E2.32332
G1 X119.52 Y97.11 E2.34313
G1 X119.95 Y97.22 E2.35147
G1 X120.92 Y97.63 E2.37155
G1 X121.32 Y97.87 E2.38055
G1 X122.15 Y98.56 E2.40113
G1 X122.49 Y98.95 E2.41088
G1 X123.04 Y99.82 E2.43064
G1 X123.18 Y100.11 E2.43672
G1 X123.41 Y100.71 E2.44903
G1 X123.48 Y100.94 E2.45355
G1 X123.60 Y101.50 E2.46449
G1 X123.63 Y101.71 E2.46846
G1 X123.68 Y102.31 E2.47997
G1 X123.69 Y102.44 E2.48237
G1 X123.70 Y106.50 E2.55969
G1 X123.69 Y106.70 E2.56358
G1 X123.58 Y107.55 E2.57988
G1 X123.42 Y108.08 E2.59040
G1 X122.97 Y108.97 E2.60955
G1 X122.53 Y109.51 E2.62264
G1 X121.71 Y110.17 E2.64274
G1 X121.02 Y110.49 E2.65718
G1 X120.00 Y110.70 E2.67706
G1 X119.35 Y110.70 E2.68956
G1 X118.32 Y110.49 E2.70957
G1 X117.63 Y110.16 E2.72398
G1 X117.53 Y110.08 E2.72649
G1 X117.37 Y110.20 E2.73024
G1 X116.71 Y110.50 E2.74414
G1 X115.69 Y110.70 E2.76386
G1 X115.04 Y110.70 E2.77628
G1 X114.02 Y110.48 E2.79613
G1 X113.34 Y110.15 E2.81063
G1 X113.21 Y110.05 E2.81374
G1 X112.70 Y110.28 E2.82434
G1 X112.44 Y110.37 E2.82961
G1 X111.59 Y110.59 E2.84629
G1 X111.31 Y110.63 E2.85170
G1 X110.32 Y110.71 E2.87071
G1 X109.93 Y110.69 E2.87818
G1 X107.96 Y110.35 E2.91618
G1 X107.31 Y110.08 E2.92954
G1 X106.60 Y109.59 E2.94605
G1 X106.28 Y109.81 E2.95346
G1 X106.04 Y109.94 E2.95873
G1 X105.29 Y110.28 E2.97434
G1 X105.03 Y110.37 E2.97960
G1 X104.18 Y110.59 E2.99629
G1 X103.90 Y110.63 E3.00169
G1 X102.91 Y110.71 E3.02070
G1 X102.51 Y110.69 E3.02820
G1 X100.55 Y110.35 E3.06613
G1 X99.90 Y110.08 E3.07947
G1 X98.60 Y109.18 E3.10962
G1 X98.28 Y109.57 E3.11930
G1 X97.43 Y110.20 E3.13939
G1 X96.78 Y110.50 E3.15312
G1 X95.77 Y110.70 E3.17261
G1 X95.13 Y110.70 E3.18494
G1 X94.12 Y110.49 E3.20457
G1 X93.44 Y110.18 E3.21871
G1 X92.99 Y109.81 E3.22985
G1 X92.84 Y109.89 E3.23300
G1 X92.65 Y109.97 E3.23682
G1 X91.69 Y110.32 E3.25647
G1 X91.47 Y110.39 E3.26085
G1 X90.46 Y110.60 E3.28050
G1 X90.23 Y110.63 E3.28494
G1 X89.14 Y110.70 E3.30569
G1 X88.90 Y110.70 E3.31021
G1 X87.64 Y110.59 E3.33425
G1 X87.34 Y110.53 E3.34018
G1 X86.13 Y110.19 E3.36406
G1 X85.82 Y110.06 E3.37052
G1 X84.73 Y109.47 E3.39415
G1 X84.43 Y109.27 E3.40103
G1 X83.50 Y108.46 E3.42457
G1 X83.26 Y108.19 E3.43135
G1 X82.53 Y107.19 E3.45488
G1 X82.37 Y106.92 E3.46107
G1 X81.84 Y105.77 E3.48511
G1 X81.74 Y105.48 E3.49094
G1 X81.44 Y104.22 E3.51567
G1 X81.40 Y103.96 E3.52071
G1 X81.30 Y102.61 E3.54646
G1 X81.30 Y102.36 E3.55116
G1 X81.42 Y100.96 E3.57787
G1 X81.45 Y100.72 E3.58250
G1 X81.73 Y99.55 E3.60548
G1 X81.83 Y99.27 E3.61107
G1 X82.34 Y98.11 E3.63518
G1 X82.51 Y97.82 E3.64170
G1 X83.25 Y96.81 E3.66556
G1 X83.50 Y96.54 E3.67260
G1 X84.45 Y95.72 E3.69636
G1 X84.75 Y95.52 E3.70327
G1 X85.85 Y94.94 E3.72706
G1 X86.16 Y94.82 E3.73331
G1 X87.39 Y94.47 E3.75770
G1 X87.69 Y94.41 E3.76364
G1 X89.02 Y94.30 E3.78894
G0 F1800 X89.60 Y113.51
G1 F1200 X93.63 Y113.54 E3.86570
G1 X93.81 Y113.55 E3.86904
G1 X94.52 Y113.63 E3.88270
G1 X94.74 Y113.67 E3.88695
G1 X95.48 Y113.87 E3.90164
G1 X95.78 Y113.98 E3.90774
G1 X96.41 Y114.29 E3.92104
G1 X97.05 Y113.82 E3.93623
G1 X97.71 Y113.54 E3.94990
G1 X98.72 Y113.35 E3.96943
G1 X99.31 Y113.35 E3.98056
G1 X100.31 Y113.53 E4.00001
G1 X100.96 Y113.81 E4.01346
G1 X101.83 Y114.43 E4.03376
G1 X102.30 Y114.96 E4.04732
G1 X102.81 Y115.87 E4.06724
G1 X102.86 Y116.03 E4.07029
G1 X102.92 Y116.03 E4.07149
G1 X103.92 Y116.21 E4.09083
G1 X104.56 Y116.47 E4.10407
G1 X104.96 Y116.76 E4.11347
G1 X105.36 Y116.48 E4.12267
G1 X106.00 Y116.21 E4.13595
G1 X107.00 Y116.03 E4.15522
G1 X107.58 Y116.03 E4.16629
G1 X108.58 Y116.21 E4.18570
G1 X109.23 Y116.49 E4.19924
G1 X109.76 Y116.87 E4.21164
G1 X110.37 Y116.56 E4.22474
G1 X110.67 Y116.44 E4.23077
G1 X111.67 Y116.16 E4.25065
G1 X111.97 Y116.10 E4.25651
G1 X113.06 Y116.01 E4.27731
G1 X113.38 Y116.02 E4.28331
G1 X114.73 Y116.17 E4.30931
G1 X115.16 Y116.28 E4.31761
G1 X116.39 Y116.78 E4.34289
G1 X116.76 Y116.99 E4.35110
G1 X117.77 Y117.77 E4.37544
G1 X118.09 Y118.09 E4.38399
G1 X118.82 Y119.07 E4.40737
G1 X119.02 Y119.44 E4.41525
G1 X119.45 Y120.53 E4.43758
G1 X119.55 Y120.91 E4.44516
G1 X119.70 Y122.07 E4.46753
G1 X119.69 Y122.56 E4.47679
G1 X119.49 Y123.76 E4.49992
G1 X119.59 Y124.39 E4.51219
G1 X119.59 Y124.95 E4.52282
G1 X119.46 Y125.69 E4.53724
G1 X119.33 Y126.09 E4.54514
G1 X119.03 Y126.74 E4.55877
G1 X118.86 Y127.03 E4.56517
G1 X118.42 Y127.60 E4.57887
G1 X118.22 Y127.82 E4.58464
G1 X117.66 Y128.33 E4.59897
G1 X117.43 Y128.49 E4.60431
G1 X116.77 Y128.91 E4.61930
G1 X116.53 Y129.03 E4.62434
G1 X115.75 Y129.36 E4.64041
G1 X115.51 Y129.44 E4.64533
G1 X114.63 Y129.64 E4.66254
G1 X114.37 Y129.68 E4.66756
G1 X113.34 Y129.75 E4.68717
G1 X112.98 Y129.74 E4.69407
G1 X110.93 Y129.41 E4.73364
G1 X110.31 Y129.18 E4.74622
G1 X109.84 Y128.87 E4.75699
G1 X109.27 Y129.28 E4.77033
G1 X108.62 Y129.56 E4.78378
G1 X107.64 Y129.75 E4.80279
G1 X107.03 Y129.75 E4.81435
G1 X106.06 Y129.56 E4.83333
G1 X105.88 Y129.48 E4.83702
G1 X105.87 Y129.49 E4.83712
G1 X105.16 Y129.65 E4.85098
G1 X104.91 Y129.69 E4.85584
G1 X104.13 Y129.74 E4.87071
G1 X103.86 Y129.73 E4.87601
G1 X102.90 Y129.63 E4.89429
G1 X102.52 Y129.54 E4.90175
G1 X101.58 Y129.20 E4.92074
G1 X101.30 Y129.05 E4.92693
G1 X100.93 Y129.30 E4.93539
G1 X100.30 Y129.57 E4.94850
G1 X99.30 Y129.75 E4.96785
G1 X98.70 Y129.75 E4.97928
G1 X97.69 Y129.55 E4.99883
G1 X97.03 Y129.26 E5.01250
G1 X96.52 Y128.88 E5.02477
G1 X96.21 Y129.02 E5.03134
G1 X95.45 Y129.28 E5.04650
G1 X95.25 Y129.33 E5.05048
G1 X94.52 Y129.47 E5.06457
G1 X94.36 Y129.49 E5.06772
G1 X93.59 Y129.56 E5.08245
G1 X93.46 Y129.57 E5.08499
G1 X89.60 Y129.59 E5.15847
G1 X89.38 Y129.57 E5.16258
G1 X88.41 Y129.45 E5.18120
G1 X87.82 Y129.24 E5.19316
G1 X86.79 Y128.65 E5.21569
G1 X86.18 Y128.02 E5.23257
G1 X85.61 Y126.99 E5.25488
G1 X85.43 Y126.42 E5.26639
G1 X85.32 Y125.52 E5.28363
G1 X85.31 Y125.32 E5.28735
G1 X85.30 Y117.82 E5.43044
G1 X85.31 Y117.61 E5.43434
G1 X85.43 Y116.65 E5.45275
G1 X85.63 Y116.06 E5.46461
G1 X86.20 Y115.05 E5.48681
G1 X86.81 Y114.43 E5.50325
G1 X87.83 Y113.85 E5.52553
G1 X88.42 Y113.65 E5.53740
G1 X89.38 Y113.53 E5.55589
G1 X89.60 Y113.51 E5.56013
G1 F2400 E1.06013
G0 F1800 X91.49 Y88.25
;TYPE:WALL-OUTER
G1 F2400 E5.56013
G1 F1200 X91.15 Y88.18 E5.56660
G1 X90.92 Y88.01 E5.57218
G1 X90.76 Y87.71 E5.57868
G1 X90.71 Y87.29 E5.58680
G1 X90.70 Y79.83 E5.72894
G1 X90.76 Y79.34 E5.73837
G1 X90.93 Y79.05 E5.74473
G1 X91.22 Y78.88 E5.75116
G1 X91.72 Y78.82 E5.76061
G1 X95.55 Y78.83 E5.83358
G1 X96.04 Y78.88 E5.84309
G1 X96.46 Y78.96 E5.85119
G1 X96.80 Y79.08 E5.85805
G1 X97.20 Y79.30 E5.86679
G1 X97.55 Y79.59 E5.87531
G1 X97.83 Y79.94 E5.88398
G1 X98.03 Y80.35 E5.89270
G1 X98.16 Y80.80 E5.90152
G1 X98.20 Y81.26 E5.91048
G1 X98.06 Y82.18 E5.92809
G1 X97.64 Y82.86 E5.94344
G1 X96.93 Y83.37 E5.96004
G1 X95.75 Y83.77 E5.98375
G1 X95.72 Y84.02 E5.98850
G1 X96.32 Y84.42 E6.00230
G1 X96.78 Y84.87 E6.01455
G1 X97.25 Y85.46 E6.02893
G1 X97.63 Y86.03 E6.04206
G1 X97.95 Y86.60 E6.05439
G1 X98.19 Y87.10 E6.06506
G1 X98.33 Y87.46 E6.07247
G1 X98.38 Y87.67 E6.07647
G1 X98.36 Y87.79 E6.07886
G1 X98.28 Y87.94 E6.08189
G1 X98.18 Y88.06 E6.08506
G1 X98.03 Y88.16 E6.08832
G1 X97.85 Y88.23 E6.09212
G1 X97.63 Y88.25 E6.09626
G1 X97.38 Y88.22 E6.10100
G1 X97.19 Y88.12 E6.10516
G1 X97.00 Y87.97 E6.10967
G1 X96.85 Y87.79 E6.11427
G1 X95.22 Y85.14 E6.17344
G1 X94.84 Y84.66 E6.18512
G1 X94.47 Y84.32 E6.19469
G1 X94.09 Y84.10 E6.20318
G1 X93.66 Y83.99 E6.21165
G1 X93.17 Y83.95 E6.22105
G1 X92.38 Y83.95 E6.23593
G1 X92.27 Y84.07 E6.23908
G1 X92.27 Y87.25 E6.29965
G1 X92.21 Y87.72 E6.30883
G1 X92.04 Y88.02 E6.31534
G1 X91.81 Y88.19 E6.32081
G1 X91.49 Y88.25 E6.32701
G0 F1800 X91.50 Y87.94
G0 X91.88 Y83.91
G0 X92.39 Y83.25
G0 X92.39 Y82.95
G1 F1200 X94.94 Y82.91 E6.37578
G1 X95.48 Y82.81 E6.38614
G1 X95.96 Y82.62 E6.39594
G1 X96.29 Y82.35 E6.40417
G1 X96.32 Y82.32 E6.40490
G1 X96.53 Y81.94 E6.41323
G1 X96.54 Y81.91 E6.41393
G1 X96.61 Y81.41 E6.42342
G1 X96.61 Y81.39 E6.42395
G1 X96.56 Y80.98 E6.43176
G1 X96.55 Y80.95 E6.43233
G1 X96.36 Y80.57 E6.44039
G1 X96.08 Y80.26 E6.44848
G1 X95.72 Y80.05 E6.45626
G1 X95.69 Y80.04 E6.45689
G1 X95.14 Y79.92 E6.46771
G1 X92.39 Y79.88 E6.52015
G1 X92.27 Y80.00 E6.52334
G1 X92.27 Y82.83 E6.57721
G1 X92.39 Y82.95 E6.58040
G0 F1800 X92.42 Y83.08
;TYPE:FILL
G1 F1200 X93.14 Y83.81 E6.59991
G0 F1800 X92.58 Y83.81
G1 F1200 X90.84 Y82.07 E6.64674
G0 F1800 X90.84 Y81.50
G1 F1200 X92.13 Y82.79 E6.68141
G0 F1800 X92.13 Y82.23
G1 F1200 X90.84 Y80.94 E6.71609
G0 F1800 X90.84 Y80.37
G1 F1200 X92.13 Y81.66 E6.75078
G0 F1800 X92.13 Y81.10
G1 F1200 X90.84 Y79.81 E6.78541
G0 F1800 X90.93 Y79.33
G1 F1200 X92.13 Y80.53 E6.81770
G0 F1800 X92.13 Y79.96
G1 F1200 X91.21 Y79.05 E6.84241
G0 F1800 X91.69 Y78.96
G1 F1200 X92.47 Y79.74 E6.86353
G0 F1800 X93.04 Y79.75
G1 F1200 X92.25 Y78.96 E6.88497
G0 F1800 X92.82 Y78.96
G1 F1200 X93.62 Y79.76 E6.90654
G0 F1800 X94.19 Y79.77
G1 F1200 X93.39 Y78.96 E6.92826
G0 F1800 X93.96 Y78.96
G1 F1200 X94.77 Y79.78 E6.95013
G0 F1800 X95.39 Y79.83
G1 F1200 X94.52 Y78.97 E6.97337
G0 F1800 X95.09 Y78.97
G1 F1200 X97.97 Y81.85 E7.05084
G0 F1800 X97.83 Y82.28
G1 F1200 X96.72 Y81.17 E7.08078
G0 F1800 X96.71 Y81.72
G1 F1200 X97.62 Y82.63 E7.10528
G0 F1800 X97.33 Y82.91
G1 F1200 X96.57 Y82.15 E7.12581
G0 F1800 X96.35 Y82.49
G1 F1200 X97.00 Y83.15 E7.14352
G0 F1800 X96.62 Y83.33
G1 F1200 X96.04 Y82.74 E7.15932
G0 F1800 X95.63 Y82.90
G1 F1200 X96.20 Y83.47 E7.17461
G0 F1800 X95.77 Y83.61
G1 F1200 X95.17 Y83.01 E7.19086
G0 F1800 X94.65 Y83.05
G1 F1200 X95.58 Y83.99 E7.21607
G0 F1800 X95.90 Y84.31
G1 F1200 X97.15 Y85.55 E7.24964
G0 F1800 X95.92 Y86.02
G1 F1200 X97.94 Y88.04 E7.30397
G0 F1800 X98.22 Y87.75
G1 F1200 X93.53 Y83.07 E7.43021
G0 F1800 X92.98 Y83.08
G1 F1200 X93.77 Y83.87 E7.45151
G0 F1800 X94.09 Y83.06
G1 F1200 X97.95 Y86.92 E7.55557
G0 F1800 X96.84 Y87.50
G1 F1200 X97.41 Y88.07 E7.57093
G0 F1800 X97.47 Y87.93
G0 X95.32 Y84.20
G0 X95.42 Y83.49
G0 X97.80 Y81.25
G0 X95.53 Y79.23
G0 X91.15 Y79.46
G0 X91.96 Y87.29
G0 X92.12 Y87.31
G1 F1200 X90.84 Y86.03 E7.60528
G0 F1800 X90.84 Y85.47
G1 F1200 X92.13 Y86.75 E7.63988
G0 F1800 X92.13 Y86.19
G1 F1200 X90.84 Y84.90 E7.67448
G0 F1800 X90.84 Y84.33
G1 F1200 X92.13 Y85.62 E7.70910
G0 F1800 X92.13 Y85.06
G1 F1200 X90.84 Y83.77 E7.74373
G0 F1800 X90.84 Y83.20
G1 F1200 X92.13 Y84.49 E7.77838
G0 F1800 X92.17 Y83.97
G1 F1200 X90.84 Y82.64 E7.81416
G0 F1800 X91.00 Y82.64
G0 X91.00 Y86.60
G0 X90.84 Y86.60
G1 F1200 X92.02 Y87.78 E7.84581
G0 F1800 X91.73 Y88.06
G1 F1200 X90.84 Y87.17 E7.86981
G0 F1800 X91.00 Y87.17
G0 X91.88 Y83.91
G0 X92.22 Y83.57
G0 X94.29 Y83.75
G0 X94.72 Y84.01
G0 X97.89 Y81.33
G0 X98.05 Y81.36
G1 F1200 X95.67 Y78.98 E7.93378
G0 F1800 X96.33 Y79.08
G1 F1200 X98.00 Y80.75 E7.97886
G0 F1800 X97.56 Y80.93
G1 F2400 E3.47886
G0 F1800 X100.16 Y82.76
;TYPE:WALL-OUTER
G1 F2400 E7.97886
G1 F1200 X100.53 Y82.26 E7.99079
G1 X101.01 Y81.86 E8.00265
G1 X101.58 Y81.57 E8.01494
G1 X102.25 Y81.38 E8.02827
G1 X102.99 Y81.32 E8.04227
G1 X103.93 Y81.42 E8.06033
G1 X104.71 Y81.74 E8.07631
G1 X105.33 Y82.21 E8.09122
G1 X105.77 Y82.81 E8.10537
G1 X106.03 Y83.48 E8.11902
G1 X106.12 Y84.14 E8.13187
G1 X106.04 Y84.62 E8.14106
