;Generated with Cura_SteamEngine 13.12
M109 T0 S235.000000
T0
;Sliced at: Tue 21-01-2014 13:51:34
;Basic settings: Layer height: 0.05 Walls: 0.4 Fill: 55
;Print time: #P_TIME#
;Filament used: #F_AMNT#m #F_WGHT#g
;Filament cost: #F_COST#
;M190 S70 ;Uncomment to add your own bed temperature line
;M109 S235 ;Uncomment to add your own temperature line
G21        ;metric values
G90        ;absolute positioning
M107       ;start with the fan off
G28 X0 Y0  ;move X/Y to min endstops
G28 Z0     ;move Z to min endstops
G1 Z15.0 F10800 ;move the platform down 15mm
G92 E0                  ;zero the extruded length
G1 F200 E3              ;extrude 3mm of feed stock
G92 E0                  ;zero the extruded length again
G1 F10800
;Put printing message on LCD screen
M117 Printing...

;Layer count: 58
;LAYER:0
M107
G0 F3000 X93.59 Y93.05 Z0.30
;TYPE:SKIRT
G1 F2400 E0.00000
G1 F1140 X93.88 Y92.80 E0.00704
G1 X95.79 Y91.41 E0.05118
G1 X96.11 Y91.22 E0.05824
G1 X98.27 Y90.26 E0.10239
G1 X98.63 Y90.15 E0.10942
G1 X100.94 Y89.65 E0.15360
G1 X101.32 Y89.61 E0.16064
G1 X103.68 Y89.61 E0.20474
G1 X104.06 Y89.65 E0.21178
G1 X106.37 Y90.15 E0.25595
G1 X106.73 Y90.26 E0.26298
G1 X108.89 Y91.22 E0.30714
G1 X109.21 Y91.41 E0.31420
G1 X111.12 Y92.80 E0.35834
G1 X111.40 Y93.05 E0.36538
G1 X112.99 Y94.81 E0.40950
G1 X113.21 Y95.11 E0.41656
G1 X114.39 Y97.16 E0.46072
G1 X114.54 Y97.51 E0.46778
G1 X115.27 Y99.75 E0.51191
G1 X115.35 Y100.12 E0.51892
G1 X115.75 Y103.88 E0.58947
G1 X114.86 Y104.86 E0.61419
G1 X114.85 Y104.97 E0.61623
G1 X114.82 Y105.12 E0.61918
G1 X114.68 Y105.76 E0.63136
G1 X114.64 Y105.92 E0.63448
G1 X114.22 Y107.19 E0.65932
G1 X114.14 Y107.41 E0.66381
G1 X113.52 Y108.70 E0.69050
G1 X113.41 Y108.89 E0.69454
G1 X112.75 Y109.94 E0.71777
G1 X112.65 Y110.07 E0.72088
G1 X112.21 Y110.63 E0.73414
G1 X112.13 Y110.73 E0.73656
G1 X111.63 Y111.29 E0.75056
G1 X111.57 Y111.36 E0.75235
G1 X111.15 Y111.78 E0.76340
G1 X111.06 Y111.86 E0.76556
G1 X110.53 Y112.33 E0.77888
G1 X110.39 Y112.44 E0.78227
G1 X109.27 Y113.25 E0.80801
G1 X109.12 Y113.34 E0.81119
G1 X108.49 Y113.71 E0.82491
G1 X108.34 Y113.79 E0.82811
G1 X107.13 Y114.34 E0.85285
G1 X106.92 Y114.42 E0.85707
G1 X105.66 Y114.82 E0.88179
G1 X105.49 Y114.86 E0.88502
G1 X104.80 Y115.01 E0.89818
G1 X104.70 Y115.03 E0.90023
G1 X104.04 Y115.13 E0.91268
G1 X103.94 Y115.14 E0.91456
G1 X103.35 Y115.20 E0.92565
G1 X103.23 Y115.21 E0.92775
G1 X102.55 Y115.23 E0.94055
G1 X102.42 Y115.23 E0.94300
G1 X101.63 Y115.20 E0.95767
G1 X101.47 Y115.18 E0.96075
G1 X100.19 Y115.01 E0.98481
G1 X100.04 Y114.98 E0.98777
G1 X99.40 Y114.84 E0.99995
G1 X99.24 Y114.80 E1.00306
G1 X97.97 Y114.39 E1.02790
G1 X97.75 Y114.30 E1.03240
G1 X96.46 Y113.68 E1.05909
G1 X96.27 Y113.57 E1.06313
G1 X95.22 Y112.91 E1.08636
G1 X95.09 Y112.81 E1.08947
G1 X94.51 Y112.36 E1.10314
G1 X94.38 Y112.25 E1.10636
G1 X93.44 Y111.36 E1.13050
G1 X93.32 Y111.25 E1.13354
G1 X92.83 Y110.70 E1.14732
G1 X92.72 Y110.55 E1.15083
G1 X91.92 Y109.43 E1.17658
G1 X91.82 Y109.29 E1.17977
G1 X91.45 Y108.65 E1.19349
G1 X91.37 Y108.50 E1.19669
G1 X90.82 Y107.29 E1.22143
G1 X90.74 Y107.08 E1.22565
G1 X90.34 Y105.82 E1.25037
G1 X90.30 Y105.65 E1.25360
G1 X90.15 Y104.97 E1.26676
G1 X90.13 Y104.86 E1.26881
G1 X90.13 Y104.85 E1.26892
G1 X89.25 Y103.88 E1.29342
G1 X89.65 Y100.12 E1.36397
G1 X89.73 Y99.75 E1.37098
G1 X90.46 Y97.51 E1.41511
G1 X90.61 Y97.16 E1.42218
G1 X91.79 Y95.11 E1.46633
G1 X92.01 Y94.81 E1.47339
G1 X93.59 Y93.05 E1.51751
G0 F3000 X93.88 Y93.34
G1 F1140 X94.13 Y93.11 E1.52374
G1 X96.00 Y91.75 E1.56712
G1 X96.29 Y91.58 E1.57340
G1 X98.42 Y90.64 E1.61676
G1 X98.74 Y90.53 E1.62302
G1 X101.01 Y90.05 E1.66639
G1 X101.34 Y90.01 E1.67266
G1 X103.66 Y90.01 E1.71598
G1 X103.99 Y90.05 E1.72225
G1 X106.26 Y90.53 E1.76562
G1 X106.58 Y90.64 E1.77188
G1 X108.70 Y91.58 E1.81525
G1 X109.00 Y91.75 E1.82152
G1 X110.87 Y93.11 E1.86490
G1 X111.12 Y93.34 E1.87113
G1 X112.67 Y95.06 E1.91447
G1 X112.87 Y95.33 E1.92076
G1 X114.03 Y97.34 E1.96412
G1 X114.17 Y97.65 E1.97041
G1 X114.89 Y99.86 E2.01375
G1 X114.96 Y100.18 E2.01999
G1 X115.33 Y103.74 E2.08682
G1 X114.48 Y104.68 E2.11051
G1 X114.45 Y104.91 E2.11470
G1 X114.43 Y105.05 E2.11734
G1 X114.29 Y105.66 E2.12917
G1 X114.25 Y105.81 E2.13194
G1 X113.85 Y107.05 E2.15634
G1 X113.77 Y107.25 E2.16034
G1 X113.16 Y108.51 E2.18656
G1 X113.07 Y108.68 E2.19016
G1 X112.41 Y109.71 E2.21299
G1 X112.33 Y109.83 E2.21575
G1 X111.90 Y110.38 E2.22873
G1 X111.83 Y110.47 E2.23086
G1 X111.34 Y111.02 E2.24465
G1 X111.28 Y111.08 E2.24622
G1 X110.87 Y111.49 E2.25706
G1 X110.79 Y111.56 E2.25899
G1 X110.27 Y112.02 E2.27199
G1 X110.14 Y112.12 E2.27502
G1 X109.04 Y112.92 E2.30037
G1 X108.91 Y113.00 E2.30321
G1 X108.29 Y113.36 E2.31657
G1 X108.16 Y113.43 E2.31941
G1 X106.98 Y113.97 E2.34375
G1 X106.79 Y114.04 E2.34749
G1 X105.55 Y114.44 E2.37180
G1 X105.40 Y114.48 E2.37467
G1 X104.73 Y114.62 E2.38754
G1 X104.63 Y114.64 E2.38936
G1 X103.98 Y114.74 E2.40159
G1 X103.89 Y114.75 E2.40324
G1 X103.32 Y114.80 E2.41413
G1 X103.21 Y114.81 E2.41602
G1 X102.54 Y114.83 E2.42856
G1 X102.43 Y114.83 E2.43072
G1 X101.66 Y114.80 E2.44510
G1 X101.51 Y114.78 E2.44784
G1 X100.25 Y114.62 E2.47154
G1 X100.11 Y114.59 E2.47418
G1 X99.50 Y114.45 E2.48601
G1 X99.35 Y114.41 E2.48878
G1 X98.11 Y114.01 E2.51318
G1 X97.91 Y113.93 E2.51718
G1 X96.65 Y113.32 E2.54341
G1 X96.48 Y113.23 E2.54701
G1 X95.45 Y112.57 E2.56983
G1 X95.33 Y112.49 E2.57259
G1 X94.76 Y112.05 E2.58592
G1 X94.65 Y111.95 E2.58878
G1 X93.72 Y111.08 E2.61257
G1 X93.62 Y110.98 E2.61529
G1 X93.14 Y110.44 E2.62873
G1 X93.04 Y110.31 E2.63182
G1 X92.25 Y109.20 E2.65721
G1 X92.16 Y109.07 E2.66005
G1 X91.80 Y108.46 E2.67341
G1 X91.73 Y108.32 E2.67625
G1 X91.19 Y107.14 E2.70059
G1 X91.12 Y106.95 E2.70433
G1 X90.72 Y105.71 E2.72864
G1 X90.68 Y105.56 E2.73151
G1 X90.54 Y104.89 E2.74438
G1 X90.52 Y104.79 E2.74620
G1 X90.51 Y104.68 E2.74841
G1 X89.67 Y103.74 E2.77185
G1 X90.04 Y100.18 E2.83868
G1 X90.11 Y99.86 E2.84493
G1 X90.83 Y97.65 E2.88827
G1 X90.97 Y97.34 E2.89455
G1 X92.13 Y95.33 E2.93792
G1 X92.32 Y95.06 E2.94420
G1 X93.88 Y93.34 E2.98755
G0 F3000 X98.90 Y98.73
G1 F1140 X98.33 Y99.35 E3.00330
G1 X98.23 Y99.48 E3.00639
G1 X97.81 Y100.14 E3.02094
G1 X97.53 Y100.74 E3.03336
G1 X97.32 Y101.44 E3.04696
G1 X97.28 Y101.61 E3.05033
G1 X97.18 Y102.38 E3.06469
G1 X97.17 Y102.66 E3.06993
G1 X97.18 Y102.99 E3.07623
G1 X97.28 Y103.70 E3.08950
G1 X97.46 Y104.40 E3.10312
G1 X97.56 Y104.66 E3.10826
G1 X97.68 Y104.92 E3.11359
G1 X98.05 Y105.60 E3.12804
G1 X98.21 Y105.82 E3.13322
G1 X98.39 Y106.06 E3.13877
G1 X98.92 Y106.61 E3.15303
G1 X99.14 Y106.79 E3.15828
G1 X99.32 Y106.94 E3.16260
G1 X99.98 Y107.35 E3.17715
G1 X100.58 Y107.63 E3.18957
G1 X101.28 Y107.85 E3.20317
G1 X101.45 Y107.89 E3.20654
G1 X102.21 Y107.98 E3.22090
G1 X102.50 Y107.99 E3.22614
G1 X102.83 Y107.98 E3.23244
G1 X103.54 Y107.88 E3.24571
G1 X104.24 Y107.70 E3.25933
G1 X104.50 Y107.60 E3.26447
G1 X104.76 Y107.49 E3.26980
G1 X105.43 Y107.11 E3.28425
G1 X105.66 Y106.95 E3.28943
G1 X105.95 Y106.73 E3.29616
G1 X106.10 Y106.59 E3.29996
G1 X106.68 Y105.97 E3.31577
G1 X106.77 Y105.84 E3.31881
G1 X107.19 Y105.18 E3.33336
G1 X107.47 Y104.58 E3.34578
G1 X107.68 Y103.89 E3.35937
G1 X107.72 Y103.71 E3.36275
G1 X107.82 Y102.95 E3.37711
G1 X107.83 Y102.66 E3.38244
G1 X107.82 Y102.33 E3.38864
G1 X107.72 Y101.63 E3.40192
G1 X107.54 Y100.92 E3.41554
G1 X107.44 Y100.66 E3.42068
G1 X107.32 Y100.40 E3.42601
G1 X106.95 Y99.73 E3.44046
G1 X106.79 Y99.50 E3.44564
G1 X106.61 Y99.26 E3.45119
G1 X106.08 Y98.71 E3.46545
G1 X105.86 Y98.53 E3.47077
G1 X105.68 Y98.39 E3.47502
G1 X105.02 Y97.97 E3.48957
G1 X104.42 Y97.70 E3.50199
G1 X103.72 Y97.48 E3.51558
G1 X103.55 Y97.44 E3.51895
G1 X102.79 Y97.34 E3.53332
G1 X102.50 Y97.33 E3.53855
G1 X102.17 Y97.34 E3.54485
G1 X101.46 Y97.44 E3.55812
G1 X100.76 Y97.63 E3.57175
G1 X100.50 Y97.72 E3.57689
G1 X100.24 Y97.84 E3.58222
G1 X99.57 Y98.22 E3.59667
G1 X99.34 Y98.37 E3.60185
G1 X99.05 Y98.60 E3.60858
G1 X98.90 Y98.73 E3.61238
G0 F3000 X99.18 Y99.02
G1 F1140 X98.63 Y99.61 E3.62753
G1 X98.55 Y99.71 E3.62987
G1 X98.16 Y100.33 E3.64362
G1 X97.91 Y100.89 E3.65502
G1 X97.70 Y101.54 E3.66789
G1 X97.67 Y101.69 E3.67060
G1 X97.58 Y102.41 E3.68422
G1 X97.57 Y102.64 E3.68852
G1 X97.58 Y102.97 E3.69463
G1 X97.67 Y103.62 E3.70701
G1 X97.84 Y104.26 E3.71932
G1 X97.94 Y104.53 E3.72464
G1 X98.03 Y104.74 E3.72907
G1 X98.39 Y105.38 E3.74271
G1 X98.54 Y105.60 E3.74764
G1 X98.69 Y105.79 E3.75220
G1 X99.20 Y106.32 E3.76588
G1 X99.40 Y106.49 E3.77086
G1 X99.55 Y106.61 E3.77434
G1 X100.17 Y107.00 E3.78809
G1 X100.72 Y107.25 E3.79948
G1 X101.38 Y107.46 E3.81232
G1 X101.52 Y107.49 E3.81507
G1 X102.25 Y107.58 E3.82869
G1 X102.48 Y107.59 E3.83298
G1 X102.80 Y107.58 E3.83910
G1 X103.46 Y107.49 E3.85148
G1 X104.10 Y107.32 E3.86389
G1 X104.36 Y107.22 E3.86910
G1 X104.58 Y107.13 E3.87353
G1 X105.22 Y106.77 E3.88717
G1 X105.44 Y106.62 E3.89210
G1 X105.69 Y106.42 E3.89814
G1 X105.82 Y106.31 E3.90132
G1 X106.37 Y105.71 E3.91646
G1 X106.45 Y105.61 E3.91881
G1 X106.84 Y104.99 E3.93256
G1 X107.09 Y104.44 E3.94395
G1 X107.30 Y103.78 E3.95683
G1 X107.33 Y103.64 E3.95954
G1 X107.42 Y102.92 E3.97315
G1 X107.43 Y102.68 E3.97745
G1 X107.42 Y102.36 E3.98356
G1 X107.33 Y101.70 E3.99595
G1 X107.16 Y101.06 E4.00836
G1 X107.06 Y100.80 E4.01357
G1 X106.97 Y100.58 E4.01800
G1 X106.61 Y99.94 E4.03164
G1 X106.46 Y99.73 E4.03657
G1 X106.31 Y99.53 E4.04113
G1 X105.80 Y99.00 E4.05482
G1 X105.60 Y98.83 E4.05985
G1 X105.45 Y98.72 E4.06327
G1 X104.83 Y98.32 E4.07703
G1 X104.28 Y98.07 E4.08842
G1 X103.62 Y97.86 E4.10129
G1 X103.48 Y97.83 E4.10401
G1 X102.75 Y97.74 E4.11762
G1 X102.52 Y97.73 E4.12192
G1 X102.20 Y97.74 E4.12803
G1 X101.54 Y97.83 E4.14042
G1 X100.90 Y98.00 E4.15283
G1 X100.64 Y98.10 E4.15804
G1 X100.42 Y98.20 E4.16247
G1 X99.78 Y98.55 E4.17611
G1 X99.56 Y98.70 E4.18104
G1 X99.31 Y98.90 E4.18708
G1 X99.18 Y99.02 E4.19025
G1 F2400 E-0.30975
G0 F3000 X96.52 Y96.30
;TYPE:WALL-OUTER
G1 F2400 E4.19025
G1 F1140 X95.73 Y97.15 E4.21196
G1 X95.43 Y97.54 E4.22101
G1 X94.81 Y98.53 E4.24279
G1 X94.35 Y99.52 E4.26326
G1 X94.03 Y100.56 E4.28359
G1 X93.92 Y101.02 E4.29249
G1 X93.78 Y102.12 E4.31305
G1 X93.77 Y102.67 E4.32331
G1 X93.79 Y103.29 E4.33498
G1 X93.94 Y104.37 E4.35541
G1 X94.22 Y105.43 E4.37580
G1 X94.41 Y105.94 E4.38610
G1 X94.63 Y106.45 E4.39642
G1 X95.17 Y107.40 E4.41679
G1 X95.82 Y108.29 E4.43736
G1 X96.58 Y109.07 E4.45775
G1 X96.99 Y109.44 E4.46802
G1 X97.38 Y109.73 E4.47705
G1 X98.36 Y110.35 E4.49883
G1 X99.36 Y110.81 E4.51930
G1 X100.40 Y111.14 E4.53963
G1 X100.86 Y111.24 E4.54853
G1 X101.95 Y111.38 E4.56909
G1 X102.50 Y111.39 E4.57935
G1 X103.13 Y111.37 E4.59102
G1 X104.21 Y111.22 E4.61145
G1 X105.27 Y110.94 E4.63184
G1 X105.78 Y110.75 E4.64214
G1 X106.29 Y110.53 E4.65246
G1 X107.24 Y109.99 E4.67283
G1 X108.12 Y109.34 E4.69331
G1 X108.48 Y109.02 E4.70233
G1 X109.27 Y108.17 E4.72403
G1 X109.57 Y107.79 E4.73309
G1 X110.19 Y106.80 E4.75487
G1 X110.64 Y105.80 E4.77534
G1 X110.97 Y104.76 E4.79567
G1 X111.08 Y104.30 E4.80457
G1 X111.21 Y103.21 E4.82513
G1 X111.23 Y102.66 E4.83539
G1 X111.21 Y102.03 E4.84705
G1 X111.06 Y100.95 E4.86749
G1 X110.78 Y99.89 E4.88788
G1 X110.59 Y99.38 E4.89817
G1 X110.36 Y98.87 E4.90849
G1 X109.83 Y97.92 E4.92887
G1 X109.18 Y97.04 E4.94944
G1 X108.42 Y96.25 E4.96982
G1 X108.01 Y95.89 E4.98010
G1 X107.62 Y95.59 E4.98913
G1 X106.64 Y94.97 E5.01090
G1 X105.64 Y94.52 E5.03137
G1 X104.60 Y94.19 E5.05171
G1 X104.14 Y94.08 E5.06061
G1 X103.04 Y93.95 E5.08117
G1 X102.50 Y93.93 E5.09132
G1 X101.87 Y93.95 E5.10309
G1 X100.79 Y94.10 E5.12353
G1 X99.73 Y94.38 E5.14392
G1 X99.22 Y94.57 E5.15421
G1 X98.71 Y94.80 E5.16453
G1 X97.76 Y95.33 E5.18491
G1 X96.88 Y95.98 E5.20538
G1 X96.52 Y96.30 E5.21441
G0 F3000 X96.28 Y95.75
G1 F1140 X97.85 Y94.61 E5.25074
G1 X99.62 Y93.82 E5.28699
G1 X101.53 Y93.42 E5.32338
G1 X103.47 Y93.42 E5.35958
G1 X105.38 Y93.82 E5.39598
G1 X107.15 Y94.61 E5.43223
G1 X108.72 Y95.75 E5.46856
G1 X110.02 Y97.20 E5.50491
G1 X110.99 Y98.88 E5.54118
G1 X111.59 Y100.73 E5.57747
G1 X111.78 Y102.46 E5.61004
G1 X111.39 Y102.46 E5.61736
G1 X111.27 Y102.57 E5.62036
G1 X111.24 Y103.28 E5.63354
G1 X111.10 Y104.38 E5.65427
G1 X110.99 Y104.84 E5.66311
G1 X110.65 Y105.89 E5.68375
G1 X110.15 Y106.94 E5.70558
G1 X109.59 Y107.82 E5.72488
G1 X109.26 Y108.24 E5.73498
G1 X108.83 Y108.72 E5.74690
G1 X108.50 Y109.06 E5.75576
G1 X108.09 Y109.41 E5.76587
G1 X107.13 Y110.10 E5.78802
G1 X106.67 Y110.37 E5.79801
G1 X105.66 Y110.84 E5.81879
G1 X104.61 Y111.17 E5.83932
G1 X104.07 Y111.28 E5.84967
G1 X103.52 Y111.37 E5.86003
G1 X103.05 Y111.41 E5.86875
G1 X102.50 Y111.43 E5.87905
G1 X101.88 Y111.40 E5.89077
G1 X100.78 Y111.26 E5.91133
G1 X100.32 Y111.15 E5.92018
G1 X99.27 Y110.81 E5.94081
G1 X98.22 Y110.31 E5.96265
G1 X97.35 Y109.75 E5.98194
G1 X96.91 Y109.42 E5.99214
G1 X96.11 Y108.66 E6.01275
G1 X95.75 Y108.25 E6.02305
G1 X95.06 Y107.29 E6.04507
G1 X94.79 Y106.83 E6.05506
G1 X94.32 Y105.81 E6.07593
G1 X93.99 Y104.76 E6.09649
G1 X93.88 Y104.22 E6.10679
G1 X93.79 Y103.68 E6.11706
G1 X93.75 Y103.21 E6.12580
G1 X93.73 Y102.57 E6.13777
G1 X93.61 Y102.46 E6.14080
G1 X93.22 Y102.46 E6.14811
G1 X93.41 Y100.73 E6.18068
G1 X94.01 Y98.88 E6.21697
G1 X94.98 Y97.20 E6.25324
G1 X96.28 Y95.75 E6.28959
G0 F3000 X96.26 Y95.98
;TYPE:FILL
G1 F1140 X96.31 Y96.32 E6.29462
G1 X95.86 Y96.42 E6.29947
G1 X95.77 Y96.90 E6.30422
G1 X95.32 Y97.02 E6.30889
G1 X95.27 Y97.54 E6.31407
G1 X94.85 Y97.68 E6.31937
G1 X94.83 Y98.23 E6.32439
G1 X94.44 Y98.40 E6.32910
G1 X94.45 Y98.97 E6.33434
G1 X94.06 Y99.15 E6.34035
G1 X94.02 Y99.68 E6.34558
G1 X93.89 Y100.11 E6.35088
G1 X93.75 Y100.54 E6.35626
G1 X93.65 Y101.01 E6.36237
G1 X93.59 Y101.51 E6.36854
G1 X93.53 Y102.02 E6.37450
G1 X93.55 Y102.32 E6.38017
G1 F2400 E1.88017
G0 F3000 X96.75 Y95.90
G1 F2400 E6.38017
G1 F1140 X96.73 Y95.60 E6.38511
G1 X97.24 Y95.54 E6.38988
G1 X97.38 Y95.12 E6.39460
G1 X97.91 Y95.08 E6.39935
G1 X98.07 Y94.67 E6.40502
G1 X98.55 Y94.59 E6.41020
G1 X98.93 Y94.41 E6.41497
G1 X99.33 Y94.24 E6.41983
G1 X99.75 Y94.09 E6.42526
G1 X100.20 Y93.98 E6.43124
G1 X100.66 Y93.87 E6.43674
G1 X101.13 Y93.77 E6.44235
G1 X101.63 Y93.71 E6.44878
G1 X102.17 Y93.68 E6.45540
G1 X102.72 Y93.67 E6.46156
G1 X103.30 Y93.69 E6.46851
G1 X103.99 Y93.80 E6.47760
G1 X104.69 Y93.94 E6.48576
G1 X105.51 Y94.19 E6.49623
G1 X106.23 Y94.63 E6.51202
G0 F3000 X106.75 Y94.58
G1 F1140 X107.53 Y95.37 E6.53274
G0 F3000 X108.48 Y95.75
G1 F1140 X108.99 Y96.26 E6.54636
G0 F3000 X108.88 Y96.37
G0 X109.92 Y97.52
G0 X109.78 Y97.62
G1 F1140 X110.54 Y98.38 E6.56655
G0 F3000 X110.56 Y98.96
G1 F1140 X110.97 Y99.66 E6.57887
G1 X111.21 Y100.46 E6.58875
G1 X111.37 Y101.19 E6.59816
G1 X111.45 Y101.83 E6.60590
G1 X111.62 Y102.28 E6.61492
;LAYER:1
M106 S63
G0 F10800 X111.78 Y102.46 Z0.35
;TYPE:WALL-OUTER
G1 F1560 X111.41 Y102.46 E6.61606
G1 X111.30 Y102.57 E6.61656
G1 X111.28 Y103.22 E6.61856
G1 X111.22 Y103.77 E6.62028
G1 X111.02 Y104.85 E6.62370
G1 X110.68 Y105.90 E6.62716
G1 X110.46 Y106.40 E6.62886
G1 X109.93 Y107.37 E6.63229
G1 X109.28 Y108.27 E6.63575
G1 X108.52 Y109.08 E6.63920
G1 X107.67 Y109.78 E6.64262
G1 X107.21 Y110.09 E6.64435
G1 X106.25 Y110.62 E6.64777
G1 X105.22 Y111.03 E6.65122
G1 X104.14 Y111.30 E6.65468
G1 X103.06 Y111.44 E6.65809
G1 X102.50 Y111.46 E6.65982
G1 X101.94 Y111.44 E6.66155
G1 X101.40 Y111.39 E6.66326
G1 X100.32 Y111.18 E6.66669
G1 X99.26 Y110.84 E6.67015
G1 X98.76 Y110.62 E6.67185
G1 X97.79 Y110.09 E6.67527
G1 X96.88 Y109.43 E6.67877
G1 X96.09 Y108.68 E6.68216
G1 X95.38 Y107.83 E6.68563
G1 X95.07 Y107.37 E6.68733
G1 X94.54 Y106.41 E6.69075
G1 X94.14 Y105.38 E6.69420
G1 X93.86 Y104.30 E6.69767
G1 X93.72 Y103.22 E6.70107
G1 X93.70 Y102.57 E6.70308
G1 X93.59 Y102.46 E6.70358
G1 X93.22 Y102.46 E6.70471
G1 X93.41 Y100.73 E6.71014
G1 X94.01 Y98.88 E6.71619
G1 X94.98 Y97.20 E6.72223
G1 X96.28 Y95.75 E6.72829
G1 X97.85 Y94.61 E6.73435
G1 X99.62 Y93.82 E6.74039
G1 X101.53 Y93.42 E6.74645
G1 X103.47 Y93.42 E6.75249
G1 X105.38 Y93.82 E6.75855
G1 X107.15 Y94.61 E6.76460
G1 X108.72 Y95.75 E6.77065
G1 X110.02 Y97.20 E6.77671
G1 X110.99 Y98.88 E6.78275
G1 X111.59 Y100.73 E6.78880
